<?xml version="1.0" encoding="UTF-8"?>
<map version="1.10" tiledversion="1.10.2" orientation="orthogonal" renderorder="right-down" width="38" height="40" tilewidth="16" tileheight="16" infinite="0" nextlayerid="7" nextobjectid="10000">
 <tileset firstgid="1" source="../../tuxemon/gfx/tilesets/core_outdoor.tsx" />
 <layer id="1" name="Ground" width="38" height="40">
  <data encoding="csv">
133,133,133,133,133,133,133,133,133,133,133,133,133,133,133,133,133,133,133,133,133,133,133,133,133,133,133,133,133,133,133,133,133,133,133,133,133,133,
133,133,133,133,133,133,133,133,133,133,133,133,133,133,133,133,133,133,133,133,133,133,133,133,133,133,133,133,133,133,133,133,133,133,133,133,133,133,
133,133,133,133,133,133,133,133,133,133,133,133,133,133,133,133,133,133,133,133,133,133,133,133,133,133,133,133,133,133,133,133,133,133,133,133,133,133,
133,133,133,133,133,133,133,133,133,133,133,133,133,133,133,133,133,133,133,133,133,133,133,133,133,133,133,133,133,133,133,133,133,133,133,133,133,133,
133,133,133,133,133,133,133,133,133,133,133,133,133,133,133,133,133,133,133,133,133,133,133,133,133,133,133,133,133,133,133,133,133,133,133,133,133,133,
133,133,133,133,133,133,133,133,133,133,133,133,133,133,133,133,133,133,133,133,133,133,133,133,133,133,133,133,133,133,133,133,133,133,133,133,133,133,
133,133,133,133,133,133,133,133,133,133,133,133,133,133,133,133,133,133,133,133,133,133,133,133,133,133,133,133,133,133,133,133,133,133,133,133,133,133,
133,133,133,133,133,133,133,133,133,133,133,133,133,133,133,133,133,133,133,133,133,133,133,133,133,133,133,133,133,133,133,133,133,133,133,133,133,133,
133,133,133,133,133,133,133,133,133,133,133,133,133,133,133,133,133,133,133,133,133,133,133,133,133,133,133,133,133,133,133,133,133,133,133,133,133,133,
133,133,133,133,133,133,133,133,133,133,133,133,133,133,133,133,133,133,133,133,133,133,133,133,133,133,133,133,133,133,133,133,133,133,133,133,133,133,
133,133,133,133,133,133,133,133,133,133,133,133,133,133,133,133,133,133,133,133,133,133,133,133,133,133,133,133,133,133,133,133,133,133,133,133,133,133,
133,133,133,133,133,133,133,133,133,133,133,133,133,133,133,133,133,133,133,133,133,133,133,133,133,133,133,133,133,133,133,133,133,133,133,133,133,133,
133,133,133,133,133,133,133,133,133,133,133,133,133,133,133,133,133,133,133,133,133,133,133,133,133,133,133,133,133,133,133,133,133,133,133,133,133,133,
133,133,133,133,133,133,133,133,133,133,133,133,133,133,133,133,133,133,133,133,133,133,133,133,133,133,133,133,133,133,133,133,133,133,133,133,133,133,
133,133,133,133,133,133,133,133,133,133,133,133,133,133,133,133,133,133,133,133,133,133,133,133,133,133,133,133,133,133,133,133,133,133,133,133,133,133,
133,133,133,133,133,133,133,133,133,133,133,133,133,133,133,133,133,133,133,133,133,133,133,133,133,133,133,133,133,133,133,133,133,133,133,133,133,133,
133,133,133,133,133,133,133,133,133,133,133,133,133,133,133,133,133,133,133,133,133,133,133,133,133,133,133,133,133,133,133,133,133,133,133,133,133,133,
133,133,133,133,133,133,133,133,133,133,133,133,133,133,133,133,133,133,133,133,133,133,133,133,133,133,133,133,133,133,133,133,133,133,133,133,133,133,
133,133,133,133,133,133,133,133,133,133,133,133,133,133,133,133,133,133,133,133,133,133,133,133,133,133,133,133,133,133,133,133,133,133,133,133,133,133,
133,133,133,133,133,133,133,133,133,133,133,133,133,133,133,133,133,133,133,133,133,133,133,133,133,133,133,133,133,133,133,133,133,133,133,133,133,133,
133,133,133,133,133,133,133,133,133,133,133,133,133,133,133,133,133,133,133,133,133,133,133,133,133,133,133,133,133,133,133,133,133,133,133,133,133,133,
133,133,133,133,133,133,133,133,133,133,133,133,133,133,133,133,133,133,133,133,133,133,133,133,133,133,133,133,133,133,133,133,133,133,133,133,133,133,
133,133,133,133,133,133,133,133,133,133,133,133,133,133,133,133,133,133,133,133,133,133,133,133,133,133,133,133,133,133,133,133,133,133,133,133,133,133,
133,133,133,133,133,133,133,133,133,133,133,133,133,133,133,133,133,133,133,133,133,133,133,133,133,133,133,133,133,133,133,133,133,133,133,133,133,133,
133,133,133,133,133,133,133,133,133,133,133,133,133,133,133,133,133,133,133,133,133,133,133,133,133,133,133,133,133,133,133,133,133,133,133,133,133,133,
133,133,133,133,133,133,133,133,133,133,133,133,133,133,133,133,133,133,133,133,133,133,133,133,133,133,133,133,133,133,133,133,133,133,133,133,133,133,
133,133,133,133,133,133,133,133,133,133,133,133,133,133,133,133,133,133,133,133,133,133,133,133,133,133,133,133,133,133,133,133,133,133,133,133,133,133,
133,133,133,133,133,133,133,133,133,133,133,133,133,133,133,133,133,133,133,133,133,133,2571,2571,2571,2571,2571,2571,2571,2571,2571,2571,2571,133,133,133,133,133,
133,133,133,133,133,133,133,133,133,133,133,133,133,133,133,133,133,133,133,133,133,133,2571,2571,2571,2571,2571,2571,2571,2571,2571,2571,2571,133,133,133,133,133,
133,133,133,133,133,133,133,133,133,133,133,133,133,133,133,133,133,133,133,133,133,133,2571,2571,2571,2571,2571,2571,2571,2571,2571,2571,2571,133,133,133,133,133,
133,133,133,133,133,133,133,133,133,133,133,133,133,133,133,133,133,133,133,133,133,133,2571,2571,2571,2571,2571,2571,2571,2571,2571,2571,2571,133,133,133,133,133,
133,133,133,133,133,133,133,133,133,133,133,133,133,133,133,133,133,133,133,133,133,133,2571,2571,2571,2571,2571,2571,2571,2571,2571,2571,2571,133,133,133,133,133,
133,133,133,133,133,133,133,133,133,133,133,133,133,133,133,133,133,133,133,133,133,133,2571,2571,2571,2571,2571,2571,2571,2571,2571,2571,2571,133,133,133,133,133,
133,133,133,133,133,133,133,133,133,133,133,133,133,133,133,133,133,133,133,133,133,133,2571,2571,2571,2571,2571,2571,2571,2571,2571,2571,2571,133,133,133,133,133,
133,133,133,133,133,133,133,133,133,133,133,133,133,133,133,133,133,133,133,133,133,133,2571,2571,2571,2571,2571,2571,2571,2571,2571,2571,2571,133,133,133,133,133,
133,133,133,133,133,133,133,133,133,133,133,133,133,133,133,133,133,133,133,133,133,133,2571,2571,2571,2571,2571,2571,2571,2571,2571,2571,2571,133,133,133,133,133,
133,133,133,133,133,133,133,133,133,133,133,133,133,133,133,133,133,133,133,133,133,133,133,133,133,133,133,133,133,133,133,133,133,133,133,133,133,133,
133,133,133,133,133,133,133,133,133,133,133,133,133,133,133,133,133,133,133,133,133,133,133,133,133,133,133,133,133,133,133,133,133,133,133,133,133,133,
133,133,133,133,133,133,133,133,133,133,133,133,133,133,133,133,133,133,133,133,133,133,133,133,133,133,133,133,133,133,133,133,133,133,133,133,133,133,
133,133,133,133,133,133,133,133,133,133,133,133,133,133,133,133,133,133,133,133,133,133,133,133,133,133,133,133,133,133,133,133,133,133,133,133,133,133
</data>
 </layer>
 <layer id="2" name="Terrain" width="38" height="40">
  <data encoding="csv">
0,0,0,0,0,0,0,0,0,0,0,0,0,0,0,0,0,0,2197,2197,2197,0,0,0,0,0,0,0,0,0,0,0,0,0,0,0,0,0,
0,0,0,0,0,0,0,0,0,0,0,0,0,0,0,0,0,0,2197,2197,2197,0,0,0,0,0,0,0,0,0,0,0,0,0,0,0,0,0,
0,0,0,0,0,0,0,0,0,0,0,0,0,0,0,0,0,0,2197,2197,2197,0,0,0,0,0,0,0,0,0,0,0,0,0,0,0,0,0,
0,0,0,0,0,0,0,0,0,0,0,0,0,0,0,0,0,0,2197,2197,2197,0,0,0,0,0,0,0,0,0,0,0,0,0,0,0,0,0,
0,0,0,0,0,0,0,0,0,0,0,0,0,0,0,0,0,0,2197,2197,2197,0,0,0,0,0,0,0,0,0,0,0,0,0,0,0,0,0,
0,0,0,0,0,0,0,0,0,0,0,0,0,0,0,0,0,0,2197,2197,2197,0,0,0,0,0,0,0,0,0,0,0,0,0,0,0,0,0,
0,0,0,0,0,0,0,0,0,0,0,0,0,0,0,0,0,0,2197,2197,2197,0,0,0,0,0,0,0,0,0,0,0,0,0,0,0,0,0,
0,0,0,0,0,0,0,0,0,0,0,0,0,0,0,0,0,0,2197,2197,2197,0,0,0,0,0,0,0,0,0,0,0,0,0,0,0,0,0,
0,0,0,0,0,0,0,0,0,0,0,0,0,0,0,0,0,0,2197,2197,2197,0,0,0,0,0,0,0,0,0,0,0,0,0,0,0,0,0,
0,0,0,0,0,0,0,0,0,0,0,0,0,0,0,0,2197,2197,2197,2197,0,0,0,0,0,0,0,0,0,0,0,0,0,0,0,0,0,0,
0,0,0,0,0,0,0,0,0,0,0,0,0,0,0,2197,2197,2197,2197,0,0,0,0,0,0,0,0,0,0,0,0,0,0,0,0,0,0,0,
0,0,0,0,0,0,0,0,0,0,0,0,0,0,2197,2197,2197,2197,0,0,0,0,0,0,0,0,0,0,0,0,0,0,0,0,0,0,0,0,
0,0,0,0,0,0,0,0,0,0,0,0,2197,2197,2197,2197,0,0,0,0,0,0,0,0,0,0,0,0,0,0,0,0,0,0,0,0,0,0,
0,0,0,0,0,0,0,0,0,0,0,2197,2197,2197,2197,0,0,0,0,0,0,0,0,0,0,0,0,0,0,0,0,0,0,0,0,0,0,0,
0,0,0,0,0,0,0,0,0,0,2197,2197,2197,2197,0,0,0,0,0,0,0,0,0,0,0,0,0,0,0,0,0,0,0,0,0,0,0,0,
0,0,0,0,0,0,0,0,0,0,2197,2197,2197,0,0,0,0,0,0,0,0,0,0,0,0,0,0,0,0,0,0,0,0,0,0,0,0,0,
0,0,0,0,0,0,0,0,0,0,2197,2197,2197,0,0,0,0,0,0,0,0,0,0,0,0,0,0,0,0,0,0,0,0,0,0,0,0,0,
0,0,0,0,0,0,0,2099,2099,2099,2197,2197,2197,2099,2099,2099,2099,2099,2099,2099,2099,2099,2099,2099,2099,0,0,0,0,0,0,0,0,0,0,0,0,0,
0,0,0,0,0,0,0,2099,2099,2099,2197,2197,2197,2099,2099,2099,2099,2099,2099,2099,2099,2099,2099,2099,2099,0,0,0,0,0,0,0,0,0,0,0,0,0,
0,0,0,0,0,0,0,0,0,0,0,2197,2197,2197,0,0,0,0,0,0,0,0,0,0,0,0,0,0,0,0,0,0,0,0,0,0,0,0,
0,0,0,0,0,0,0,0,0,0,0,2197,2197,2197,0,0,0,0,0,0,0,0,2197,2197,0,0,0,0,0,0,0,0,0,0,0,0,0,0,
0,0,0,0,0,0,0,0,0,0,0,2197,2197,2197,0,0,0,0,2197,2197,2197,2197,0,0,2197,0,0,0,0,0,0,0,0,0,0,0,0,0,
0,0,0,0,0,0,0,0,0,0,0,2197,2197,2197,2197,2197,2197,2197,0,0,0,0,0,0,2197,0,0,0,0,0,0,0,0,0,0,0,0,0,
0,0,0,0,0,0,0,0,0,0,0,2197,2197,2197,0,0,0,0,0,0,0,0,0,0,0,2197,0,0,0,0,0,0,0,0,0,0,0,0,
0,0,0,0,0,0,0,0,0,0,0,2197,2197,2197,2197,0,0,0,0,0,0,0,0,0,0,0,2197,0,0,0,0,0,0,0,0,0,0,0,
0,0,0,0,0,0,0,0,0,0,0,2197,2197,2197,2197,2197,2197,0,0,0,0,0,0,0,0,0,2197,0,0,0,0,0,0,0,0,0,0,0,
0,0,0,0,0,0,0,0,0,0,2197,0,0,2197,2197,2197,2197,2197,2197,0,0,0,0,0,0,0,0,2197,0,0,0,0,0,0,0,0,0,0,
0,0,0,0,0,0,0,0,0,2197,0,0,0,0,0,2197,2197,2197,2197,2197,2197,0,0,0,0,0,0,2197,0,0,0,0,0,0,0,0,0,0,
0,0,0,0,0,0,0,0,2197,0,0,0,0,0,0,0,0,2197,2197,2197,2197,2197,0,0,0,0,0,0,2197,0,0,0,0,0,0,0,0,0,
0,0,0,0,2197,2197,2197,2197,0,0,0,0,0,0,0,0,0,0,0,2197,2197,2197,2197,0,0,0,0,0,2197,0,0,0,0,0,0,0,0,0,
2197,2197,2197,2197,0,0,0,0,0,0,0,0,0,0,0,0,0,0,0,0,0,2197,2197,2197,0,0,0,0,2197,0,0,0,0,0,0,0,0,0,
0,0,0,0,0,0,0,0,0,0,0,0,0,0,0,0,0,0,0,0,0,0,2197,2197,2197,2197,0,2197,0,0,0,0,0,0,0,0,0,0,
0,0,0,0,0,0,0,0,0,0,0,0,0,0,0,0,0,0,0,0,0,0,0,2197,2197,2197,2197,2197,0,0,0,0,0,0,0,0,0,0,
0,0,0,0,0,0,0,0,0,0,0,0,0,0,0,0,0,0,0,0,0,0,0,0,2197,2197,2197,2197,0,0,0,0,0,0,0,0,0,0,
0,0,0,0,0,0,0,0,0,0,0,0,0,0,0,0,0,0,0,0,0,0,0,0,0,0,2197,2197,2197,0,0,0,0,0,0,0,0,0,
0,0,0,0,0,0,0,0,0,0,0,0,0,0,0,0,0,0,0,0,0,0,0,0,0,0,0,2197,0,0,0,0,0,0,0,0,0,0,
0,0,0,0,0,0,0,0,0,0,0,0,0,0,0,0,0,0,0,0,0,0,0,0,0,0,0,0,0,0,0,0,0,0,0,0,0,0,
0,0,0,0,0,0,0,0,0,0,0,0,0,0,0,0,0,0,0,0,0,0,0,0,0,0,0,0,0,0,0,0,0,0,0,0,0,0,
0,0,0,0,0,0,0,0,0,0,0,0,0,0,0,0,0,0,0,0,0,0,0,0,0,0,0,0,0,0,0,0,0,0,0,0,0,0,
0,0,0,0,0,0,0,0,0,0,0,0,0,0,0,0,0,0,0,0,0,0,0,0,0,0,0,0,0,0,0,0,0,0,0,0,0,0
</data>
 </layer>
 <layer id="3" name="Objects" width="38" height="40">
  <data encoding="csv">
1141,1141,1141,1141,1141,1141,1141,1141,1141,1141,1141,1141,1141,1141,1141,1141,1141,0,0,0,0,0,1141,1141,1141,1141,1141,1141,1141,1141,1141,1141,1141,1141,1141,1141,1141,1141,
1141,1141,1141,1141,1141,1141,1141,1141,1141,1141,1141,1141,1141,1141,1141,1141,1141,0,0,0,0,0,1141,1141,1141,1141,1141,1141,1141,1141,1141,1141,1141,1141,1141,1141,1141,1141,
1141,1141,0,0,0,0,0,0,0,0,0,0,0,0,0,0,0,0,0,0,0,0,0,0,0,0,0,0,0,0,0,0,0,0,0,0,1141,1141,
1141,1141,0,0,0,0,0,0,0,0,0,0,0,0,0,0,0,0,0,0,0,0,0,0,0,0,0,0,0,0,0,0,0,0,0,0,1141,1141,
1141,1141,0,0,0,0,0,0,0,0,0,0,0,0,0,0,0,0,0,0,0,0,0,0,0,0,0,0,0,0,0,0,0,0,0,0,1141,1141,
1141,1141,0,0,0,0,0,0,0,0,0,0,0,0,0,0,0,0,0,0,0,0,0,0,0,0,0,0,0,0,0,0,0,0,0,0,1141,1141,
1141,1141,0,0,0,2603,0,0,0,0,0,0,0,0,0,0,0,0,0,0,0,0,0,0,0,0,0,0,0,0,0,0,0,0,0,0,1141,1141,
1141,1141,0,0,0,0,0,0,0,0,0,0,0,0,0,0,0,0,0,0,0,0,0,0,0,0,0,0,0,0,0,0,0,0,0,0,1141,1141,
1141,1141,0,0,0,0,0,0,0,0,0,0,0,0,0,0,0,0,0,0,0,0,0,0,0,0,0,0,0,0,2603,0,0,0,0,0,1141,1141,
1141,1141,0,0,0,0,0,0,0,0,0,0,0,0,0,0,0,0,0,0,0,0,0,0,0,0,0,0,0,0,0,0,0,0,0,0,1141,1141,
1141,1141,0,0,0,0,0,0,0,0,0,0,2210,0,0,0,0,0,0,0,0,0,0,0,0,0,0,0,0,0,0,0,0,0,0,0,1141,1141,
1141,1141,0,0,0,0,0,0,0,0,0,0,0,0,0,0,0,0,0,0,0,0,0,0,0,0,0,0,0,0,0,0,0,0,0,0,1141,1141,
1141,1141,0,0,0,0,0,0,2604,0,0,0,0,0,0,0,0,0,0,0,0,0,0,0,0,0,0,0,0,0,0,0,0,0,0,0,1141,1141,
1141,1141,0,0,0,0,0,0,0,0,0,0,0,0,0,0,0,0,0,0,0,0,0,0,0,0,0,0,0,0,0,0,0,0,0,0,1141,1141,
1141,1141,0,0,0,0,0,0,0,0,0,0,0,0,0,0,0,0,0,0,0,0,0,0,0,0,0,0,0,0,0,0,0,0,0,0,1141,1141,
1141,1141,0,0,0,0,0,0,0,0,0,0,0,0,0,0,0,0,0,0,0,0,0,0,0,0,0,0,0,0,0,0,0,0,0,0,1141,1141,
1141,1141,0,0,0,0,0,0,0,0,0,0,0,0,0,0,0,0,0,0,0,0,0,0,0,0,0,0,0,0,0,0,0,2604,0,0,1141,1141,
1141,1141,0,0,0,0,0,0,0,0,0,0,0,0,0,0,0,0,0,0,0,0,0,0,0,0,0,0,0,0,0,0,0,0,0,0,1141,1141,
1141,1141,0,0,0,0,0,0,0,0,0,0,0,0,0,0,0,0,0,0,0,0,0,0,0,0,0,0,0,0,0,0,0,0,0,0,1141,1141,
1141,1141,0,0,0,0,0,0,0,0,0,0,0,0,0,0,0,0,0,0,0,0,0,0,0,0,0,0,0,0,0,0,0,0,0,0,1141,1141,
1141,1141,0,0,0,0,0,0,0,0,0,2207,0,0,0,0,0,0,0,0,0,0,0,0,0,0,0,0,0,0,0,0,0,0,0,0,1141,1141,
1141,1141,0,0,0,0,0,0,0,2395,2396,0,0,0,0,0,0,0,0,0,0,0,0,0,0,0,0,0,0,0,0,0,0,0,0,0,1141,1141,
1141,1141,0,0,0,0,0,0,0,2432,2433,0,0,0,0,0,0,0,0,0,0,0,0,0,0,0,0,0,0,0,0,0,0,0,0,0,1141,1141,
1141,1141,0,0,0,0,0,0,0,0,0,0,0,0,0,0,0,0,0,0,0,0,0,0,2207,0,0,0,0,0,0,0,0,0,0,0,1141,1141,
1141,1141,0,0,0,0,0,0,0,0,0,0,0,0,0,0,0,0,0,0,0,0,0,0,0,0,0,0,0,0,0,0,0,0,0,0,1141,1141,
1141,1141,0,0,0,0,0,0,0,0,0,0,0,0,0,0,0,2207,0,0,0,0,0,0,0,0,0,0,0,0,0,0,0,0,0,0,1141,1141,
1141,1141,0,0,0,0,0,0,0,0,0,0,0,0,0,0,0,0,0,0,0,0,0,0,0,0,0,0,0,0,0,0,0,0,0,0,1141,1141,
1141,1141,0,0,0,0,0,0,0,0,0,0,0,0,0,0,0,0,0,0,0,0,0,0,0,0,0,0,0,0,0,0,0,0,0,0,1141,1141,
0,2395,2396,0,0,0,0,0,0,0,0,0,0,0,0,0,0,0,0,0,0,0,0,0,0,0,0,0,0,0,0,0,0,0,0,0,1141,1141,
0,2432,2433,0,0,0,0,0,0,0,0,0,0,0,0,0,0,0,0,0,0,0,0,0,0,0,0,0,0,0,0,0,0,0,0,0,1141,1141,
0,0,0,0,0,0,0,0,0,0,0,0,0,0,0,0,0,0,0,0,0,0,0,0,0,0,0,0,0,0,0,0,0,0,0,0,1141,1141,
0,0,0,0,0,0,0,0,0,0,0,0,0,0,0,0,0,0,0,0,0,0,0,0,0,0,0,0,0,0,0,2207,0,0,0,0,1141,1141,
0,0,0,0,0,0,0,0,0,0,0,0,0,0,0,0,0,0,0,0,0,0,0,0,0,0,0,0,0,0,0,0,0,0,0,0,1141,1141,
1141,1141,0,0,0,0,0,0,0,0,0,0,0,0,0,0,0,0,0,0,0,0,0,0,0,0,0,0,0,2201,2202,0,0,0,0,0,1141,1141,
1141,1141,0,0,0,0,0,0,0,0,0,0,0,0,0,0,0,0,0,0,0,0,0,0,0,0,0,0,0,2238,2239,0,0,0,0,0,1141,1141,
1141,1141,0,0,0,0,0,0,0,0,0,0,0,0,0,0,0,0,0,0,0,0,0,0,0,0,0,0,0,0,0,0,0,0,0,0,1141,1141,
1141,1141,0,0,0,0,0,0,0,0,0,0,0,0,0,0,0,0,0,0,0,0,0,0,0,0,0,0,0,0,0,0,0,0,0,0,1141,1141,
1141,1141,0,0,0,0,0,0,0,0,0,0,0,0,0,0,0,0,0,0,0,0,0,0,0,0,0,0,0,0,0,0,0,0,0,0,1141,1141,
1141,1141,1141,1141,1141,1141,1141,1141,1141,1141,1141,1141,1141,1141,1141,1141,1141,1141,1141,1141,1141,1141,1141,1141,1141,1141,1141,1141,1141,1141,1141,1141,1141,1141,1141,1141,1141,1141,
1141,1141,1141,1141,1141,1141,1141,1141,1141,1141,1141,1141,1141,1141,1141,1141,1141,1141,1141,1141,1141,1141,1141,1141,1141,1141,1141,1141,1141,1141,1141,1141,1141,1141,1141,1141,1141,1141
</data>
 </layer>
 <layer id="4" name="Above Player" width="38" height="40">
  <data encoding="csv">
0,0,0,0,0,0,0,0,0,0,0,0,0,0,0,0,0,0,0,0,0,0,0,0,0,0,0,0,0,0,0,0,0,0,0,0,0,0,
0,0,0,0,0,0,0,0,0,0,0,0,0,0,0,0,0,0,0,0,0,0,0,0,0,0,0,0,0,0,0,0,0,0,0,0,0,0,
0,0,0,0,0,0,0,0,0,0,0,0,0,0,0,0,0,0,0,0,0,0,0,0,0,0,0,0,0,0,0,0,0,0,0,0,0,0,
0,0,0,0,0,0,0,0,0,0,0,0,0,0,0,0,0,0,0,0,0,0,0,0,0,0,0,0,0,0,0,0,0,0,0,0,0,0,
0,0,0,0,0,0,0,0,0,0,0,0,0,0,0,0,0,0,0,0,0,0,0,0,0,0,0,0,0,0,0,0,0,0,0,0,0,0,
0,0,0,0,0,0,0,0,0,0,0,0,0,0,0,0,0,0,0,0,0,0,0,0,0,0,0,0,0,0,0,0,0,0,0,0,0,0,
0,0,0,0,0,0,0,0,0,0,0,0,0,0,0,0,0,0,0,0,0,0,0,0,0,0,0,0,0,0,0,0,0,0,0,0,0,0,
0,0,0,0,0,0,0,0,0,0,0,0,0,0,0,0,0,0,0,0,0,0,0,0,0,0,0,0,0,0,0,0,0,0,0,0,0,0,
0,0,0,0,0,0,0,0,0,0,0,0,0,0,0,0,0,0,0,0,0,0,0,0,0,0,0,0,0,0,0,0,0,0,0,0,0,0,
0,0,0,0,0,0,0,0,0,0,0,0,0,0,0,0,0,0,0,0,0,0,0,0,0,0,0,0,0,0,0,0,0,0,0,0,0,0,
0,0,0,0,0,0,0,0,0,0,0,0,0,0,0,0,0,0,0,0,0,0,0,0,0,0,0,0,0,0,0,0,0,0,0,0,0,0,
0,0,0,0,0,0,0,0,0,0,0,0,0,0,0,0,0,0,0,0,0,0,0,0,0,0,0,0,0,0,0,0,0,0,0,0,0,0,
0,0,0,0,0,0,0,0,0,0,0,0,0,0,0,0,0,0,0,0,0,0,0,0,0,0,0,0,0,0,0,0,0,0,0,0,0,0,
0,0,0,0,0,0,0,0,0,0,0,0,0,0,0,0,0,0,0,0,0,0,0,0,0,0,0,0,0,0,0,0,0,0,0,0,0,0,
0,0,0,0,0,0,0,0,0,0,0,0,0,0,0,0,0,0,0,0,0,0,0,0,0,0,0,0,0,0,0,0,0,0,0,0,0,0,
0,0,0,0,0,0,0,0,0,0,0,0,0,0,0,0,0,0,0,0,0,0,0,0,0,0,0,0,0,0,0,0,0,0,0,0,0,0,
0,0,0,0,0,0,0,0,0,0,0,0,0,0,0,0,0,0,0,0,0,0,0,0,0,0,0,0,0,0,0,0,0,0,0,0,0,0,
0,0,0,0,0,0,0,0,0,0,0,0,0,0,0,0,0,0,0,0,0,0,0,0,0,0,0,0,0,0,0,0,0,0,0,0,0,0,
0,0,0,0,0,0,0,0,0,0,0,0,0,0,0,0,0,0,0,0,0,0,0,0,0,0,0,0,0,0,0,0,0,0,0,0,0,0,
0,0,0,0,0,0,0,0,0,0,0,0,0,0,0,0,0,0,0,0,0,0,0,0,0,0,0,0,0,0,0,0,0,0,0,0,0,0,
0,0,0,0,0,0,0,0,0,0,0,0,0,0,0,0,0,0,0,0,0,0,0,0,0,0,0,0,0,0,0,0,0,0,0,0,0,0,
0,0,0,0,0,0,0,0,0,0,0,0,0,0,0,0,0,0,0,0,0,0,0,0,0,0,0,0,0,0,0,0,0,0,0,0,0,0,
0,0,0,0,0,0,0,0,0,0,0,0,0,0,0,0,0,0,0,0,0,0,0,0,0,0,0,0,0,0,0,0,0,0,0,0,0,0,
0,0,0,0,0,0,0,0,0,0,0,0,0,0,0,0,0,0,0,0,0,0,0,0,0,0,0,0,0,0,0,0,0,0,0,0,0,0,
0,0,0,0,0,0,0,0,0,0,0,0,0,0,0,0,0,0,0,0,0,0,0,0,0,0,0,0,0,0,0,0,0,0,0,0,0,0,
0,0,0,0,0,0,0,0,0,0,0,0,0,0,0,0,0,0,0,0,0,0,0,0,0,0,0,0,0,0,0,0,0,0,0,0,0,0,
0,0,0,0,0,0,0,0,0,0,0,0,0,0,0,0,0,0,0,0,0,0,0,0,0,0,0,0,0,0,0,0,0,0,0,0,0,0,
0,0,0,0,0,0,0,0,0,0,0,0,0,0,0,0,0,0,0,0,0,0,0,0,0,0,0,0,0,0,0,0,0,0,0,0,0,0,
0,0,0,0,0,0,0,0,0,0,0,0,0,0,0,0,0,0,0,0,0,0,0,0,0,0,0,0,0,0,0,0,0,0,0,0,0,0,
0,0,0,0,0,0,0,0,0,0,0,0,0,0,0,0,0,0,0,0,0,0,0,0,0,0,0,0,0,0,0,0,0,0,0,0,0,0,
0,0,0,0,0,0,0,0,0,0,0,0,0,0,0,0,0,0,0,0,0,0,0,0,0,0,0,0,0,0,0,0,0,0,0,0,0,0,
0,0,0,0,0,0,0,0,0,0,0,0,0,0,0,0,0,0,0,0,0,0,0,0,0,0,0,0,0,0,0,0,0,0,0,0,0,0,
0,0,0,0,0,0,0,0,0,0,0,0,0,0,0,0,0,0,0,0,0,0,0,0,0,0,0,0,0,0,0,0,0,0,0,0,0,0,
0,0,0,0,0,0,0,0,0,0,0,0,0,0,0,0,0,0,0,0,0,0,0,0,0,0,0,0,0,0,0,0,0,0,0,0,0,0,
0,0,0,0,0,0,0,0,0,0,0,0,0,0,0,0,0,0,0,0,0,0,0,0,0,0,0,0,0,0,0,0,0,0,0,0,0,0,
0,0,0,0,0,0,0,0,0,0,0,0,0,0,0,0,0,0,0,0,0,0,0,0,0,0,0,0,0,0,0,0,0,0,0,0,0,0,
0,0,0,0,0,0,0,0,0,0,0,0,0,0,0,0,0,0,0,0,0,0,0,0,0,0,0,0,0,0,0,0,0,0,0,0,0,0,
0,0,0,0,0,0,0,0,0,0,0,0,0,0,0,0,0,0,0,0,0,0,0,0,0,0,0,0,0,0,0,0,0,0,0,0,0,0,
0,0,0,0,0,0,0,0,0,0,0,0,0,0,0,0,0,0,0,0,0,0,0,0,0,0,0,0,0,0,0,0,0,0,0,0,0,0,
0,0,0,0,0,0,0,0,0,0,0,0,0,0,0,0,0,0,0,0,0,0,0,0,0,0,0,0,0,0,0,0,0,0,0,0,0,0
</data>
 </layer>
 <objectgroup id="5" name="Collisions" color="#ff0000">
  <object id="1" type="collision" x="0" y="0" width="272" height="32" />
  <object id="2" type="collision" x="352" y="0" width="256" height="32" />
  <object id="3" type="collision" x="0" y="32" width="32" height="416" />
  <object id="4" type="collision" x="576" y="32" width="32" height="608" />
  <object id="5" type="collision" x="48" y="112" width="112" height="64" />
  <object id="6" type="collision" x="432" y="144" width="112" height="80" />
  <object id="7" type="collision" x="192" y="160" width="16" height="16" />
  <object id="8" type="collision" x="112" y="272" width="80" height="32" />
  <object id="9" type="collision" x="240" y="272" width="160" height="32" />
  <object id="10" type="collision" x="176" y="320" width="16" height="16" />
  <object id="11" type="collision" x="144" y="336" width="32" height="32" />
  <object id="12" type="collision" x="272" y="400" width="16" height="16" />
  <object id="13" type="collision" x="16" y="448" width="32" height="32" />
  <object id="14" type="collision" x="0" y="528" width="32" height="112" />
  <object id="15" type="collision" x="464" y="528" width="32" height="32" />
  <object id="16" type="collision" x="32" y="608" width="544" height="32" />
 </objectgroup>
 <objectgroup id="6" name="Events" color="#ffff00">
  <object id="17" name="lower_to_quarry" type="event" x="304" y="0" width="16" height="16">
   <properties>
    <property name="act10" value="transition_teleport player,low_bell_quarry_exterior.tmx,17,33,0.3" />
    <property name="act20" value="char_face player,up" />
    <property name="cond10" value="is char_at player" />
    <property name="cond20" value="is char_facing player,up" />
   </properties>
  </object>
  <object id="18" name="lower_shortcut_to_pass" type="event" x="0" y="480" width="16" height="16">
   <properties>
    <property name="act10" value="transition_teleport player,low_bell_highland_pass.tmx,2,13,0.3" />
    <property name="act20" value="char_face player,left" />
    <property name="cond10" value="is char_at player" />
    <property name="cond20" value="is char_facing player,left" />
    <property name="cond30" value="is variable_set low_bell_shortcut_unlocked:yes" />
   </properties>
  </object>
  <object id="19" name="lower_works_wild" type="event" x="144" y="160" width="160" height="256">
   <properties>
    <property name="act1" value="random_encounter low_bell_quarry_wild,8" />
   </properties>
  </object>
  <object id="20" name="Create low_bell_jemuar" type="event" x="432" y="528" width="16" height="16">
   <properties>
    <property name="act1" value="create_npc low_bell_jemuar,27,33,stand" />
    <property name="cond1" value="not char_exists low_bell_jemuar" />
    <property name="cond10" value="not variable_set low_bell_boss_defeated:yes" />
   </properties>
  </object>
  <object id="21" name="collapse_evidence" type="event" x="192" y="160" width="16" height="16">
   <properties>
    <property name="act1" value="translated_dialog low_bell_lower_collapse" />
    <property name="cond10" value="is char_facing_tile player" />
    <property name="cond20" value="is button_pressed INTERACT" />
   </properties>
  </object>
  <object id="22" name="puzzle_runoff_first" type="event" x="176" y="320" width="16" height="16">
   <properties>
    <property name="act1" value="translated_dialog low_bell_puzzle_runoff" />
    <property name="act2" value="play_sound sound_misc_07_metal,0.45" />
    <property name="act3" value="set_variable low_bell_puzzle_stage:runoff" />
    <property name="cond10" value="is char_facing_tile player" />
    <property name="cond20" value="is button_pressed INTERACT" />
    <property name="cond30" value="is variable_set low_bell_tovin_briefed:yes" />
    <property name="cond31" value="not variable_set low_bell_puzzle_stage" />
    <property name="cond32" value="not variable_set low_bell_puzzle_solved:yes" />
   </properties>
  </object>
  <object id="23" name="puzzle_cradle_correct" type="event" x="272" y="400" width="16" height="16">
   <properties>
    <property name="act1" value="translated_dialog low_bell_puzzle_cradle" />
    <property name="act2" value="play_sound sound_misc_07_metal,0.55" />
    <property name="act3" value="set_variable low_bell_puzzle_stage:brace" />
    <property name="cond10" value="is char_facing_tile player" />
    <property name="cond20" value="is button_pressed INTERACT" />
    <property name="cond30" value="is variable_set low_bell_puzzle_stage:runoff" />
    <property name="cond31" value="not variable_set low_bell_puzzle_solved:yes" />
   </properties>
  </object>
  <object id="24" name="puzzle_hoist_correct" type="event" x="160" y="368" width="16" height="16">
   <properties>
    <property name="act1" value="translated_dialog low_bell_puzzle_hoist" />
    <property name="act2" value="play_sound sound_misc_07_metal,0.55" />
    <property name="act3" value="set_variable low_bell_puzzle_solved:yes" />
    <property name="act4" value="set_variable low_bell_shortcut_unlocked:yes" />
    <property name="act5" value="set_variable low_bell_hoist_stabilized:yes" />
    <property name="act6" value="clear_variable low_bell_puzzle_stage" />
    <property name="cond10" value="is char_facing_tile player" />
    <property name="cond20" value="is button_pressed INTERACT" />
    <property name="cond30" value="is variable_set low_bell_puzzle_stage:brace" />
    <property name="cond31" value="not variable_set low_bell_puzzle_solved:yes" />
   </properties>
  </object>
  <object id="25" name="jemuar_climax" type="event" x="432" y="528" width="16" height="16">
   <properties>
    <property name="act1" value="play_sound japanese_temple_bell_small,0.8" />
    <property name="act2" value="camera_shake 1.2,1.2" />
    <property name="act3" value="translated_dialog low_bell_jemuar_reveal" />
    <property name="act4" value="start_battle player,low_bell_jemuar" />
    <property name="behav1" value="talk low_bell_jemuar" />
    <property name="cond30" value="is variable_set low_bell_hoist_stabilized:yes" />
    <property name="cond31" value="not battle_outcome player,won,low_bell_jemuar" />
   </properties>
  </object>
  <object id="26" name="jemuar_victory" type="event" x="0" y="0" width="16" height="16">
   <properties>
    <property name="act1" value="translated_dialog low_bell_jemuar_after" />
    <property name="act2" value="modify_monster_health" />
    <property name="act3" value="remove_npc low_bell_jemuar" />
    <property name="act4" value="set_variable low_bell_boss_defeated:yes" />
    <property name="cond30" value="is battle_outcome player,won,low_bell_jemuar" />
    <property name="cond31" value="not variable_set low_bell_boss_defeated:yes" />
   </properties>
  </object>
  <object id="27" name="damp_resonant_assembly" type="event" x="464" y="528" width="16" height="16">
   <properties>
    <property name="act1" value="translated_dialog low_bell_assembly_action" />
    <property name="act2" value="play_sound sound_misc_06_wood_and_metal,0.5" />
    <property name="act3" value="camera_shake 0.35,0.5" />
    <property name="act4" value="set_variable low_bell_story:resolved" />
    <property name="act5" value="translated_dialog low_bell_return_objective" />
    <property name="cond10" value="is char_facing_tile player" />
    <property name="cond20" value="is button_pressed INTERACT" />
    <property name="cond30" value="is variable_set low_bell_boss_defeated:yes" />
    <property name="cond31" value="not variable_set low_bell_story:resolved" />
   </properties>
  </object>
  <object id="28" name="Set environment" type="event" x="0" y="0" width="16" height="16">
   <properties>
    <property name="act1" value="set_environment cave" />
    <property name="cond1" value="not environment_is cave" />
   </properties>
  </object>
  <object id="29" name="Play music" type="event" x="0" y="0" width="16" height="16">
   <properties>
    <property name="act1" value="play_music music_dungeon_loop_slow,0.55" />
    <property name="cond1" value="not music_playing music_dungeon_loop_slow" />
   </properties>
  </object>
 </objectgroup>
</map>
