<?xml version="1.0" encoding="UTF-8"?>
<map version="1.10" tiledversion="1.10.2" orientation="orthogonal" renderorder="right-down" width="12" height="10" tilewidth="16" tileheight="16" infinite="0" nextlayerid="7" nextobjectid="1000">
 <tileset firstgid="1" source="../../tuxemon/gfx/tilesets/prototyping_outdoor.tsx" />
 <layer id="1" name="Ground" width="12" height="10">
  <data encoding="csv">
34,34,35,35,34,34,34,34,34,35,34,34,
34,34,34,34,34,34,34,34,34,34,34,34,
34,34,34,34,34,34,34,34,34,34,34,34,
34,34,34,34,34,34,34,34,34,37,34,34,
34,34,34,34,34,37,34,34,34,34,34,37,
34,34,34,34,34,34,34,34,34,34,34,34,
34,34,35,34,34,34,34,34,34,34,34,34,
34,34,34,34,34,34,34,34,34,34,34,34,
34,34,34,34,34,34,34,34,34,37,34,34,
34,34,34,34,34,34,34,34,34,34,34,34
</data>
 </layer>
 <layer id="2" name="Terrain" width="12" height="10">
  <data encoding="csv">
0,0,0,0,0,194,194,194,0,0,0,0,
0,0,0,0,0,194,194,194,0,0,0,0,
0,0,0,0,0,194,194,194,0,0,0,0,
0,0,0,0,0,194,194,194,0,0,0,0,
0,0,0,0,0,194,194,194,0,0,0,0,
0,0,0,0,0,194,194,194,0,0,0,0,
0,0,0,0,0,194,194,194,0,0,0,0,
0,0,0,0,0,194,194,194,0,0,0,0,
0,0,0,0,0,194,194,194,0,0,0,0,
0,0,0,0,0,194,194,194,0,0,0,0
</data>
 </layer>
 <layer id="3" name="Objects" width="12" height="10">
  <data encoding="csv">
0,0,0,0,0,0,0,0,0,0,0,0,
48,48,48,0,48,0,0,0,0,48,48,48,
48,48,0,0,48,0,0,0,0,48,48,48,
48,0,48,0,0,0,0,0,0,0,48,48,
48,48,0,0,0,0,0,0,0,0,0,48,
48,0,0,0,0,0,0,0,48,0,48,48,
48,0,0,0,48,0,0,0,48,0,48,48,
48,48,0,0,0,0,0,0,0,0,48,48,
48,0,0,0,48,0,0,0,48,0,48,48,
48,48,48,48,48,0,0,0,48,48,48,48
</data>
 </layer>
 <layer id="4" name="Above Player" width="12" height="10">
  <data encoding="csv">
16,16,16,0,16,0,0,0,0,16,16,16,
16,16,0,0,16,0,0,0,0,16,16,16,
16,0,16,0,0,0,0,0,0,0,16,16,
16,16,0,0,0,0,0,0,0,0,0,16,
16,0,0,0,0,0,0,0,16,0,16,16,
16,0,0,0,16,0,0,0,16,0,16,16,
16,16,0,0,0,0,0,0,0,0,16,16,
16,0,0,0,16,0,0,0,16,0,16,16,
16,16,16,16,16,0,0,0,16,16,16,16,
0,0,0,0,0,0,0,0,0,0,0,0
</data>
 </layer>
 <objectgroup id="5" name="Collisions" color="#ff0000">
  <object id="1" type="collision" x="0" y="16" width="48" height="16" />
  <object id="2" type="collision" x="64" y="16" width="16" height="32" />
  <object id="3" type="collision" x="144" y="16" width="48" height="32" />
  <object id="4" type="collision" x="0" y="32" width="32" height="16" />
  <object id="5" type="collision" x="0" y="48" width="16" height="112" />
  <object id="6" type="collision" x="32" y="48" width="16" height="16" />
  <object id="7" type="collision" x="160" y="48" width="32" height="16" />
  <object id="8" type="collision" x="16" y="64" width="16" height="16" />
  <object id="9" type="collision" x="176" y="64" width="16" height="96" />
  <object id="10" type="collision" x="128" y="80" width="16" height="32" />
  <object id="11" type="collision" x="160" y="80" width="16" height="80" />
  <object id="12" type="collision" x="64" y="96" width="16" height="16" />
  <object id="13" type="collision" x="16" y="112" width="16" height="16" />
  <object id="14" type="collision" x="64" y="128" width="16" height="32" />
  <object id="15" type="collision" x="128" y="128" width="16" height="32" />
  <object id="16" type="collision" x="16" y="144" width="48" height="16" />
  <object id="17" type="collision" x="144" y="144" width="16" height="16" />
 </objectgroup>
 <objectgroup id="6" name="Events" color="#ffff00">
  <object id="18" name="to_glasswind" type="event" x="96" y="144" width="16" height="16">
   <properties>
    <property name="act10" value="transition_teleport player,glasswind_causeway.tmx,22,2,0.3" />
    <property name="act20" value="char_face player,down" />
    <property name="cond10" value="is char_at player" />
    <property name="cond20" value="is char_facing player,down" />
   </properties>
  </object>
  <object id="19" name="Environment" type="event" x="0" y="0" width="16" height="16">
   <properties>
    <property name="act1" value="set_environment grass" />
    <property name="cond1" value="not environment_is grass" />
   </properties>
  </object>
 </objectgroup>
</map>
