<?xml version="1.0" encoding="UTF-8"?>
<map version="1.10" tiledversion="1.10.2" orientation="orthogonal" renderorder="right-down" width="40" height="44" tilewidth="16" tileheight="16" infinite="0" nextlayerid="7" nextobjectid="1000">
 <tileset firstgid="1" source="../../tuxemon/gfx/tilesets/prototyping_outdoor.tsx" />
 <layer id="1" name="Ground" width="40" height="44">
  <data encoding="csv">
37,37,34,37,37,37,35,37,37,37,37,37,37,37,37,37,37,37,37,37,37,37,37,37,37,37,37,37,37,37,37,37,37,37,37,37,37,35,37,34,
37,37,35,37,37,37,37,37,37,37,37,37,37,37,37,37,37,37,37,37,37,37,35,37,37,37,37,37,35,37,37,37,37,37,37,37,37,37,37,37,
37,37,37,37,37,37,37,37,37,37,37,34,37,37,37,37,37,37,37,37,35,37,37,37,37,37,37,37,37,37,37,37,37,37,37,37,37,37,37,37,
37,37,37,37,37,37,37,37,37,37,34,37,37,37,37,37,37,37,37,37,37,37,37,37,37,37,37,37,37,37,37,37,37,37,37,37,35,37,37,37,
37,35,37,35,37,37,37,37,37,37,37,37,37,37,37,37,37,37,37,37,37,37,37,37,37,37,37,37,37,37,37,37,37,37,37,37,37,37,37,37,
37,37,37,37,37,37,37,37,37,37,37,37,37,37,37,37,37,37,37,37,37,37,37,37,35,37,37,37,37,37,37,37,37,37,37,37,37,34,37,37,
37,37,37,37,37,37,35,34,37,37,37,37,37,37,37,37,37,37,37,37,37,37,37,37,37,34,37,37,37,37,37,37,37,37,37,37,37,37,37,34,
37,37,34,37,37,37,37,37,37,37,35,37,37,37,37,37,37,37,37,37,37,37,37,37,37,37,37,37,37,37,37,37,37,37,37,37,37,37,37,37,
37,37,37,37,37,37,37,37,37,37,37,34,37,37,37,37,37,34,37,37,37,37,37,37,37,37,37,37,37,37,35,37,37,37,37,37,37,37,37,37,
37,37,37,37,37,37,37,37,37,37,37,37,34,37,37,37,37,37,37,37,37,37,37,37,37,37,37,37,37,35,37,37,37,37,37,37,37,37,37,37,
37,37,37,37,37,37,37,37,35,37,37,37,37,37,37,37,37,37,37,37,37,37,37,37,37,35,34,37,37,37,35,37,37,37,37,37,37,37,37,37,
37,35,37,37,37,37,37,37,37,37,37,37,37,37,37,37,37,37,37,37,37,37,37,37,37,37,37,37,37,37,37,37,37,37,35,37,37,37,37,37,
37,35,37,37,37,37,37,37,37,37,37,37,37,37,37,37,37,37,37,37,37,37,37,37,35,37,37,35,37,37,37,37,37,37,37,37,37,37,35,37,
37,37,37,37,37,37,37,37,37,37,37,37,37,37,37,37,37,37,37,37,37,37,37,37,37,37,37,37,37,37,37,37,37,34,37,37,37,37,37,37,
37,35,37,37,37,37,37,37,37,37,37,37,37,37,37,37,37,37,37,37,37,37,37,37,37,37,37,37,37,37,37,37,37,35,37,37,37,37,37,37,
37,37,37,37,37,37,37,37,37,37,37,37,37,37,37,37,37,37,37,37,37,37,37,37,37,37,37,37,37,37,34,37,37,37,37,37,34,37,34,37,
37,37,37,37,37,37,37,37,37,37,37,37,37,37,35,37,37,37,37,37,37,37,37,37,34,37,34,37,37,37,37,37,37,37,37,37,35,37,37,37,
37,37,37,37,37,37,37,37,37,37,37,37,37,37,37,37,37,37,37,37,37,37,37,37,37,37,37,37,37,37,37,37,37,37,37,37,37,35,37,37,
37,37,37,37,35,37,37,37,37,37,37,37,37,37,37,37,37,37,37,37,37,37,37,37,37,37,37,37,37,35,37,37,37,37,37,37,37,37,37,37,
37,37,37,37,37,37,37,34,37,37,37,37,37,37,34,37,37,37,37,37,37,37,37,37,37,37,35,37,37,37,37,37,37,37,37,37,37,34,37,37,
37,37,34,37,37,37,37,37,37,37,37,37,37,37,37,37,37,37,37,37,37,37,37,37,37,37,35,37,37,37,37,37,37,37,37,37,37,37,37,37,
37,37,37,37,37,37,37,37,37,37,37,37,37,37,37,37,37,37,37,37,37,37,37,37,37,37,37,37,37,37,37,37,37,34,37,37,37,37,37,37,
37,37,37,34,37,37,37,37,37,37,37,37,37,37,37,37,37,37,37,37,37,37,37,37,37,37,37,37,37,35,37,37,37,37,37,37,37,37,37,37,
37,37,37,35,34,37,37,37,37,37,37,37,37,37,37,37,37,37,37,37,35,37,37,37,37,37,35,37,37,37,37,37,37,37,37,37,37,37,37,37,
37,37,37,37,37,37,37,34,37,37,37,37,37,37,37,37,35,37,35,37,37,37,37,37,37,37,37,37,37,37,37,37,37,37,37,37,37,37,37,37,
37,37,34,37,37,37,37,35,37,37,37,37,37,37,34,37,37,37,37,37,37,37,37,37,37,37,37,37,37,37,37,37,37,37,37,37,37,37,37,37,
37,37,37,37,37,37,37,37,37,37,37,35,37,37,37,37,37,37,37,37,37,37,37,37,37,37,37,37,37,37,37,37,37,37,37,37,37,37,37,34,
37,37,37,37,37,37,37,37,37,37,37,37,37,37,37,37,37,37,37,37,37,37,37,34,37,37,37,37,37,37,37,37,37,37,37,37,37,37,37,37,
37,37,37,37,37,37,37,37,37,34,37,35,37,37,37,37,37,37,37,37,37,37,37,37,37,35,37,37,37,37,37,37,37,37,37,37,37,37,34,37,
37,37,37,37,37,37,37,37,37,37,34,37,37,37,37,37,37,37,37,37,37,37,37,37,37,37,37,37,37,37,37,37,37,37,37,34,37,37,37,37,
37,37,37,37,37,37,37,37,37,37,37,37,37,37,37,37,37,37,37,37,37,37,37,37,37,37,37,37,37,37,37,37,37,35,37,34,37,37,37,37,
34,37,37,37,37,35,37,37,37,37,37,37,37,37,37,37,37,37,37,37,37,37,37,37,37,37,37,37,37,37,37,37,37,37,37,37,37,37,37,37,
37,37,37,37,35,37,37,37,35,37,37,37,37,37,37,37,37,37,37,37,37,37,37,37,37,34,37,37,35,37,37,37,37,37,37,37,37,37,37,37,
37,37,37,37,37,37,37,37,37,37,37,37,37,37,37,37,37,37,37,37,37,37,37,37,37,37,37,37,37,37,37,37,37,37,37,37,37,37,37,37,
37,37,37,37,37,37,37,37,37,37,37,37,37,37,37,37,37,37,37,37,37,37,37,37,37,37,37,37,37,37,37,37,37,37,37,37,37,37,37,37,
34,37,37,37,37,37,37,37,37,37,37,37,34,37,37,37,37,37,37,37,37,37,37,37,37,37,37,37,37,37,37,37,37,37,37,37,37,37,37,37,
37,37,37,37,37,34,37,37,37,37,37,37,37,37,37,37,37,37,37,37,37,37,37,37,37,37,37,37,37,37,37,37,37,37,37,37,37,37,37,37,
37,37,37,37,37,37,37,37,37,35,37,35,37,34,37,37,37,37,37,37,37,37,37,37,37,37,37,37,37,37,37,37,37,37,37,37,37,37,37,37,
37,37,37,34,37,34,37,37,37,37,37,37,37,37,37,37,37,37,37,37,37,37,37,37,37,37,37,37,37,37,37,37,37,37,37,34,37,37,37,37,
37,35,37,37,37,37,34,37,37,37,37,37,37,37,37,37,37,37,37,37,37,37,37,37,37,37,37,37,37,35,37,37,37,37,37,37,37,37,37,37,
37,37,37,37,37,37,37,37,37,37,37,37,37,37,37,37,37,37,37,37,35,37,35,34,37,35,37,35,37,35,37,37,35,37,37,37,37,37,37,37,
37,37,37,37,37,37,37,37,37,37,37,37,37,37,37,37,37,37,37,37,37,37,37,37,37,37,37,37,34,35,37,37,37,37,37,37,37,37,37,37,
37,37,37,37,37,37,37,37,37,37,34,35,37,37,37,37,37,37,37,37,37,37,37,37,37,37,34,37,37,37,37,37,37,37,37,37,37,37,37,37,
37,37,37,37,37,37,37,37,37,37,37,37,37,37,37,37,37,37,37,34,37,37,37,37,37,37,37,37,37,37,37,37,37,37,37,37,37,37,37,35
</data>
 </layer>
 <layer id="2" name="Terrain" width="40" height="44">
  <data encoding="csv">
0,0,0,0,0,0,0,0,0,0,0,0,0,0,0,0,0,0,0,194,194,194,0,0,0,0,0,0,0,0,0,0,0,0,0,0,0,0,0,0,
0,0,0,0,0,0,0,0,0,0,0,0,0,0,0,0,0,0,0,194,194,194,0,0,0,0,0,0,0,0,0,0,0,0,0,0,0,0,0,0,
0,0,0,0,0,0,0,0,0,0,0,0,0,0,0,0,0,0,194,194,194,0,0,0,0,0,0,0,0,0,0,0,0,0,0,0,0,0,0,0,
0,0,0,0,0,0,0,0,0,0,0,0,0,0,0,0,0,0,194,194,194,0,0,0,0,0,0,0,0,0,0,0,0,0,0,0,0,0,0,0,
0,0,0,0,0,0,0,0,0,0,0,0,0,0,0,0,0,194,194,194,0,0,0,0,0,0,0,0,0,0,0,0,0,0,0,0,0,0,0,0,
0,0,0,0,0,0,0,0,0,0,0,0,0,0,0,0,0,194,194,194,0,0,0,0,0,0,0,0,0,0,0,0,0,0,0,0,0,0,0,0,
0,0,0,0,0,0,0,0,0,0,0,0,0,0,0,0,0,0,194,194,194,0,0,0,0,0,0,0,0,0,0,0,0,0,0,0,0,0,0,0,
0,0,0,0,0,0,0,0,0,0,0,0,0,0,0,0,0,0,194,194,194,0,0,0,0,0,0,0,0,0,0,0,0,0,0,0,0,0,0,0,
0,0,0,0,0,0,0,0,0,0,0,0,0,0,0,0,0,0,0,194,194,194,0,0,0,0,0,0,0,0,0,0,0,0,0,0,0,0,0,0,
0,0,0,0,0,0,0,0,0,0,0,0,0,0,0,0,0,0,0,194,194,194,0,0,0,0,0,0,0,0,0,0,0,0,0,0,0,0,0,0,
0,0,0,0,0,0,0,0,0,0,0,0,0,0,0,0,0,0,0,0,194,194,194,0,0,0,0,0,0,0,0,0,0,0,0,0,0,0,0,0,
0,0,0,0,0,0,0,0,0,0,0,0,0,0,0,0,0,0,0,0,0,194,194,194,0,0,0,0,0,0,0,0,0,0,0,0,0,0,0,0,
0,0,0,0,0,0,0,0,0,0,0,0,0,0,0,0,0,0,0,0,0,0,194,194,194,0,0,0,0,0,0,0,0,0,0,0,0,0,0,0,
0,0,0,0,0,0,0,0,0,0,0,0,0,0,0,0,0,0,0,0,0,0,0,194,194,194,0,0,0,0,0,0,0,0,0,0,0,0,0,0,
0,0,0,0,0,0,0,0,0,0,0,0,0,0,0,0,0,0,0,0,0,0,0,194,194,194,0,0,0,0,0,0,0,0,0,0,0,0,0,0,
0,0,0,0,0,0,0,0,0,0,0,0,0,0,0,0,0,0,0,0,0,0,0,194,194,194,0,0,0,0,0,0,0,0,0,0,0,0,0,0,
0,0,0,0,0,0,0,0,0,0,0,0,0,0,0,0,0,0,0,0,0,0,0,194,194,194,0,0,0,0,0,0,0,0,0,0,0,0,0,0,
0,0,0,0,0,0,0,0,0,0,0,0,0,0,0,0,0,0,0,0,0,0,0,194,194,194,0,0,0,0,0,0,0,0,0,0,0,0,0,0,
0,0,0,0,0,0,0,0,0,0,194,194,0,0,0,0,0,0,0,0,0,0,0,194,194,194,0,0,0,0,0,0,0,0,0,0,0,0,0,0,
0,0,0,0,0,0,0,0,0,194,0,0,194,194,194,0,0,0,0,0,0,0,194,194,194,0,0,0,0,0,0,0,0,0,0,0,0,0,0,0,
0,0,0,0,0,0,0,0,0,194,0,0,0,0,0,194,194,0,0,0,0,194,194,194,0,0,0,0,0,0,0,0,0,0,0,0,0,0,0,0,
0,0,0,0,0,0,0,0,194,0,0,0,0,0,0,0,0,194,194,0,194,194,194,0,0,0,0,0,0,0,0,0,0,0,0,0,0,0,0,0,
0,0,0,0,0,0,0,194,0,0,0,0,0,0,0,0,0,0,0,194,194,194,0,0,0,0,0,0,0,0,0,0,0,0,0,0,0,0,0,0,
0,0,0,0,0,0,0,194,0,0,0,0,0,0,0,0,0,0,0,194,194,194,0,0,0,0,0,0,0,0,0,0,0,0,0,0,0,0,0,0,
0,0,0,0,0,0,0,194,0,0,0,0,0,0,0,0,0,0,194,194,194,0,0,0,0,0,0,0,0,0,0,0,0,0,0,0,0,0,0,0,
0,0,0,0,0,0,194,0,0,0,0,0,0,0,0,0,0,0,194,194,194,0,0,0,0,0,0,0,0,0,0,0,0,0,0,0,0,0,0,0,
0,0,0,0,0,0,194,0,0,0,0,0,0,0,0,0,0,194,194,194,0,0,0,0,0,0,0,0,0,0,0,0,0,0,0,0,0,0,0,0,
0,0,0,0,0,0,194,0,0,0,0,0,0,0,0,0,194,194,194,0,0,0,0,0,0,0,0,0,0,0,0,0,0,0,0,0,0,0,0,0,
0,0,0,0,0,0,0,194,0,0,0,0,0,0,0,194,194,194,0,0,0,0,0,0,0,0,0,0,0,0,0,0,0,0,0,0,0,0,0,0,
0,0,0,0,0,0,0,194,0,0,0,0,0,0,194,194,194,0,0,0,0,0,0,0,0,0,0,0,0,0,0,0,0,0,0,0,0,0,0,0,
0,0,0,0,0,0,0,0,194,0,0,0,194,194,194,194,0,0,0,0,0,0,0,0,0,0,0,0,0,0,0,0,0,0,0,0,0,0,0,0,
0,0,0,0,0,0,0,0,0,194,194,194,0,194,194,194,0,0,0,0,0,0,0,0,0,0,0,0,0,0,0,0,0,0,0,0,0,0,0,0,
0,0,0,0,0,0,0,0,0,0,0,0,0,194,194,194,0,0,0,0,0,0,0,0,0,0,0,0,0,0,0,0,0,0,0,0,0,0,0,0,
0,0,0,0,0,0,0,0,0,0,0,0,0,194,194,194,0,0,0,0,0,0,0,0,0,0,0,0,0,0,0,0,0,0,0,0,0,0,0,0,
0,0,0,0,0,0,0,0,0,0,0,0,0,194,194,194,0,0,0,0,0,0,0,0,0,0,0,0,0,0,0,0,0,0,0,0,0,0,0,0,
0,0,0,0,0,0,0,0,0,0,0,0,0,0,194,194,194,0,0,0,0,0,0,0,0,0,0,0,0,0,0,0,0,0,0,0,0,0,0,0,
0,0,0,0,0,0,0,0,0,0,0,0,0,0,0,194,194,194,0,0,0,0,0,0,0,0,0,0,0,0,0,0,0,0,0,0,0,0,0,0,
0,0,0,0,0,0,0,0,0,0,0,0,0,0,0,0,194,194,194,0,0,0,0,0,0,0,0,0,0,0,0,0,0,0,0,0,0,0,0,0,
0,0,0,0,0,0,0,0,0,0,0,0,0,0,0,0,0,194,194,194,0,0,0,0,0,0,0,0,0,0,0,0,0,0,0,0,0,0,0,0,
0,0,0,0,0,0,0,0,0,0,0,0,0,0,0,0,0,0,194,194,194,0,0,0,0,0,0,0,0,0,0,0,0,0,0,0,0,0,0,0,
0,0,0,0,0,0,0,0,0,0,0,0,0,0,0,0,0,0,194,194,194,0,0,0,0,0,0,0,0,0,0,0,0,0,0,0,0,0,0,0,
0,0,0,0,0,0,0,0,0,0,0,0,0,0,0,0,0,0,194,194,194,0,0,0,0,0,0,0,0,0,0,0,0,0,0,0,0,0,0,0,
0,0,0,0,0,0,0,0,0,0,0,0,0,0,0,0,0,0,0,194,194,194,0,0,0,0,0,0,0,0,0,0,0,0,0,0,0,0,0,0,
0,0,0,0,0,0,0,0,0,0,0,0,0,0,0,0,0,0,0,194,194,194,0,0,0,0,0,0,0,0,0,0,0,0,0,0,0,0,0,0
</data>
 </layer>
 <layer id="3" name="Objects" width="40" height="44">
  <data encoding="csv">
0,0,0,0,0,0,0,0,0,0,0,0,0,0,0,0,0,0,0,0,0,0,0,0,0,0,0,0,0,0,0,0,0,0,0,0,0,0,0,0,
48,48,48,0,48,48,48,0,0,48,48,48,48,48,48,48,48,48,48,0,0,0,48,48,48,48,48,0,0,48,48,0,0,48,48,48,48,0,48,48,
48,48,48,48,0,48,0,48,48,0,48,48,48,0,0,48,0,48,0,0,0,0,48,0,0,48,0,48,0,0,48,48,0,0,0,0,48,0,0,48,
48,48,48,0,0,48,0,0,0,0,48,0,48,48,0,48,48,48,0,0,0,0,48,0,0,0,0,0,48,0,48,48,48,48,48,0,0,48,48,48,
48,48,48,48,0,0,0,48,48,0,48,48,0,0,48,48,48,0,0,0,0,0,0,0,0,0,0,0,48,48,48,48,48,48,0,48,48,48,48,48,
48,48,48,0,48,0,48,48,48,48,48,48,48,48,0,48,0,0,0,0,0,0,0,0,0,0,0,0,48,48,48,0,0,48,48,48,0,48,0,48,
48,48,48,48,48,0,48,48,48,0,48,48,0,48,0,0,48,0,0,0,0,0,0,0,0,0,0,0,48,48,48,48,48,48,48,48,48,48,48,48,
48,48,48,48,0,48,48,0,48,48,48,0,48,48,0,0,48,0,0,0,0,0,0,0,0,0,0,0,48,0,48,48,48,0,48,0,48,48,48,48,
48,48,48,48,48,0,48,0,48,48,0,48,48,0,0,0,0,48,0,0,0,0,0,0,0,0,0,0,0,48,0,48,48,48,0,48,48,48,48,48,
48,48,48,0,48,0,48,48,48,48,0,48,0,48,48,0,0,0,48,0,0,0,0,0,0,0,0,0,48,48,48,48,0,48,48,48,48,48,48,48,
48,48,48,48,48,0,48,48,48,48,48,48,0,0,0,48,0,0,48,0,0,0,0,0,0,0,0,0,0,48,0,48,48,0,48,0,48,48,48,48,
48,48,0,48,48,0,48,0,48,48,48,48,0,48,48,0,0,0,48,0,0,0,0,0,0,0,0,0,48,48,0,0,48,48,48,48,48,48,48,48,
48,48,48,48,48,0,0,48,48,0,0,48,48,48,0,0,48,48,48,0,0,0,0,0,0,0,0,0,0,0,0,0,48,0,0,48,48,48,48,48,
48,48,0,48,0,0,48,48,48,0,0,0,48,48,48,48,0,0,0,0,0,0,0,0,0,0,0,0,48,0,48,48,48,48,48,48,48,0,0,48,
48,48,48,48,48,48,48,48,48,0,48,48,48,0,0,0,0,48,0,0,0,0,0,0,0,0,0,0,0,0,48,48,48,0,0,48,48,48,48,48,
48,48,48,48,48,48,48,48,48,48,48,48,0,48,0,0,48,48,48,0,0,0,0,0,0,0,0,0,48,48,0,0,0,48,48,0,48,0,48,48,
48,48,48,48,48,48,48,48,48,0,48,48,0,0,48,48,0,0,48,0,0,0,0,0,0,0,0,0,48,48,48,48,48,48,48,48,0,48,48,48,
48,48,48,48,48,48,48,48,0,48,48,48,0,0,0,0,0,0,0,0,0,0,0,0,0,0,0,0,0,0,48,0,0,48,0,48,48,48,48,48,
48,48,48,48,48,0,0,48,0,48,0,0,0,0,0,0,0,0,0,0,0,0,0,0,0,0,0,0,0,48,48,48,0,0,0,48,48,48,48,48,
48,48,48,48,48,48,48,0,48,0,48,48,0,0,0,0,0,0,0,0,0,0,51,0,0,0,0,0,0,0,0,48,0,48,48,0,48,48,48,48,
48,48,48,48,48,0,48,48,48,0,0,0,0,0,0,0,0,0,51,0,0,0,0,0,0,0,0,0,0,48,48,48,48,48,48,48,48,48,48,48,
48,48,48,48,48,0,48,48,0,48,48,48,0,0,0,0,0,0,0,0,0,0,0,0,0,0,0,0,0,0,48,0,48,48,0,48,48,48,48,48,
48,48,48,48,48,477,0,0,48,48,48,48,0,0,0,0,0,0,0,0,0,0,0,0,0,0,51,0,0,0,48,48,0,48,48,0,48,48,48,48,
48,48,48,0,48,48,48,0,48,0,48,48,477,0,0,0,48,0,0,0,0,0,0,0,0,0,0,0,0,0,0,0,48,48,48,48,0,48,48,48,
48,48,48,48,0,0,0,0,48,48,48,477,0,0,0,0,0,0,0,0,0,0,0,0,0,0,0,48,0,48,48,48,48,0,48,48,48,0,48,48,
48,0,48,48,48,48,0,0,0,48,48,0,0,0,0,0,0,0,0,0,0,476,0,0,0,0,0,0,0,48,48,48,0,48,0,48,48,48,48,48,
48,48,0,48,48,477,0,0,48,48,48,0,0,0,0,0,0,0,0,0,0,0,0,0,0,0,0,0,0,0,48,48,0,48,48,48,48,48,48,48,
48,48,48,48,48,48,0,48,48,48,48,0,0,0,0,0,0,0,0,0,0,0,0,0,0,0,0,0,0,48,48,48,48,0,48,48,48,48,48,48,
48,48,48,477,0,48,48,0,0,48,48,477,0,0,0,0,0,0,0,0,0,0,0,0,0,0,0,0,0,48,48,48,48,0,48,48,48,48,48,48,
48,48,48,48,0,48,48,0,0,48,48,0,0,0,0,0,0,0,0,0,0,0,0,0,0,0,0,0,48,48,48,48,48,0,48,48,0,48,48,48,
48,48,48,48,48,48,0,0,0,48,0,48,0,0,0,0,0,0,0,0,0,0,0,0,0,0,0,0,48,48,48,48,48,48,48,48,48,48,48,48,
48,48,48,0,48,48,48,48,48,0,0,371,0,0,0,0,0,0,0,0,0,0,0,0,0,0,0,0,0,0,48,48,48,48,0,0,0,48,48,48,
48,48,48,48,48,48,0,48,0,48,48,48,0,0,0,0,0,0,0,0,0,0,0,0,0,0,0,0,0,0,48,48,48,48,48,48,48,48,48,48,
48,48,0,0,0,48,48,48,48,0,48,48,0,0,0,0,0,0,0,0,0,0,0,0,0,0,0,0,0,0,0,48,0,48,0,48,48,48,48,48,
48,48,48,48,48,48,48,48,0,48,48,48,0,0,0,0,0,0,0,0,0,0,0,0,0,0,0,0,48,0,0,0,0,0,0,0,48,0,48,48,
48,48,48,48,48,48,0,48,48,0,0,48,0,0,0,0,0,0,0,0,0,0,0,0,0,0,0,0,48,48,48,0,48,48,48,0,48,48,0,48,
48,48,48,48,0,48,48,48,0,48,48,48,0,0,0,0,0,0,0,0,0,0,0,0,0,0,0,0,48,48,48,0,48,48,48,48,48,48,48,48,
48,48,48,48,0,0,0,0,0,48,48,0,0,0,0,0,0,0,0,0,0,0,0,0,0,0,0,0,0,48,48,48,0,48,48,48,48,0,48,48,
48,48,0,48,0,48,48,0,0,48,48,48,0,0,0,0,0,0,0,0,0,0,0,0,0,0,0,0,48,48,48,48,48,48,0,0,48,48,48,48,
48,0,0,48,48,0,48,48,48,48,0,48,0,0,0,0,0,0,0,0,0,0,0,0,0,0,0,0,0,48,48,48,48,48,48,48,0,48,48,48,
48,48,48,48,48,48,48,48,48,48,48,48,0,0,0,0,48,0,0,0,0,48,0,48,48,0,0,0,48,48,48,48,48,48,48,48,48,48,48,48,
48,48,48,48,0,48,0,0,48,0,0,0,0,48,0,0,48,48,0,0,0,0,48,48,0,48,0,0,0,0,48,48,0,48,48,0,48,0,48,48,
48,0,0,0,48,0,0,48,48,48,48,48,0,0,48,0,48,0,48,0,0,0,0,48,48,48,48,48,48,48,48,48,0,0,0,48,48,48,48,48,
48,48,48,48,48,48,48,48,48,48,48,48,48,48,48,48,48,48,48,0,0,0,48,48,48,48,48,48,48,48,48,48,48,48,48,48,48,48,48,48
</data>
 </layer>
 <layer id="4" name="Above Player" width="40" height="44">
  <data encoding="csv">
16,16,16,0,16,16,16,0,0,16,16,16,16,16,16,16,16,16,16,0,0,0,16,16,16,16,16,0,0,16,16,0,0,16,16,16,16,0,16,16,
16,16,16,16,0,16,0,16,16,0,16,16,16,0,0,16,0,16,0,0,0,0,16,0,0,16,0,16,0,0,16,16,0,0,0,0,16,0,0,16,
16,16,16,0,0,16,0,0,0,0,16,0,16,16,0,16,16,16,0,0,0,0,16,0,0,0,0,0,16,0,16,16,16,16,16,0,0,16,16,16,
16,16,16,16,0,0,0,16,16,0,16,16,0,0,16,16,16,0,0,0,0,0,0,0,0,0,0,0,16,16,16,16,16,16,0,16,16,16,16,16,
16,16,16,0,16,0,16,16,16,16,16,16,16,16,0,16,0,0,0,0,0,0,0,0,0,0,0,0,16,16,16,0,0,16,16,16,0,16,0,16,
16,16,16,16,16,0,16,16,16,0,16,16,0,16,0,0,16,0,0,0,0,0,0,0,0,0,0,0,16,16,16,16,16,16,16,16,16,16,16,16,
16,16,16,16,0,16,16,0,16,16,16,0,16,16,0,0,16,0,0,0,0,0,0,0,0,0,0,0,16,0,16,16,16,0,16,0,16,16,16,16,
16,16,16,16,16,0,16,0,16,16,0,16,16,0,0,0,0,16,0,0,0,0,0,0,0,0,0,0,0,16,0,16,16,16,0,16,16,16,16,16,
16,16,16,0,16,0,16,16,16,16,0,16,0,16,16,0,0,0,16,0,0,0,0,0,0,0,0,0,16,16,16,16,0,16,16,16,16,16,16,16,
16,16,16,16,16,0,16,16,16,16,16,16,0,0,0,16,0,0,16,0,0,0,0,0,0,0,0,0,0,16,0,16,16,0,16,0,16,16,16,16,
16,16,0,16,16,0,16,0,16,16,16,16,0,16,16,0,0,0,16,0,0,0,0,0,0,0,0,0,16,16,0,0,16,16,16,16,16,16,16,16,
16,16,16,16,16,0,0,16,16,0,0,16,16,16,0,0,16,16,16,0,0,0,0,0,0,0,0,0,0,0,0,0,16,0,0,16,16,16,16,16,
16,16,0,16,0,0,16,16,16,0,0,0,16,16,16,16,0,0,0,0,0,0,0,0,0,0,0,0,16,0,16,16,16,16,16,16,16,0,0,16,
16,16,16,16,16,16,16,16,16,0,16,16,16,0,0,0,0,16,0,0,0,0,0,0,0,0,0,0,0,0,16,16,16,0,0,16,16,16,16,16,
16,16,16,16,16,16,16,16,16,16,16,16,0,16,0,0,16,16,16,0,0,0,0,0,0,0,0,0,16,16,0,0,0,16,16,0,16,0,16,16,
16,16,16,16,16,16,16,16,16,0,16,16,0,0,16,16,0,0,16,0,0,0,0,0,0,0,0,0,16,16,16,16,16,16,16,16,0,16,16,16,
16,16,16,16,16,16,16,16,0,16,16,16,0,0,0,0,0,0,0,0,0,0,0,0,0,0,0,0,0,0,16,0,0,16,0,16,16,16,16,16,
16,16,16,16,16,0,0,16,0,16,0,0,0,0,0,0,0,0,0,0,0,0,0,0,0,0,0,0,0,16,16,16,0,0,0,16,16,16,16,16,
16,16,16,16,16,16,16,0,16,0,16,16,0,0,0,0,0,0,0,0,0,0,0,0,0,0,0,0,0,0,0,16,0,16,16,0,16,16,16,16,
16,16,16,16,16,0,16,16,16,0,0,0,0,0,0,0,0,0,0,0,0,0,0,0,0,0,0,0,0,16,16,16,16,16,16,16,16,16,16,16,
16,16,16,16,16,0,16,16,0,16,16,16,0,0,0,0,0,0,0,0,0,0,0,0,0,0,0,0,0,0,16,0,16,16,0,16,16,16,16,16,
16,16,16,16,16,0,0,0,16,16,16,16,0,0,0,0,0,0,0,0,0,0,0,0,0,0,0,0,0,0,16,16,0,16,16,0,16,16,16,16,
16,16,16,0,16,16,16,0,16,0,16,16,0,0,0,0,16,0,0,0,0,0,0,0,0,0,0,0,0,0,0,0,16,16,16,16,0,16,16,16,
16,16,16,16,0,0,0,0,16,16,16,0,0,0,0,0,0,0,0,0,0,0,0,0,0,0,0,16,0,16,16,16,16,0,16,16,16,0,16,16,
16,0,16,16,16,16,0,0,0,16,16,0,0,0,0,0,0,0,0,0,0,0,0,0,0,0,0,0,0,16,16,16,0,16,0,16,16,16,16,16,
16,16,0,16,16,0,0,0,16,16,16,0,0,0,0,0,0,0,0,0,0,0,0,0,0,0,0,0,0,0,16,16,0,16,16,16,16,16,16,16,
16,16,16,16,16,16,0,16,16,16,16,0,0,0,0,0,0,0,0,0,0,0,0,0,0,0,0,0,0,16,16,16,16,0,16,16,16,16,16,16,
16,16,16,0,0,16,16,0,0,16,16,0,0,0,0,0,0,0,0,0,0,0,0,0,0,0,0,0,0,16,16,16,16,0,16,16,16,16,16,16,
16,16,16,16,0,16,16,0,0,16,16,0,0,0,0,0,0,0,0,0,0,0,0,0,0,0,0,0,16,16,16,16,16,0,16,16,0,16,16,16,
16,16,16,16,16,16,0,0,0,16,0,307,0,0,0,0,0,0,0,0,0,0,0,0,0,0,0,0,16,16,16,16,16,16,16,16,16,16,16,16,
16,16,16,0,16,16,16,16,16,0,0,339,0,0,0,0,0,0,0,0,0,0,0,0,0,0,0,0,0,0,16,16,16,16,0,0,0,16,16,16,
16,16,16,16,16,16,0,16,0,16,16,16,0,0,0,0,0,0,0,0,0,0,0,0,0,0,0,0,0,0,16,16,16,16,16,16,16,16,16,16,
16,16,0,0,0,16,16,16,16,0,16,16,0,0,0,0,0,0,0,0,0,0,0,0,0,0,0,0,0,0,0,16,0,16,0,16,16,16,16,16,
16,16,16,16,16,16,16,16,0,16,16,16,0,0,0,0,0,0,0,0,0,0,0,0,0,0,0,0,16,0,0,0,0,0,0,0,16,0,16,16,
16,16,16,16,16,16,0,16,16,0,0,16,0,0,0,0,0,0,0,0,0,0,0,0,0,0,0,0,16,16,16,0,16,16,16,0,16,16,0,16,
16,16,16,16,0,16,16,16,0,16,16,16,0,0,0,0,0,0,0,0,0,0,0,0,0,0,0,0,16,16,16,0,16,16,16,16,16,16,16,16,
16,16,16,16,0,0,0,0,0,16,16,0,0,0,0,0,0,0,0,0,0,0,0,0,0,0,0,0,0,16,16,16,0,16,16,16,16,0,16,16,
16,16,0,16,0,16,16,0,0,16,16,16,0,0,0,0,0,0,0,0,0,0,0,0,0,0,0,0,16,16,16,16,16,16,0,0,16,16,16,16,
16,0,0,16,16,0,16,16,16,16,0,16,0,0,0,0,0,0,0,0,0,0,0,0,0,0,0,0,0,16,16,16,16,16,16,16,0,16,16,16,
16,16,16,16,16,16,16,16,16,16,16,16,0,0,0,0,16,0,0,0,0,16,0,16,16,0,0,0,16,16,16,16,16,16,16,16,16,16,16,16,
16,16,16,16,0,16,0,0,16,0,0,0,0,16,0,0,16,16,0,0,0,0,16,16,0,16,0,0,0,0,16,16,0,16,16,0,16,0,16,16,
16,0,0,0,16,0,0,16,16,16,16,16,0,0,16,0,16,0,16,0,0,0,0,16,16,16,16,16,16,16,16,16,0,0,0,16,16,16,16,16,
16,16,16,16,16,16,16,16,16,16,16,16,16,16,16,16,16,16,16,0,0,0,16,16,16,16,16,16,16,16,16,16,16,16,16,16,16,16,16,16,
0,0,0,0,0,0,0,0,0,0,0,0,0,0,0,0,0,0,0,0,0,0,0,0,0,0,0,0,0,0,0,0,0,0,0,0,0,0,0,0
</data>
 </layer>
 <objectgroup id="5" name="Collisions" color="#ff0000">
  <object id="1" type="collision" x="0" y="16" width="48" height="160" />
  <object id="2" type="collision" x="64" y="16" width="48" height="16" />
  <object id="3" type="collision" x="144" y="16" width="160" height="16" />
  <object id="4" type="collision" x="352" y="16" width="80" height="16" />
  <object id="5" type="collision" x="464" y="16" width="32" height="16" />
  <object id="6" type="collision" x="528" y="16" width="64" height="16" />
  <object id="7" type="collision" x="608" y="16" width="32" height="16" />
  <object id="8" type="collision" x="48" y="32" width="16" height="16" />
  <object id="9" type="collision" x="80" y="32" width="16" height="32" />
  <object id="10" type="collision" x="112" y="32" width="32" height="16" />
  <object id="11" type="collision" x="160" y="32" width="48" height="16" />
  <object id="12" type="collision" x="240" y="32" width="16" height="64" />
  <object id="13" type="collision" x="272" y="32" width="16" height="32" />
  <object id="14" type="collision" x="352" y="32" width="16" height="32" />
  <object id="15" type="collision" x="400" y="32" width="16" height="16" />
  <object id="16" type="collision" x="432" y="32" width="16" height="16" />
  <object id="17" type="collision" x="480" y="32" width="32" height="48" />
  <object id="18" type="collision" x="576" y="32" width="16" height="16" />
  <object id="19" type="collision" x="624" y="32" width="16" height="672" />
  <object id="20" type="collision" x="160" y="48" width="16" height="80" />
  <object id="21" type="collision" x="192" y="48" width="32" height="16" />
  <object id="22" type="collision" x="256" y="48" width="16" height="32" />
  <object id="23" type="collision" x="448" y="48" width="16" height="80" />
  <object id="24" type="collision" x="512" y="48" width="48" height="16" />
  <object id="25" type="collision" x="592" y="48" width="32" height="32" />
  <object id="26" type="collision" x="48" y="64" width="16" height="16" />
  <object id="27" type="collision" x="112" y="64" width="32" height="48" />
  <object id="28" type="collision" x="176" y="64" width="16" height="48" />
  <object id="29" type="collision" x="224" y="64" width="16" height="16" />
  <object id="30" type="collision" x="464" y="64" width="16" height="48" />
  <object id="31" type="collision" x="512" y="64" width="32" height="16" />
  <object id="32" type="collision" x="560" y="64" width="32" height="16" />
  <object id="33" type="collision" x="64" y="80" width="16" height="32" />
  <object id="34" type="collision" x="96" y="80" width="16" height="112" />
  <object id="35" type="collision" x="144" y="80" width="16" height="16" />
  <object id="36" type="collision" x="192" y="80" width="32" height="16" />
  <object id="37" type="collision" x="480" y="80" width="16" height="48" />
  <object id="38" type="collision" x="528" y="80" width="48" height="32" />
  <object id="39" type="collision" x="592" y="80" width="16" height="128" />
  <object id="40" type="collision" x="48" y="96" width="16" height="48" />
  <object id="41" type="collision" x="208" y="96" width="16" height="32" />
  <object id="42" type="collision" x="256" y="96" width="16" height="32" />
  <object id="43" type="collision" x="496" y="96" width="32" height="48" />
  <object id="44" type="collision" x="576" y="96" width="16" height="160" />
  <object id="45" type="collision" x="608" y="96" width="16" height="112" />
  <object id="46" type="collision" x="80" y="112" width="16" height="16" />
  <object id="47" type="collision" x="128" y="112" width="32" height="80" />
  <object id="48" type="collision" x="192" y="112" width="16" height="32" />
  <object id="49" type="collision" x="544" y="112" width="16" height="16" />
  <object id="50" type="collision" x="64" y="128" width="16" height="80" />
  <object id="51" type="collision" x="176" y="128" width="16" height="80" />
  <object id="52" type="collision" x="272" y="128" width="16" height="16" />
  <object id="53" type="collision" x="464" y="128" width="16" height="64" />
  <object id="54" type="collision" x="528" y="128" width="16" height="32" />
  <object id="55" type="collision" x="560" y="128" width="16" height="32" />
  <object id="56" type="collision" x="112" y="144" width="16" height="32" />
  <object id="57" type="collision" x="208" y="144" width="32" height="16" />
  <object id="58" type="collision" x="288" y="144" width="16" height="64" />
  <object id="59" type="collision" x="448" y="144" width="16" height="16" />
  <object id="60" type="collision" x="480" y="144" width="32" height="16" />
  <object id="61" type="collision" x="544" y="144" width="16" height="48" />
  <object id="62" type="collision" x="48" y="160" width="16" height="208" />
  <object id="63" type="collision" x="160" y="160" width="16" height="32" />
  <object id="64" type="collision" x="240" y="160" width="16" height="16" />
  <object id="65" type="collision" x="496" y="160" width="32" height="16" />
  <object id="66" type="collision" x="0" y="176" width="32" height="224" />
  <object id="67" type="collision" x="208" y="176" width="32" height="16" />
  <object id="68" type="collision" x="448" y="176" width="16" height="16" />
  <object id="69" type="collision" x="512" y="176" width="32" height="16" />
  <object id="70" type="collision" x="560" y="176" width="16" height="64" />
  <object id="71" type="collision" x="32" y="192" width="16" height="16" />
  <object id="72" type="collision" x="112" y="192" width="32" height="80" />
  <object id="73" type="collision" x="192" y="192" width="32" height="32" />
  <object id="74" type="collision" x="256" y="192" width="32" height="16" />
  <object id="75" type="collision" x="512" y="192" width="16" height="48" />
  <object id="76" type="collision" x="96" y="208" width="16" height="80" />
  <object id="77" type="collision" x="224" y="208" width="32" height="16" />
  <object id="78" type="collision" x="448" y="208" width="16" height="16" />
  <object id="79" type="collision" x="480" y="208" width="32" height="32" />
  <object id="80" type="collision" x="528" y="208" width="32" height="16" />
  <object id="81" type="collision" x="32" y="224" width="16" height="192" />
  <object id="82" type="collision" x="64" y="224" width="32" height="64" />
  <object id="83" type="collision" x="160" y="224" width="48" height="16" />
  <object id="84" type="collision" x="272" y="224" width="16" height="32" />
  <object id="85" type="collision" x="592" y="224" width="32" height="16" />
  <object id="86" type="collision" x="144" y="240" width="48" height="16" />
  <object id="87" type="collision" x="208" y="240" width="16" height="16" />
  <object id="88" type="collision" x="256" y="240" width="16" height="16" />
  <object id="89" type="collision" x="288" y="240" width="16" height="32" />
  <object id="90" type="collision" x="448" y="240" width="32" height="32" />
  <object id="91" type="collision" x="528" y="240" width="32" height="32" />
  <object id="92" type="collision" x="608" y="240" width="16" height="320" />
  <object id="93" type="collision" x="160" y="256" width="32" height="32" />
  <object id="94" type="collision" x="224" y="256" width="32" height="16" />
  <object id="95" type="collision" x="480" y="256" width="48" height="16" />
  <object id="96" type="collision" x="560" y="256" width="16" height="48" />
  <object id="97" type="collision" x="592" y="256" width="16" height="128" />
  <object id="98" type="collision" x="112" y="272" width="16" height="32" />
  <object id="99" type="collision" x="144" y="272" width="16" height="32" />
  <object id="100" type="collision" x="480" y="272" width="16" height="32" />
  <object id="101" type="collision" x="528" y="272" width="16" height="16" />
  <object id="102" type="collision" x="576" y="272" width="16" height="96" />
  <object id="103" type="collision" x="64" y="288" width="16" height="96" />
  <object id="104" type="collision" x="464" y="288" width="16" height="16" />
  <object id="105" type="collision" x="496" y="288" width="16" height="48" />
  <object id="106" type="collision" x="80" y="304" width="32" height="16" />
  <object id="107" type="collision" x="128" y="304" width="16" height="32" />
  <object id="108" type="collision" x="160" y="304" width="32" height="16" />
  <object id="109" type="collision" x="352" y="304" width="16" height="16" />
  <object id="110" type="collision" x="528" y="304" width="32" height="32" />
  <object id="111" type="collision" x="96" y="320" width="32" height="32" />
  <object id="112" type="collision" x="288" y="320" width="16" height="16" />
  <object id="113" type="collision" x="464" y="320" width="32" height="16" />
  <object id="114" type="collision" x="512" y="320" width="16" height="32" />
  <object id="115" type="collision" x="560" y="320" width="16" height="32" />
  <object id="116" type="collision" x="144" y="336" width="48" height="32" />
  <object id="117" type="collision" x="480" y="336" width="16" height="32" />
  <object id="118" type="collision" x="528" y="336" width="16" height="48" />
  <object id="119" type="collision" x="128" y="352" width="16" height="48" />
  <object id="120" type="collision" x="416" y="352" width="16" height="16" />
  <object id="121" type="collision" x="496" y="352" width="16" height="16" />
  <object id="122" type="collision" x="544" y="352" width="16" height="48" />
  <object id="123" type="collision" x="80" y="368" width="32" height="16" />
  <object id="124" type="collision" x="160" y="368" width="32" height="16" />
  <object id="125" type="collision" x="256" y="368" width="16" height="16" />
  <object id="126" type="collision" x="512" y="368" width="16" height="32" />
  <object id="127" type="collision" x="560" y="368" width="16" height="128" />
  <object id="128" type="collision" x="48" y="384" width="16" height="64" />
  <object id="129" type="collision" x="144" y="384" width="32" height="96" />
  <object id="130" type="collision" x="432" y="384" width="16" height="16" />
  <object id="131" type="collision" x="464" y="384" width="48" height="32" />
  <object id="132" type="collision" x="576" y="384" width="16" height="80" />
  <object id="133" type="collision" x="0" y="400" width="16" height="304" />
  <object id="134" type="collision" x="64" y="400" width="32" height="16" />
  <object id="135" type="collision" x="528" y="400" width="16" height="32" />
  <object id="136" type="collision" x="592" y="400" width="16" height="144" />
  <object id="137" type="collision" x="16" y="416" width="16" height="208" />
  <object id="138" type="collision" x="64" y="416" width="16" height="32" />
  <object id="139" type="collision" x="128" y="416" width="16" height="32" />
  <object id="140" type="collision" x="480" y="416" width="32" height="112" />
  <object id="141" type="collision" x="544" y="416" width="16" height="80" />
  <object id="142" type="collision" x="32" y="432" width="16" height="96" />
  <object id="143" type="collision" x="80" y="432" width="16" height="160" />
  <object id="144" type="collision" x="112" y="432" width="16" height="16" />
  <object id="145" type="collision" x="464" y="432" width="16" height="64" />
  <object id="146" type="collision" x="512" y="432" width="16" height="96" />
  <object id="147" type="collision" x="96" y="448" width="16" height="32" />
  <object id="148" type="collision" x="48" y="464" width="16" height="32" />
  <object id="149" type="collision" x="448" y="464" width="16" height="32" />
  <object id="150" type="collision" x="64" y="480" width="16" height="48" />
  <object id="151" type="collision" x="144" y="480" width="16" height="16" />
  <object id="152" type="collision" x="176" y="480" width="16" height="112" />
  <object id="153" type="collision" x="528" y="480" width="16" height="64" />
  <object id="154" type="collision" x="576" y="480" width="16" height="16" />
  <object id="155" type="collision" x="96" y="496" width="48" height="16" />
  <object id="156" type="collision" x="48" y="512" width="16" height="16" />
  <object id="157" type="collision" x="112" y="512" width="16" height="80" />
  <object id="158" type="collision" x="144" y="512" width="32" height="16" />
  <object id="159" type="collision" x="544" y="512" width="48" height="16" />
  <object id="160" type="collision" x="96" y="528" width="16" height="32" />
  <object id="161" type="collision" x="128" y="528" width="16" height="16" />
  <object id="162" type="collision" x="160" y="528" width="16" height="32" />
  <object id="163" type="collision" x="496" y="528" width="16" height="16" />
  <object id="164" type="collision" x="560" y="528" width="32" height="16" />
  <object id="165" type="collision" x="32" y="544" width="48" height="32" />
  <object id="166" type="collision" x="144" y="544" width="16" height="16" />
  <object id="167" type="collision" x="448" y="544" width="16" height="48" />
  <object id="168" type="collision" x="576" y="544" width="16" height="80" />
  <object id="169" type="collision" x="128" y="560" width="16" height="16" />
  <object id="170" type="collision" x="464" y="560" width="32" height="96" />
  <object id="171" type="collision" x="512" y="560" width="48" height="32" />
  <object id="172" type="collision" x="592" y="560" width="16" height="32" />
  <object id="173" type="collision" x="32" y="576" width="32" height="32" />
  <object id="174" type="collision" x="96" y="576" width="16" height="16" />
  <object id="175" type="collision" x="144" y="576" width="32" height="48" />
  <object id="176" type="collision" x="560" y="576" width="16" height="32" />
  <object id="177" type="collision" x="608" y="576" width="16" height="128" />
  <object id="178" type="collision" x="496" y="592" width="16" height="112" />
  <object id="179" type="collision" x="528" y="592" width="32" height="16" />
  <object id="180" type="collision" x="48" y="608" width="16" height="64" />
  <object id="181" type="collision" x="80" y="608" width="32" height="16" />
  <object id="182" type="collision" x="176" y="608" width="16" height="48" />
  <object id="183" type="collision" x="448" y="608" width="16" height="16" />
  <object id="184" type="collision" x="512" y="608" width="32" height="48" />
  <object id="185" type="collision" x="592" y="608" width="16" height="48" />
  <object id="186" type="collision" x="64" y="624" width="16" height="32" />
  <object id="187" type="collision" x="96" y="624" width="64" height="32" />
  <object id="188" type="collision" x="544" y="624" width="32" height="32" />
  <object id="189" type="collision" x="16" y="640" width="32" height="32" />
  <object id="190" type="collision" x="80" y="640" width="16" height="32" />
  <object id="191" type="collision" x="160" y="640" width="16" height="16" />
  <object id="192" type="collision" x="256" y="640" width="16" height="64" />
  <object id="193" type="collision" x="336" y="640" width="16" height="16" />
  <object id="194" type="collision" x="368" y="640" width="32" height="16" />
  <object id="195" type="collision" x="448" y="640" width="16" height="16" />
  <object id="196" type="collision" x="576" y="640" width="16" height="64" />
  <object id="197" type="collision" x="128" y="656" width="16" height="48" />
  <object id="198" type="collision" x="208" y="656" width="16" height="16" />
  <object id="199" type="collision" x="272" y="656" width="16" height="16" />
  <object id="200" type="collision" x="352" y="656" width="32" height="16" />
  <object id="201" type="collision" x="400" y="656" width="16" height="48" />
  <object id="202" type="collision" x="480" y="656" width="16" height="48" />
  <object id="203" type="collision" x="528" y="656" width="32" height="16" />
  <object id="204" type="collision" x="64" y="672" width="16" height="32" />
  <object id="205" type="collision" x="112" y="672" width="16" height="32" />
  <object id="206" type="collision" x="144" y="672" width="48" height="32" />
  <object id="207" type="collision" x="224" y="672" width="16" height="32" />
  <object id="208" type="collision" x="288" y="672" width="16" height="32" />
  <object id="209" type="collision" x="368" y="672" width="32" height="32" />
  <object id="210" type="collision" x="416" y="672" width="64" height="32" />
  <object id="211" type="collision" x="560" y="672" width="16" height="32" />
  <object id="212" type="collision" x="592" y="672" width="16" height="32" />
  <object id="213" type="collision" x="16" y="688" width="48" height="16" />
  <object id="214" type="collision" x="80" y="688" width="32" height="16" />
  <object id="215" type="collision" x="192" y="688" width="32" height="16" />
  <object id="216" type="collision" x="240" y="688" width="16" height="16" />
  <object id="217" type="collision" x="272" y="688" width="16" height="16" />
  <object id="218" type="collision" x="352" y="688" width="16" height="16" />
  <object id="219" type="collision" x="512" y="688" width="48" height="16" />
 </objectgroup>
 <objectgroup id="6" name="Events" color="#ffff00">
  <object id="220" name="df_c_initial_south_exit" type="event" x="320" y="688" width="16" height="16">
   <properties>
    <property name="act10" value="transition_teleport player,df_c_initial_south_threshold.tmx,6,1,0.3" />
    <property name="act20" value="char_face player,down" />
    <property name="cond10" value="is char_at player" />
    <property name="cond20" value="is char_facing player,down" />
   </properties>
  </object>
  <object id="221" name="df_c_initial_north_exit" type="event" x="320" y="0" width="16" height="16">
   <properties>
    <property name="act10" value="transition_teleport player,df_c_initial_north_threshold.tmx,6,8,0.3" />
    <property name="act20" value="char_face player,up" />
    <property name="cond10" value="is char_at player" />
    <property name="cond20" value="is char_facing player,up" />
   </properties>
  </object>
  <object id="222" name="df_c_initial_hollow_encounters" type="event" x="48" y="336" width="160" height="160">
   <properties>
    <property name="act1" value="random_encounter df_c_initial_forest,9" />
   </properties>
  </object>
  <object id="223" name="df_c_initial_north_encounters" type="event" x="368" y="80" width="160" height="144">
   <properties>
    <property name="act1" value="random_encounter df_c_initial_forest,9" />
   </properties>
  </object>
  <object id="224" name="Create df_c_initial_naturalist" type="event" x="352" y="384" width="16" height="16">
   <properties>
    <property name="act1" value="create_npc df_c_initial_naturalist,22,24" />
    <property name="cond1" value="not char_exists df_c_initial_naturalist" />
   </properties>
  </object>
  <object id="225" name="Talk df_c_initial_naturalist" type="event" x="352" y="384" width="16" height="16">
   <properties>
    <property name="act1" value="char_talk df_c_initial_naturalist,pre_battle" />
    <property name="behav1" value="talk df_c_initial_naturalist" />
   </properties>
  </object>
  <object id="226" name="Create df_c_initial_forager" type="event" x="112" y="416" width="16" height="16">
   <properties>
    <property name="act1" value="create_npc df_c_initial_forager,7,26" />
    <property name="cond1" value="not char_exists df_c_initial_forager" />
   </properties>
  </object>
  <object id="227" name="Talk df_c_initial_forager" type="event" x="112" y="416" width="16" height="16">
   <properties>
    <property name="act1" value="char_talk df_c_initial_forager,pre_battle" />
    <property name="behav1" value="talk df_c_initial_forager" />
    <property name="act2" value="add_monster shybulb,8,df_c_initial_forager,5,10" />
    <property name="act3" value="start_battle player,df_c_initial_forager" />
    <property name="act4" value="char_talk df_c_initial_forager,post_battle_lose" />
    <property name="cond1" value="not battle_outcome player,won,df_c_initial_forager" />
   </properties>
  </object>
  <object id="228" name="Create df_c_initial_scout" type="event" x="368" y="192" width="16" height="16">
   <properties>
    <property name="act1" value="create_npc df_c_initial_scout,23,12" />
    <property name="cond1" value="not char_exists df_c_initial_scout" />
   </properties>
  </object>
  <object id="229" name="Talk df_c_initial_scout" type="event" x="368" y="192" width="16" height="16">
   <properties>
    <property name="act1" value="char_talk df_c_initial_scout,pre_battle" />
    <property name="behav1" value="talk df_c_initial_scout" />
    <property name="act2" value="add_monster squabbit,8,df_c_initial_scout,5,10" />
    <property name="act3" value="start_battle player,df_c_initial_scout" />
    <property name="act4" value="char_talk df_c_initial_scout,post_battle_lose" />
    <property name="cond1" value="not battle_outcome player,won,df_c_initial_scout" />
   </properties>
  </object>
  <object id="230" name="df_c_initial_listen_bellroot" type="event" x="320" y="352" width="16" height="16">
   <properties>
    <property name="act1" value="translated_dialog A low tone travels through the stone and fades toward the western hollow." />
    <property name="cond10" value="is char_facing_tile player" />
    <property name="cond20" value="is button_pressed INTERACT" />
   </properties>
  </object>
  <object id="231" name="df_c_initial_bell_tonic" type="event" x="112" y="352" width="16" height="16">
   <properties>
    <property name="act1" value="translated_dialog You find the western loop narrows beside a solitary pale shrub." />
    <property name="act2" value="add_item potion" />
    <property name="act3" value="set_variable df_c_initial_bell_tonic:found" />
    <property name="cond10" value="is char_facing_tile player" />
    <property name="cond20" value="is button_pressed INTERACT" />
    <property name="cond1" value="not variable_set df_c_initial_bell_tonic:found" />
   </properties>
  </object>
  <object id="232" name="Environment" type="event" x="0" y="0" width="16" height="16">
   <properties>
    <property name="act1" value="set_environment grass" />
    <property name="cond1" value="not environment_is grass" />
   </properties>
  </object>
  <object id="233" name="Give experiment starter" type="event" x="0" y="0" width="16" height="16">
   <properties>
    <property name="act1" value="add_monster cardiling,7" />
    <property name="act2" value="set_variable deep_forest_c_initial_starter_given:yes" />
    <property name="cond1" value="not variable_set deep_forest_c_initial_starter_given:yes" />
   </properties>
  </object>
 </objectgroup>
</map>
