<?xml version="1.0" encoding="UTF-8"?>
<map version="1.10" tiledversion="1.10.2" orientation="orthogonal" renderorder="right-down" width="40" height="44" tilewidth="16" tileheight="16" infinite="0" nextlayerid="7" nextobjectid="1000">
 <tileset firstgid="1" source="../../tuxemon/gfx/tilesets/prototyping_outdoor.tsx" />
 <layer id="1" name="Ground" width="40" height="44">
  <data encoding="csv">
37,37,37,37,37,37,37,37,34,37,37,37,37,37,35,37,37,37,37,37,37,37,37,37,37,37,37,37,35,37,37,37,37,37,37,37,37,37,37,37,
37,37,37,37,37,37,37,37,37,37,37,37,37,37,37,37,37,37,37,37,37,37,37,37,37,37,37,37,37,37,37,37,37,37,37,37,37,37,37,37,
37,37,37,37,37,37,37,37,37,37,37,37,37,37,37,37,37,37,37,37,34,37,37,37,37,37,37,37,37,37,37,37,37,37,37,37,37,37,37,37,
37,37,37,37,37,37,37,37,34,37,37,37,37,37,37,37,37,37,37,37,37,37,37,37,37,37,37,37,37,37,37,37,37,37,37,37,37,37,37,37,
37,37,37,37,37,37,37,37,37,35,35,37,37,37,37,37,37,37,37,37,37,34,37,37,37,37,37,37,37,37,37,37,37,37,37,37,37,37,37,34,
37,37,37,37,37,35,37,37,37,37,37,37,37,37,37,37,35,35,37,37,37,37,37,37,35,35,35,37,37,37,37,37,37,37,37,37,37,37,37,37,
37,37,37,34,37,37,37,37,37,37,37,37,37,37,37,37,37,37,35,37,37,37,37,37,37,37,37,37,35,37,37,37,37,37,37,37,37,37,37,37,
37,37,37,37,37,37,37,37,37,37,37,37,37,37,37,37,37,37,37,37,37,37,37,37,37,37,37,37,37,37,35,37,37,37,37,37,37,37,37,37,
37,37,37,37,37,37,37,37,37,37,37,37,37,37,37,37,37,37,37,37,37,34,37,37,37,37,37,37,37,37,37,37,37,37,37,37,37,37,37,37,
37,37,37,37,37,34,37,37,37,37,37,34,37,37,37,37,37,37,37,37,37,37,37,37,37,37,37,37,35,37,37,34,37,37,37,37,37,37,37,37,
37,37,37,37,34,35,37,37,37,37,37,37,37,37,37,37,37,37,37,37,37,37,37,37,37,37,37,37,37,37,34,37,37,37,37,37,37,37,37,37,
37,37,37,37,37,37,37,37,37,37,37,37,37,37,37,37,37,37,37,37,37,37,37,37,37,37,37,37,37,37,37,37,37,34,37,37,37,37,37,37,
37,37,37,37,37,37,37,37,37,37,37,37,37,37,37,37,37,37,37,37,37,37,37,37,37,37,35,37,37,37,37,37,37,37,37,37,37,37,37,37,
37,34,37,37,37,37,37,37,37,37,37,37,37,37,37,37,37,37,37,37,37,37,37,37,37,37,37,37,37,37,37,37,35,37,37,37,34,37,37,37,
37,37,37,37,37,37,37,37,37,37,37,37,37,37,37,37,37,37,37,37,37,37,37,37,37,37,37,35,37,37,37,37,37,37,37,37,37,37,37,37,
37,34,37,34,37,37,37,37,37,37,37,37,34,37,37,34,37,37,37,37,37,37,35,37,37,34,37,37,37,37,37,37,37,37,37,37,37,37,37,37,
37,37,37,34,37,37,35,37,37,37,37,37,37,37,37,37,37,37,37,37,37,37,37,37,37,37,37,37,37,37,37,37,37,35,37,37,37,37,37,37,
37,37,37,37,37,37,37,35,37,37,37,37,37,37,37,37,37,34,37,37,37,37,37,34,37,37,37,37,37,37,37,37,37,37,37,37,37,37,37,37,
37,37,37,37,37,37,37,37,37,37,37,37,37,37,37,37,37,37,37,37,37,37,37,37,35,37,37,37,37,37,37,37,37,37,37,37,37,37,34,37,
37,34,37,37,37,37,37,37,37,37,37,37,37,37,37,37,37,37,37,37,37,37,37,35,37,37,37,37,34,37,37,37,37,37,37,37,37,37,37,37,
37,37,37,37,37,37,37,37,37,37,37,35,37,37,37,37,37,37,37,35,37,37,37,37,37,37,37,37,37,37,37,37,37,37,37,37,37,37,37,37,
37,37,37,37,37,37,37,37,37,37,37,37,37,37,37,34,37,37,37,37,37,37,37,37,37,37,37,37,37,37,37,37,37,37,37,34,37,37,37,37,
37,37,37,37,37,34,37,37,37,37,37,37,37,37,37,37,37,37,37,37,37,35,37,37,37,37,37,37,37,35,37,35,37,37,37,37,37,37,37,35,
37,37,37,37,37,37,37,37,37,34,37,37,37,37,37,37,37,37,37,37,37,37,37,37,37,37,37,37,37,37,37,37,37,37,37,37,37,37,37,37,
37,37,37,37,37,37,37,37,37,34,37,37,37,37,37,37,37,34,37,37,37,37,37,37,37,37,37,37,37,37,37,37,37,37,37,37,37,37,37,37,
37,37,37,37,37,37,37,37,37,37,37,37,37,37,34,37,37,37,37,37,37,37,37,37,37,35,37,35,37,37,37,37,34,37,37,37,37,37,37,37,
37,37,37,37,37,37,37,37,37,37,37,37,37,37,37,37,37,37,37,37,37,37,37,37,37,37,37,37,37,37,34,37,37,37,37,34,37,34,37,37,
37,37,37,37,34,37,37,37,37,35,37,37,37,37,37,37,37,37,37,37,37,37,37,37,37,37,37,37,37,37,37,37,37,37,37,37,37,37,37,37,
37,35,37,37,37,35,37,37,37,37,37,37,37,37,37,37,37,37,37,34,37,37,37,37,37,37,37,37,37,37,37,34,37,37,37,37,37,37,37,37,
37,35,37,37,37,37,37,37,37,37,37,37,37,37,37,37,37,37,34,37,37,37,37,37,37,37,37,37,37,37,37,37,37,37,37,37,37,37,37,37,
37,37,37,37,34,37,37,37,37,37,37,37,37,37,37,37,37,34,37,37,37,37,37,37,37,37,37,37,37,37,34,37,37,37,37,37,37,37,37,37,
37,37,37,37,37,35,35,37,37,37,37,37,37,37,37,37,37,37,37,37,37,37,37,37,37,37,37,37,37,37,37,37,37,37,37,37,37,35,37,37,
37,37,37,37,37,37,37,37,37,37,37,37,37,37,37,35,34,37,37,37,37,37,37,37,37,37,37,37,37,34,37,37,34,37,37,37,37,37,37,37,
37,37,37,37,37,37,37,37,37,37,37,37,37,34,37,37,37,37,34,37,37,37,37,37,37,34,37,37,37,37,37,37,37,37,37,37,37,37,37,37,
37,37,37,35,37,37,37,37,37,37,37,37,37,37,37,37,37,37,37,37,37,37,37,37,37,35,37,37,37,37,37,37,37,37,37,34,37,37,37,37,
37,37,37,37,37,37,37,37,37,37,37,37,37,37,37,37,37,37,37,37,37,37,37,37,37,37,37,37,37,37,37,37,37,37,37,37,37,37,37,37,
37,37,37,37,37,37,37,37,37,37,37,37,37,37,37,37,37,37,37,37,37,37,37,37,37,37,37,37,37,37,37,37,37,37,37,37,37,37,37,37,
37,35,37,37,37,34,37,37,37,37,37,37,37,37,37,37,35,37,37,37,37,37,37,37,37,37,37,37,37,37,37,37,37,37,37,37,37,37,37,37,
37,37,37,37,37,37,37,37,37,37,37,37,37,37,37,37,37,37,37,37,37,37,37,37,37,37,37,37,37,37,37,37,37,35,37,37,37,37,37,37,
37,37,34,37,37,37,37,37,37,37,37,35,37,37,37,34,37,37,37,37,37,37,37,37,37,37,37,37,37,37,37,35,37,37,37,37,37,37,37,37,
37,37,37,37,37,37,37,37,37,37,37,37,37,37,34,37,37,37,37,35,37,34,37,37,37,37,35,37,37,37,37,37,37,37,37,37,37,37,37,34,
37,37,37,37,37,37,37,37,37,37,37,37,37,37,37,37,37,37,37,37,37,37,37,37,37,37,37,35,37,37,37,37,37,37,37,37,37,37,37,37,
37,37,37,34,37,37,34,37,37,37,37,37,37,37,37,37,37,37,35,34,37,37,37,37,37,37,37,37,37,37,37,34,37,37,37,37,37,37,37,37,
37,37,37,37,37,37,37,34,37,34,34,37,34,37,37,37,37,37,37,37,37,37,37,37,37,37,37,37,37,37,37,37,37,37,37,37,37,37,37,37
</data>
 </layer>
 <layer id="2" name="Terrain" width="40" height="44">
  <data encoding="csv">
0,0,0,0,0,0,0,0,0,0,0,0,0,0,0,0,0,0,0,194,194,194,0,0,0,0,0,0,0,0,0,0,0,0,0,0,0,0,0,0,
0,0,0,0,0,0,0,0,0,0,0,0,0,0,0,0,0,0,0,194,194,194,0,0,0,0,0,0,0,0,0,0,0,0,0,0,0,0,0,0,
0,0,0,0,0,0,0,0,0,0,0,0,0,0,0,0,0,0,0,194,194,194,0,0,0,0,0,0,0,0,0,0,0,0,0,0,0,0,0,0,
0,0,0,0,0,0,0,0,0,0,0,0,0,0,0,0,0,0,0,194,194,194,0,0,0,0,0,0,0,0,0,0,0,0,0,0,0,0,0,0,
0,0,0,0,0,0,0,0,0,0,0,0,0,0,0,0,0,0,0,194,194,194,0,0,0,0,0,0,0,0,0,0,0,0,0,0,0,0,0,0,
0,0,0,0,0,0,0,0,0,0,0,0,0,0,0,0,0,0,0,194,194,194,0,0,0,0,0,0,0,0,0,0,0,0,0,0,0,0,0,0,
0,0,0,0,0,0,0,0,0,0,0,0,0,0,0,0,0,0,0,194,194,194,0,0,0,0,0,0,0,0,0,0,0,0,0,0,0,0,0,0,
0,0,0,0,0,0,0,0,0,0,0,0,0,0,0,0,0,0,0,194,194,194,0,0,0,0,0,0,0,0,0,0,0,0,0,0,0,0,0,0,
0,0,0,0,0,0,0,0,0,0,0,0,0,0,0,0,0,0,0,0,194,194,194,0,0,0,0,0,0,0,0,0,0,0,0,0,0,0,0,0,
0,0,0,0,0,0,0,0,0,0,0,0,0,0,0,0,0,0,0,0,194,194,194,0,0,0,0,0,0,0,0,0,0,0,0,0,0,0,0,0,
0,0,0,0,0,0,0,0,0,0,0,0,0,0,0,0,0,0,0,0,0,194,194,194,0,0,0,0,0,0,0,0,0,0,0,0,0,0,0,0,
0,0,0,0,0,0,0,0,0,0,0,0,0,0,0,0,0,0,0,0,0,194,194,194,0,0,0,0,0,0,0,0,0,0,0,0,0,0,0,0,
0,0,0,0,0,0,0,0,0,0,0,0,0,0,0,0,0,0,0,0,0,0,194,194,194,0,0,0,0,0,0,0,0,0,0,0,0,0,0,0,
0,0,0,0,0,0,0,0,0,0,0,0,0,0,0,0,0,0,0,0,0,194,194,194,0,0,0,0,0,0,0,0,0,0,0,0,0,0,0,0,
0,0,0,0,0,0,0,0,0,0,0,194,194,0,0,0,0,0,0,0,194,194,194,0,0,0,0,0,0,0,0,0,0,0,0,0,0,0,0,0,
0,0,0,0,0,0,0,0,0,194,194,0,0,194,194,0,0,0,0,0,194,194,194,0,0,0,0,0,0,0,0,0,0,0,0,0,0,0,0,0,
0,0,0,0,0,0,0,194,194,0,0,0,0,0,0,194,0,0,0,194,194,194,0,0,0,0,0,0,0,0,0,0,0,0,0,0,0,0,0,0,
0,0,0,0,0,194,194,0,0,0,0,0,0,0,0,0,194,194,194,194,194,0,0,0,0,0,0,0,0,0,0,0,0,0,0,0,0,0,0,0,
0,0,0,0,0,194,0,0,0,0,0,0,0,0,0,0,0,194,194,194,0,0,0,0,0,0,0,0,0,0,0,0,0,0,0,0,0,0,0,0,
0,0,0,0,0,194,0,0,0,0,0,0,0,0,0,0,0,0,194,194,194,0,0,0,0,0,0,0,0,0,0,0,0,0,0,0,0,0,0,0,
0,0,0,0,0,194,0,0,0,0,0,0,0,0,0,0,0,0,194,194,194,0,0,0,0,0,0,0,0,0,0,0,0,0,0,0,0,0,0,0,
0,0,0,0,0,0,194,0,0,0,0,0,0,0,0,0,0,0,0,194,194,194,0,0,0,0,0,0,0,0,0,0,0,0,0,0,0,0,0,0,
0,0,0,0,0,0,194,0,0,0,0,0,0,0,0,0,0,0,0,194,194,194,0,0,0,0,0,0,0,0,0,0,0,0,0,0,0,0,0,0,
0,0,0,0,0,0,194,0,0,0,0,0,0,0,0,0,0,0,0,0,194,194,194,0,0,0,0,0,0,0,0,0,0,0,0,0,0,0,0,0,
0,0,0,0,0,0,0,194,0,0,0,0,0,0,0,0,0,0,0,194,194,194,0,0,0,0,0,0,0,0,0,0,0,0,0,0,0,0,0,0,
0,0,0,0,0,0,0,0,194,0,0,0,0,0,0,0,0,0,194,194,194,0,0,0,0,0,0,0,0,0,0,0,0,0,0,0,0,0,0,0,
0,0,0,0,0,0,0,0,0,194,0,0,0,0,0,0,0,0,194,194,194,0,0,0,0,0,0,0,0,0,0,0,0,0,0,0,0,0,0,0,
0,0,0,0,0,0,0,0,0,0,194,0,0,0,0,0,0,194,194,194,0,0,0,0,0,0,0,0,0,0,0,0,0,0,0,0,0,0,0,0,
0,0,0,0,0,0,0,0,0,0,0,194,0,0,0,0,194,194,194,0,0,0,0,0,0,0,0,0,0,0,0,0,0,0,0,0,0,0,0,0,
0,0,0,0,0,0,0,0,0,0,0,0,194,194,0,194,194,194,0,0,0,0,0,0,0,0,0,0,0,0,0,0,0,0,0,0,0,0,0,0,
0,0,0,0,0,0,0,0,0,0,0,0,0,0,194,194,194,194,0,0,0,0,0,0,0,0,0,0,0,0,0,0,0,0,0,0,0,0,0,0,
0,0,0,0,0,0,0,0,0,0,0,0,0,0,194,194,194,0,0,0,0,0,0,0,0,0,0,0,0,0,0,0,0,0,0,0,0,0,0,0,
0,0,0,0,0,0,0,0,0,0,0,0,0,0,0,194,194,194,0,0,0,0,0,0,0,0,0,0,0,0,0,0,0,0,0,0,0,0,0,0,
0,0,0,0,0,0,0,0,0,0,0,0,0,0,0,194,194,194,0,0,0,0,0,0,0,0,0,0,0,0,0,0,0,0,0,0,0,0,0,0,
0,0,0,0,0,0,0,0,0,0,0,0,0,0,0,0,194,194,194,0,0,0,0,0,0,0,0,0,0,0,0,0,0,0,0,0,0,0,0,0,
0,0,0,0,0,0,0,0,0,0,0,0,0,0,0,0,0,194,194,194,0,0,0,0,0,0,0,0,0,0,0,0,0,0,0,0,0,0,0,0,
0,0,0,0,0,0,0,0,0,0,0,0,0,0,0,0,0,194,194,194,0,0,0,0,0,0,0,0,0,0,0,0,0,0,0,0,0,0,0,0,
0,0,0,0,0,0,0,0,0,0,0,0,0,0,0,0,0,0,194,194,194,0,0,0,0,0,0,0,0,0,0,0,0,0,0,0,0,0,0,0,
0,0,0,0,0,0,0,0,0,0,0,0,0,0,0,0,0,0,194,194,194,0,0,0,0,0,0,0,0,0,0,0,0,0,0,0,0,0,0,0,
0,0,0,0,0,0,0,0,0,0,0,0,0,0,0,0,0,0,194,194,194,0,0,0,0,0,0,0,0,0,0,0,0,0,0,0,0,0,0,0,
0,0,0,0,0,0,0,0,0,0,0,0,0,0,0,0,0,0,194,194,194,0,0,0,0,0,0,0,0,0,0,0,0,0,0,0,0,0,0,0,
0,0,0,0,0,0,0,0,0,0,0,0,0,0,0,0,0,0,0,194,194,194,0,0,0,0,0,0,0,0,0,0,0,0,0,0,0,0,0,0,
0,0,0,0,0,0,0,0,0,0,0,0,0,0,0,0,0,0,0,194,194,194,0,0,0,0,0,0,0,0,0,0,0,0,0,0,0,0,0,0,
0,0,0,0,0,0,0,0,0,0,0,0,0,0,0,0,0,0,0,194,194,194,0,0,0,0,0,0,0,0,0,0,0,0,0,0,0,0,0,0
</data>
 </layer>
 <layer id="3" name="Objects" width="40" height="44">
  <data encoding="csv">
0,0,0,0,0,0,0,0,0,0,0,0,0,0,0,0,0,0,0,0,0,0,0,0,0,0,0,0,0,0,0,0,0,0,0,0,0,0,0,0,
48,48,48,48,0,48,48,0,48,0,0,0,0,48,0,0,48,0,48,0,0,0,0,48,0,0,0,0,0,0,48,48,0,0,0,48,48,0,0,48,
48,0,0,48,48,48,48,0,0,48,48,0,0,0,0,0,48,0,48,0,0,0,0,48,48,0,48,0,0,48,0,0,48,0,48,0,0,0,0,48,
48,48,48,48,48,48,48,48,0,0,48,0,0,0,48,0,0,0,0,0,0,0,48,0,0,0,0,48,48,48,48,48,48,0,48,48,48,48,0,48,
48,0,48,48,0,48,48,48,0,48,48,48,48,48,0,0,0,0,0,0,0,0,0,0,0,0,0,48,0,48,0,0,48,48,48,0,0,48,48,48,
48,48,48,48,48,0,0,48,48,0,48,0,48,0,0,0,0,0,0,0,0,0,0,0,0,0,0,0,0,48,48,48,48,48,0,48,48,0,0,48,
48,48,48,48,48,48,48,48,0,48,48,48,48,0,0,0,0,0,0,0,0,0,0,0,0,477,0,0,48,0,0,0,0,0,48,0,48,48,48,48,
48,48,48,48,48,48,48,48,48,0,48,48,48,48,0,0,0,0,0,0,0,0,0,0,0,0,0,48,48,48,48,48,0,0,0,48,48,48,48,48,
48,48,48,48,0,48,48,0,0,0,0,0,0,0,0,0,0,0,0,0,0,0,0,0,0,0,0,48,48,48,48,0,0,48,0,0,0,48,48,48,
48,0,48,0,48,0,0,48,0,48,0,48,48,0,0,0,0,0,0,0,0,0,0,0,0,0,0,48,0,0,48,48,48,48,0,48,48,48,48,48,
48,48,48,48,0,48,0,0,48,0,48,48,48,48,0,0,0,0,0,0,0,0,0,0,0,0,0,48,48,0,48,0,0,48,48,48,48,0,48,48,
48,48,48,0,48,48,0,48,0,0,48,0,0,48,0,0,0,0,0,0,0,0,0,0,0,0,0,48,48,48,0,48,48,48,0,0,48,48,48,48,
48,48,48,0,0,0,48,48,0,0,48,0,48,48,0,0,0,0,0,0,0,0,0,0,0,0,0,48,48,0,48,48,48,48,48,0,0,0,48,48,
48,48,48,48,48,48,48,48,48,48,48,48,48,48,0,0,0,0,0,0,0,0,0,0,0,0,0,48,48,48,48,48,48,48,48,0,0,48,48,48,
48,0,48,48,0,48,48,0,48,48,0,0,0,48,0,0,0,0,0,0,0,0,0,0,0,0,0,0,0,48,48,48,48,48,0,48,0,48,48,48,
48,48,48,48,48,48,48,0,0,0,0,0,0,0,0,0,0,0,0,0,0,0,0,0,0,0,0,48,0,0,0,48,0,48,0,48,48,48,48,48,
48,0,0,0,0,48,0,0,0,0,0,48,48,0,0,0,0,0,0,0,0,0,0,0,0,0,0,48,48,48,0,0,48,48,48,48,48,48,48,48,
48,48,48,48,0,0,0,48,48,48,48,48,48,48,0,0,0,0,0,0,0,0,0,0,0,0,0,0,48,0,0,0,0,0,0,48,48,48,0,48,
48,48,48,48,0,0,48,48,48,48,48,477,48,48,0,0,0,0,0,0,0,0,0,0,0,0,0,0,48,48,0,0,48,48,48,48,48,48,0,48,
48,0,0,0,0,0,0,48,48,48,48,48,48,48,0,0,0,0,0,0,0,0,0,0,0,0,0,0,48,48,48,48,0,48,48,48,48,48,48,48,
48,48,0,48,48,0,0,48,48,0,0,48,48,48,0,0,0,0,0,0,0,0,0,0,0,0,0,0,48,48,48,0,48,48,48,48,48,48,48,48,
48,48,48,0,48,48,0,48,48,0,0,0,48,0,0,0,0,0,0,0,0,0,0,51,0,0,0,0,48,48,0,48,0,48,48,48,0,48,48,48,
48,48,0,48,0,0,0,48,0,48,48,48,48,0,0,0,0,0,0,0,0,0,0,0,0,0,0,0,0,0,48,48,48,0,48,0,48,0,48,48,
48,48,48,48,48,48,0,48,48,48,48,48,0,48,0,0,0,0,0,0,0,0,0,0,0,51,0,0,0,48,48,0,48,48,0,0,48,48,48,48,
48,48,48,48,48,48,48,0,0,48,48,48,48,48,0,0,0,0,0,0,476,0,0,0,0,0,0,0,0,48,0,48,48,48,0,0,0,48,48,48,
48,48,48,48,48,48,0,48,0,48,48,48,0,48,0,0,0,0,0,0,0,0,0,0,0,0,0,0,48,0,0,48,0,48,0,48,48,48,48,48,
48,0,48,0,48,0,48,0,48,0,48,48,0,48,0,0,0,0,0,0,0,0,0,51,0,0,0,0,48,48,48,48,48,48,0,0,48,48,48,48,
48,48,0,0,48,48,48,0,48,48,0,48,48,0,0,0,0,0,0,0,0,0,0,0,0,0,0,0,0,48,0,48,48,48,48,48,48,48,48,48,
48,48,48,48,48,0,48,48,0,48,48,0,0,0,0,0,0,0,0,0,0,0,0,0,0,0,0,48,0,0,48,0,48,48,48,48,0,48,48,48,
48,48,0,48,0,0,0,0,48,48,48,0,0,0,0,0,0,0,0,0,0,0,0,0,0,0,0,48,0,0,48,48,48,0,48,0,48,48,48,48,
48,48,48,48,48,48,0,48,0,0,0,48,0,48,0,0,0,0,0,0,0,0,0,0,0,0,0,0,48,48,48,48,0,48,0,48,48,48,0,48,
48,48,48,48,0,0,0,0,0,48,48,48,48,371,0,0,0,0,0,0,0,0,0,0,0,0,0,48,48,48,0,48,48,48,48,0,48,48,48,48,
48,48,48,0,48,48,48,0,48,0,48,48,48,48,0,0,0,0,0,0,0,0,0,0,0,0,0,48,48,0,0,48,0,48,48,48,48,48,48,48,
48,48,48,48,0,0,0,0,0,0,48,0,0,0,0,0,0,0,0,0,0,0,0,0,0,0,0,48,48,0,0,48,48,0,48,48,48,48,0,48,
48,48,48,48,48,48,48,48,48,48,0,48,0,0,0,0,0,0,0,0,0,0,0,0,0,0,0,48,48,48,48,0,0,48,48,0,48,48,48,48,
48,48,48,0,48,48,0,48,48,0,48,48,0,0,0,0,0,0,0,0,0,0,0,0,0,0,0,0,48,48,0,48,48,48,0,48,48,0,48,48,
48,48,48,48,48,48,0,48,0,48,48,48,48,48,0,0,0,0,0,0,0,0,0,0,0,0,0,0,48,0,0,48,48,48,48,48,48,0,48,48,
48,48,0,0,0,48,48,0,48,48,0,48,0,0,0,0,0,0,0,0,0,0,0,0,0,0,0,48,0,48,48,48,48,48,48,0,48,48,48,48,
48,48,48,48,48,48,48,48,48,48,0,48,0,0,0,0,0,0,0,0,0,0,0,0,0,0,0,0,0,0,48,48,48,48,0,0,48,0,0,48,
48,48,48,48,0,48,0,48,48,48,48,0,48,48,0,0,0,0,0,0,0,0,0,0,0,0,0,48,48,0,48,0,48,0,0,0,0,0,48,48,
48,48,48,48,48,48,48,48,48,48,48,48,48,0,0,0,0,48,0,0,0,0,0,0,0,0,48,48,48,48,48,0,48,48,48,48,48,48,48,48,
48,48,48,48,48,0,0,0,0,48,48,0,48,0,48,0,0,0,0,0,0,0,0,0,48,48,0,48,48,48,48,48,0,0,48,48,0,48,48,48,
48,48,48,48,48,0,48,48,48,48,48,48,48,48,0,0,48,0,0,0,0,0,48,48,48,0,0,48,0,48,0,48,48,48,48,0,0,48,0,48,
48,48,48,48,48,48,48,48,48,48,48,48,48,48,48,48,48,48,48,0,0,0,48,48,48,48,48,48,48,48,48,48,48,48,48,48,48,48,48,48
</data>
 </layer>
 <layer id="4" name="Above Player" width="40" height="44">
  <data encoding="csv">
16,16,16,16,0,16,16,0,16,0,0,0,0,16,0,0,16,0,16,0,0,0,0,16,0,0,0,0,0,0,16,16,0,0,0,16,16,0,0,16,
16,0,0,16,16,16,16,0,0,16,16,0,0,0,0,0,16,0,16,0,0,0,0,16,16,0,16,0,0,16,0,0,16,0,16,0,0,0,0,16,
16,16,16,16,16,16,16,16,0,0,16,0,0,0,16,0,0,0,0,0,0,0,16,0,0,0,0,16,16,16,16,16,16,0,16,16,16,16,0,16,
16,0,16,16,0,16,16,16,0,16,16,16,16,16,0,0,0,0,0,0,0,0,0,0,0,0,0,16,0,16,0,0,16,16,16,0,0,16,16,16,
16,16,16,16,16,0,0,16,16,0,16,0,16,0,0,0,0,0,0,0,0,0,0,0,0,0,0,0,0,16,16,16,16,16,0,16,16,0,0,16,
16,16,16,16,16,16,16,16,0,16,16,16,16,0,0,0,0,0,0,0,0,0,0,0,0,0,0,0,16,0,0,0,0,0,16,0,16,16,16,16,
16,16,16,16,16,16,16,16,16,0,16,16,16,16,0,0,0,0,0,0,0,0,0,0,0,0,0,16,16,16,16,16,0,0,0,16,16,16,16,16,
16,16,16,16,0,16,16,0,0,0,0,0,0,0,0,0,0,0,0,0,0,0,0,0,0,0,0,16,16,16,16,0,0,16,0,0,0,16,16,16,
16,0,16,0,16,0,0,16,0,16,0,16,16,0,0,0,0,0,0,0,0,0,0,0,0,0,0,16,0,0,16,16,16,16,0,16,16,16,16,16,
16,16,16,16,0,16,0,0,16,0,16,16,16,16,0,0,0,0,0,0,0,0,0,0,0,0,0,16,16,0,16,0,0,16,16,16,16,0,16,16,
16,16,16,0,16,16,0,16,0,0,16,0,0,16,0,0,0,0,0,0,0,0,0,0,0,0,0,16,16,16,0,16,16,16,0,0,16,16,16,16,
16,16,16,0,0,0,16,16,0,0,16,0,16,16,0,0,0,0,0,0,0,0,0,0,0,0,0,16,16,0,16,16,16,16,16,0,0,0,16,16,
16,16,16,16,16,16,16,16,16,16,16,16,16,16,0,0,0,0,0,0,0,0,0,0,0,0,0,16,16,16,16,16,16,16,16,0,0,16,16,16,
16,0,16,16,0,16,16,0,16,16,0,0,0,16,0,0,0,0,0,0,0,0,0,0,0,0,0,0,0,16,16,16,16,16,0,16,0,16,16,16,
16,16,16,16,16,16,16,0,0,0,0,0,0,0,0,0,0,0,0,0,0,0,0,0,0,0,0,16,0,0,0,16,0,16,0,16,16,16,16,16,
16,0,0,0,0,16,0,0,0,0,0,16,16,0,0,0,0,0,0,0,0,0,0,0,0,0,0,16,16,16,0,0,16,16,16,16,16,16,16,16,
16,16,16,16,0,0,0,16,16,16,16,16,16,16,0,0,0,0,0,0,0,0,0,0,0,0,0,0,16,0,0,0,0,0,0,16,16,16,0,16,
16,16,16,16,0,0,16,16,16,16,16,0,16,16,0,0,0,0,0,0,0,0,0,0,0,0,0,0,16,16,0,0,16,16,16,16,16,16,0,16,
16,0,0,0,0,0,0,16,16,16,16,16,16,16,0,0,0,0,0,0,0,0,0,0,0,0,0,0,16,16,16,16,0,16,16,16,16,16,16,16,
16,16,0,16,16,0,0,16,16,0,0,16,16,16,0,0,0,0,0,0,0,0,0,0,0,0,0,0,16,16,16,0,16,16,16,16,16,16,16,16,
16,16,16,0,16,16,0,16,16,0,0,0,16,0,0,0,0,0,0,0,0,0,0,0,0,0,0,0,16,16,0,16,0,16,16,16,0,16,16,16,
16,16,0,16,0,0,0,16,0,16,16,16,16,0,0,0,0,0,0,0,0,0,0,0,0,0,0,0,0,0,16,16,16,0,16,0,16,0,16,16,
16,16,16,16,16,16,0,16,16,16,16,16,0,16,0,0,0,0,0,0,0,0,0,0,0,0,0,0,0,16,16,0,16,16,0,0,16,16,16,16,
16,16,16,16,16,16,16,0,0,16,16,16,16,16,0,0,0,0,0,0,0,0,0,0,0,0,0,0,0,16,0,16,16,16,0,0,0,16,16,16,
16,16,16,16,16,16,0,16,0,16,16,16,0,16,0,0,0,0,0,0,0,0,0,0,0,0,0,0,16,0,0,16,0,16,0,16,16,16,16,16,
16,0,16,0,16,0,16,0,16,0,16,16,0,16,0,0,0,0,0,0,0,0,0,0,0,0,0,0,16,16,16,16,16,16,0,0,16,16,16,16,
16,16,0,0,16,16,16,0,16,16,0,16,16,0,0,0,0,0,0,0,0,0,0,0,0,0,0,0,0,16,0,16,16,16,16,16,16,16,16,16,
16,16,16,16,16,0,16,16,0,16,16,0,0,0,0,0,0,0,0,0,0,0,0,0,0,0,0,16,0,0,16,0,16,16,16,16,0,16,16,16,
16,16,0,16,0,0,0,0,16,16,16,0,0,0,0,0,0,0,0,0,0,0,0,0,0,0,0,16,0,0,16,16,16,0,16,0,16,16,16,16,
16,16,16,16,16,16,0,16,0,0,0,16,0,307,0,0,0,0,0,0,0,0,0,0,0,0,0,0,16,16,16,16,0,16,0,16,16,16,0,16,
16,16,16,16,0,0,0,0,0,16,16,16,16,339,0,0,0,0,0,0,0,0,0,0,0,0,0,16,16,16,0,16,16,16,16,0,16,16,16,16,
16,16,16,0,16,16,16,0,16,0,16,16,16,16,0,0,0,0,0,0,0,0,0,0,0,0,0,16,16,0,0,16,0,16,16,16,16,16,16,16,
16,16,16,16,0,0,0,0,0,0,16,0,0,0,0,0,0,0,0,0,0,0,0,0,0,0,0,16,16,0,0,16,16,0,16,16,16,16,0,16,
16,16,16,16,16,16,16,16,16,16,0,16,0,0,0,0,0,0,0,0,0,0,0,0,0,0,0,16,16,16,16,0,0,16,16,0,16,16,16,16,
16,16,16,0,16,16,0,16,16,0,16,16,0,0,0,0,0,0,0,0,0,0,0,0,0,0,0,0,16,16,0,16,16,16,0,16,16,0,16,16,
16,16,16,16,16,16,0,16,0,16,16,16,16,16,0,0,0,0,0,0,0,0,0,0,0,0,0,0,16,0,0,16,16,16,16,16,16,0,16,16,
16,16,0,0,0,16,16,0,16,16,0,16,0,0,0,0,0,0,0,0,0,0,0,0,0,0,0,16,0,16,16,16,16,16,16,0,16,16,16,16,
16,16,16,16,16,16,16,16,16,16,0,16,0,0,0,0,0,0,0,0,0,0,0,0,0,0,0,0,0,0,16,16,16,16,0,0,16,0,0,16,
16,16,16,16,0,16,0,16,16,16,16,0,16,16,0,0,0,0,0,0,0,0,0,0,0,0,0,16,16,0,16,0,16,0,0,0,0,0,16,16,
16,16,16,16,16,16,16,16,16,16,16,16,16,0,0,0,0,16,0,0,0,0,0,0,0,0,16,16,16,16,16,0,16,16,16,16,16,16,16,16,
16,16,16,16,16,0,0,0,0,16,16,0,16,0,16,0,0,0,0,0,0,0,0,0,16,16,0,16,16,16,16,16,0,0,16,16,0,16,16,16,
16,16,16,16,16,0,16,16,16,16,16,16,16,16,0,0,16,0,0,0,0,0,16,16,16,0,0,16,0,16,0,16,16,16,16,0,0,16,0,16,
16,16,16,16,16,16,16,16,16,16,16,16,16,16,16,16,16,16,16,0,0,0,16,16,16,16,16,16,16,16,16,16,16,16,16,16,16,16,16,16,
0,0,0,0,0,0,0,0,0,0,0,0,0,0,0,0,0,0,0,0,0,0,0,0,0,0,0,0,0,0,0,0,0,0,0,0,0,0,0,0
</data>
 </layer>
 <objectgroup id="5" name="Collisions" color="#ff0000">
  <object id="1" type="collision" x="0" y="16" width="64" height="16" />
  <object id="2" type="collision" x="80" y="16" width="32" height="64" />
  <object id="3" type="collision" x="128" y="16" width="16" height="16" />
  <object id="4" type="collision" x="208" y="16" width="16" height="16" />
  <object id="5" type="collision" x="256" y="16" width="16" height="32" />
  <object id="6" type="collision" x="288" y="16" width="16" height="32" />
  <object id="7" type="collision" x="368" y="16" width="16" height="32" />
  <object id="8" type="collision" x="480" y="16" width="32" height="16" />
  <object id="9" type="collision" x="560" y="16" width="32" height="16" />
  <object id="10" type="collision" x="624" y="16" width="16" height="688" />
  <object id="11" type="collision" x="0" y="32" width="16" height="672" />
  <object id="12" type="collision" x="48" y="32" width="32" height="32" />
  <object id="13" type="collision" x="144" y="32" width="32" height="16" />
  <object id="14" type="collision" x="384" y="32" width="16" height="16" />
  <object id="15" type="collision" x="416" y="32" width="16" height="16" />
  <object id="16" type="collision" x="464" y="32" width="16" height="64" />
  <object id="17" type="collision" x="512" y="32" width="16" height="64" />
  <object id="18" type="collision" x="544" y="32" width="16" height="48" />
  <object id="19" type="collision" x="16" y="48" width="32" height="16" />
  <object id="20" type="collision" x="112" y="48" width="16" height="80" />
  <object id="21" type="collision" x="160" y="48" width="16" height="80" />
  <object id="22" type="collision" x="224" y="48" width="16" height="16" />
  <object id="23" type="collision" x="352" y="48" width="16" height="16" />
  <object id="24" type="collision" x="432" y="48" width="32" height="16" />
  <object id="25" type="collision" x="480" y="48" width="32" height="16" />
  <object id="26" type="collision" x="560" y="48" width="48" height="16" />
  <object id="27" type="collision" x="32" y="64" width="32" height="80" />
  <object id="28" type="collision" x="144" y="64" width="16" height="16" />
  <object id="29" type="collision" x="176" y="64" width="48" height="16" />
  <object id="30" type="collision" x="432" y="64" width="16" height="16" />
  <object id="31" type="collision" x="528" y="64" width="16" height="32" />
  <object id="32" type="collision" x="592" y="64" width="32" height="16" />
  <object id="33" type="collision" x="16" y="80" width="16" height="64" />
  <object id="34" type="collision" x="64" y="80" width="16" height="48" />
  <object id="35" type="collision" x="128" y="80" width="16" height="16" />
  <object id="36" type="collision" x="192" y="80" width="16" height="48" />
  <object id="37" type="collision" x="480" y="80" width="32" height="16" />
  <object id="38" type="collision" x="560" y="80" width="32" height="16" />
  <object id="39" type="collision" x="80" y="96" width="32" height="48" />
  <object id="40" type="collision" x="144" y="96" width="16" height="16" />
  <object id="41" type="collision" x="176" y="96" width="16" height="32" />
  <object id="42" type="collision" x="448" y="96" width="16" height="48" />
  <object id="43" type="collision" x="544" y="96" width="16" height="16" />
  <object id="44" type="collision" x="576" y="96" width="48" height="32" />
  <object id="45" type="collision" x="128" y="112" width="16" height="16" />
  <object id="46" type="collision" x="208" y="112" width="16" height="16" />
  <object id="47" type="collision" x="432" y="112" width="16" height="112" />
  <object id="48" type="collision" x="464" y="112" width="48" height="16" />
  <object id="49" type="collision" x="560" y="112" width="16" height="16" />
  <object id="50" type="collision" x="464" y="128" width="32" height="16" />
  <object id="51" type="collision" x="528" y="128" width="16" height="144" />
  <object id="52" type="collision" x="592" y="128" width="32" height="32" />
  <object id="53" type="collision" x="32" y="144" width="16" height="112" />
  <object id="54" type="collision" x="64" y="144" width="16" height="16" />
  <object id="55" type="collision" x="112" y="144" width="16" height="16" />
  <object id="56" type="collision" x="144" y="144" width="16" height="16" />
  <object id="57" type="collision" x="176" y="144" width="32" height="32" />
  <object id="58" type="collision" x="480" y="144" width="48" height="16" />
  <object id="59" type="collision" x="560" y="144" width="32" height="32" />
  <object id="60" type="collision" x="16" y="160" width="16" height="64" />
  <object id="61" type="collision" x="48" y="160" width="16" height="16" />
  <object id="62" type="collision" x="80" y="160" width="16" height="32" />
  <object id="63" type="collision" x="128" y="160" width="16" height="16" />
  <object id="64" type="collision" x="160" y="160" width="16" height="64" />
  <object id="65" type="collision" x="208" y="160" width="16" height="80" />
  <object id="66" type="collision" x="448" y="160" width="16" height="64" />
  <object id="67" type="collision" x="480" y="160" width="16" height="16" />
  <object id="68" type="collision" x="544" y="160" width="16" height="16" />
  <object id="69" type="collision" x="608" y="160" width="16" height="112" />
  <object id="70" type="collision" x="64" y="176" width="16" height="16" />
  <object id="71" type="collision" x="112" y="176" width="16" height="48" />
  <object id="72" type="collision" x="464" y="176" width="16" height="16" />
  <object id="73" type="collision" x="496" y="176" width="32" height="64" />
  <object id="74" type="collision" x="576" y="176" width="32" height="16" />
  <object id="75" type="collision" x="96" y="192" width="16" height="64" />
  <object id="76" type="collision" x="192" y="192" width="16" height="32" />
  <object id="77" type="collision" x="480" y="192" width="16" height="48" />
  <object id="78" type="collision" x="544" y="192" width="16" height="32" />
  <object id="79" type="collision" x="48" y="208" width="48" height="16" />
  <object id="80" type="collision" x="128" y="208" width="32" height="32" />
  <object id="81" type="collision" x="176" y="208" width="16" height="16" />
  <object id="82" type="collision" x="464" y="208" width="16" height="32" />
  <object id="83" type="collision" x="592" y="208" width="16" height="144" />
  <object id="84" type="collision" x="48" y="224" width="16" height="32" />
  <object id="85" type="collision" x="80" y="224" width="16" height="48" />
  <object id="86" type="collision" x="560" y="224" width="16" height="128" />
  <object id="87" type="collision" x="16" y="240" width="16" height="16" />
  <object id="88" type="collision" x="64" y="240" width="16" height="16" />
  <object id="89" type="collision" x="432" y="240" width="16" height="32" />
  <object id="90" type="collision" x="496" y="240" width="16" height="16" />
  <object id="91" type="collision" x="576" y="240" width="16" height="96" />
  <object id="92" type="collision" x="176" y="256" width="32" height="32" />
  <object id="93" type="collision" x="448" y="256" width="32" height="16" />
  <object id="94" type="collision" x="512" y="256" width="16" height="16" />
  <object id="95" type="collision" x="544" y="256" width="16" height="16" />
  <object id="96" type="collision" x="16" y="272" width="48" height="32" />
  <object id="97" type="collision" x="112" y="272" width="64" height="48" />
  <object id="98" type="collision" x="208" y="272" width="16" height="64" />
  <object id="99" type="collision" x="448" y="272" width="16" height="80" />
  <object id="100" type="collision" x="96" y="288" width="16" height="16" />
  <object id="101" type="collision" x="192" y="288" width="16" height="80" />
  <object id="102" type="collision" x="464" y="288" width="16" height="64" />
  <object id="103" type="collision" x="512" y="288" width="48" height="16" />
  <object id="104" type="collision" x="176" y="304" width="16" height="32" />
  <object id="105" type="collision" x="480" y="304" width="32" height="16" />
  <object id="106" type="collision" x="528" y="304" width="32" height="48" />
  <object id="107" type="collision" x="608" y="304" width="16" height="176" />
  <object id="108" type="collision" x="16" y="320" width="16" height="96" />
  <object id="109" type="collision" x="48" y="320" width="32" height="16" />
  <object id="110" type="collision" x="112" y="320" width="32" height="32" />
  <object id="111" type="collision" x="480" y="320" width="16" height="16" />
  <object id="112" type="collision" x="512" y="320" width="16" height="16" />
  <object id="113" type="collision" x="32" y="336" width="16" height="16" />
  <object id="114" type="collision" x="64" y="336" width="32" height="16" />
  <object id="115" type="collision" x="368" y="336" width="16" height="16" />
  <object id="116" type="collision" x="496" y="336" width="16" height="32" />
  <object id="117" type="collision" x="48" y="352" width="16" height="64" />
  <object id="118" type="collision" x="112" y="352" width="16" height="32" />
  <object id="119" type="collision" x="144" y="352" width="48" height="64" />
  <object id="120" type="collision" x="480" y="352" width="16" height="32" />
  <object id="121" type="collision" x="512" y="352" width="16" height="48" />
  <object id="122" type="collision" x="544" y="352" width="16" height="16" />
  <object id="123" type="collision" x="576" y="352" width="16" height="32" />
  <object id="124" type="collision" x="32" y="368" width="16" height="64" />
  <object id="125" type="collision" x="64" y="368" width="32" height="48" />
  <object id="126" type="collision" x="128" y="368" width="16" height="16" />
  <object id="127" type="collision" x="208" y="368" width="16" height="64" />
  <object id="128" type="collision" x="400" y="368" width="16" height="16" />
  <object id="129" type="collision" x="464" y="368" width="16" height="32" />
  <object id="130" type="collision" x="528" y="368" width="16" height="96" />
  <object id="131" type="collision" x="592" y="368" width="16" height="192" />
  <object id="132" type="collision" x="96" y="384" width="16" height="16" />
  <object id="133" type="collision" x="192" y="384" width="16" height="16" />
  <object id="134" type="collision" x="496" y="384" width="16" height="64" />
  <object id="135" type="collision" x="112" y="400" width="16" height="16" />
  <object id="136" type="collision" x="448" y="400" width="16" height="32" />
  <object id="137" type="collision" x="560" y="400" width="32" height="16" />
  <object id="138" type="collision" x="64" y="416" width="16" height="48" />
  <object id="139" type="collision" x="96" y="416" width="16" height="48" />
  <object id="140" type="collision" x="128" y="416" width="16" height="32" />
  <object id="141" type="collision" x="160" y="416" width="32" height="16" />
  <object id="142" type="collision" x="368" y="416" width="16" height="16" />
  <object id="143" type="collision" x="464" y="416" width="32" height="16" />
  <object id="144" type="collision" x="512" y="416" width="16" height="64" />
  <object id="145" type="collision" x="576" y="416" width="16" height="32" />
  <object id="146" type="collision" x="16" y="432" width="16" height="272" />
  <object id="147" type="collision" x="80" y="432" width="16" height="16" />
  <object id="148" type="collision" x="144" y="432" width="16" height="48" />
  <object id="149" type="collision" x="176" y="432" width="32" height="16" />
  <object id="150" type="collision" x="464" y="432" width="16" height="16" />
  <object id="151" type="collision" x="544" y="432" width="32" height="32" />
  <object id="152" type="collision" x="32" y="448" width="32" height="16" />
  <object id="153" type="collision" x="112" y="448" width="16" height="16" />
  <object id="154" type="collision" x="160" y="448" width="16" height="32" />
  <object id="155" type="collision" x="432" y="448" width="16" height="32" />
  <object id="156" type="collision" x="480" y="448" width="16" height="48" />
  <object id="157" type="collision" x="48" y="464" width="16" height="48" />
  <object id="158" type="collision" x="128" y="464" width="16" height="16" />
  <object id="159" type="collision" x="496" y="464" width="16" height="80" />
  <object id="160" type="collision" x="544" y="464" width="16" height="16" />
  <object id="161" type="collision" x="576" y="464" width="16" height="160" />
  <object id="162" type="collision" x="32" y="480" width="16" height="112" />
  <object id="163" type="collision" x="64" y="480" width="32" height="16" />
  <object id="164" type="collision" x="112" y="480" width="16" height="16" />
  <object id="165" type="collision" x="176" y="480" width="16" height="48" />
  <object id="166" type="collision" x="208" y="480" width="16" height="48" />
  <object id="167" type="collision" x="448" y="480" width="32" height="32" />
  <object id="168" type="collision" x="528" y="480" width="16" height="48" />
  <object id="169" type="collision" x="560" y="480" width="16" height="16" />
  <object id="170" type="collision" x="144" y="496" width="32" height="16" />
  <object id="171" type="collision" x="192" y="496" width="16" height="32" />
  <object id="172" type="collision" x="432" y="496" width="16" height="64" />
  <object id="173" type="collision" x="512" y="496" width="16" height="16" />
  <object id="174" type="collision" x="544" y="496" width="16" height="64" />
  <object id="175" type="collision" x="608" y="496" width="16" height="32" />
  <object id="176" type="collision" x="64" y="512" width="48" height="16" />
  <object id="177" type="collision" x="128" y="512" width="16" height="16" />
  <object id="178" type="collision" x="160" y="512" width="16" height="32" />
  <object id="179" type="collision" x="448" y="512" width="16" height="80" />
  <object id="180" type="collision" x="560" y="512" width="16" height="32" />
  <object id="181" type="collision" x="48" y="528" width="16" height="32" />
  <object id="182" type="collision" x="512" y="528" width="16" height="16" />
  <object id="183" type="collision" x="64" y="544" width="96" height="16" />
  <object id="184" type="collision" x="176" y="544" width="16" height="80" />
  <object id="185" type="collision" x="464" y="544" width="32" height="16" />
  <object id="186" type="collision" x="528" y="544" width="16" height="80" />
  <object id="187" type="collision" x="608" y="544" width="16" height="64" />
  <object id="188" type="collision" x="64" y="560" width="32" height="32" />
  <object id="189" type="collision" x="112" y="560" width="32" height="16" />
  <object id="190" type="collision" x="160" y="560" width="16" height="32" />
  <object id="191" type="collision" x="464" y="560" width="16" height="16" />
  <object id="192" type="collision" x="496" y="560" width="32" height="64" />
  <object id="193" type="collision" x="560" y="560" width="16" height="32" />
  <object id="194" type="collision" x="48" y="576" width="16" height="16" />
  <object id="195" type="collision" x="112" y="576" width="16" height="16" />
  <object id="196" type="collision" x="144" y="576" width="16" height="128" />
  <object id="197" type="collision" x="192" y="576" width="32" height="16" />
  <object id="198" type="collision" x="544" y="576" width="16" height="32" />
  <object id="199" type="collision" x="80" y="592" width="32" height="32" />
  <object id="200" type="collision" x="128" y="592" width="16" height="64" />
  <object id="201" type="collision" x="432" y="592" width="16" height="16" />
  <object id="202" type="collision" x="464" y="592" width="32" height="16" />
  <object id="203" type="collision" x="592" y="592" width="16" height="16" />
  <object id="204" type="collision" x="32" y="608" width="48" height="16" />
  <object id="205" type="collision" x="112" y="608" width="16" height="48" />
  <object id="206" type="collision" x="480" y="608" width="16" height="64" />
  <object id="207" type="collision" x="32" y="624" width="32" height="80" />
  <object id="208" type="collision" x="80" y="624" width="16" height="32" />
  <object id="209" type="collision" x="160" y="624" width="16" height="80" />
  <object id="210" type="collision" x="192" y="624" width="32" height="16" />
  <object id="211" type="collision" x="432" y="624" width="32" height="48" />
  <object id="212" type="collision" x="512" y="624" width="16" height="32" />
  <object id="213" type="collision" x="608" y="624" width="16" height="48" />
  <object id="214" type="collision" x="64" y="640" width="16" height="64" />
  <object id="215" type="collision" x="96" y="640" width="16" height="16" />
  <object id="216" type="collision" x="176" y="640" width="32" height="16" />
  <object id="217" type="collision" x="272" y="640" width="16" height="16" />
  <object id="218" type="collision" x="416" y="640" width="16" height="16" />
  <object id="219" type="collision" x="464" y="640" width="16" height="64" />
  <object id="220" type="collision" x="528" y="640" width="80" height="16" />
  <object id="221" type="collision" x="192" y="656" width="16" height="48" />
  <object id="222" type="collision" x="224" y="656" width="16" height="16" />
  <object id="223" type="collision" x="384" y="656" width="32" height="16" />
  <object id="224" type="collision" x="496" y="656" width="16" height="48" />
  <object id="225" type="collision" x="544" y="656" width="32" height="16" />
  <object id="226" type="collision" x="592" y="656" width="16" height="48" />
  <object id="227" type="collision" x="96" y="672" width="48" height="32" />
  <object id="228" type="collision" x="176" y="672" width="16" height="32" />
  <object id="229" type="collision" x="208" y="672" width="16" height="32" />
  <object id="230" type="collision" x="256" y="672" width="16" height="32" />
  <object id="231" type="collision" x="352" y="672" width="48" height="32" />
  <object id="232" type="collision" x="432" y="672" width="16" height="32" />
  <object id="233" type="collision" x="512" y="672" width="48" height="32" />
  <object id="234" type="collision" x="80" y="688" width="16" height="16" />
  <object id="235" type="collision" x="224" y="688" width="32" height="16" />
  <object id="236" type="collision" x="272" y="688" width="32" height="16" />
  <object id="237" type="collision" x="400" y="688" width="32" height="16" />
  <object id="238" type="collision" x="448" y="688" width="16" height="16" />
  <object id="239" type="collision" x="480" y="688" width="16" height="16" />
  <object id="240" type="collision" x="560" y="688" width="32" height="16" />
  <object id="241" type="collision" x="608" y="688" width="16" height="16" />
 </objectgroup>
 <objectgroup id="6" name="Events" color="#ffff00">
  <object id="242" name="df_b_south_exit" type="event" x="320" y="688" width="16" height="16">
   <properties>
    <property name="act10" value="transition_teleport player,df_b_south_threshold.tmx,6,1,0.3" />
    <property name="act20" value="char_face player,down" />
    <property name="cond10" value="is char_at player" />
    <property name="cond20" value="is char_facing player,down" />
   </properties>
  </object>
  <object id="243" name="df_b_north_exit" type="event" x="320" y="0" width="16" height="16">
   <properties>
    <property name="act10" value="transition_teleport player,df_b_north_threshold.tmx,6,8,0.3" />
    <property name="act20" value="char_face player,up" />
    <property name="cond10" value="is char_at player" />
    <property name="cond20" value="is char_facing player,up" />
   </properties>
  </object>
  <object id="244" name="df_b_west_encounters" type="event" x="48" y="256" width="160" height="176">
   <properties>
    <property name="act1" value="random_encounter df_b_forest,9" />
   </properties>
  </object>
  <object id="245" name="df_b_north_encounters" type="event" x="368" y="80" width="160" height="144">
   <properties>
    <property name="act1" value="random_encounter df_b_forest,9" />
   </properties>
  </object>
  <object id="246" name="Create df_b_keeper" type="event" x="352" y="400" width="16" height="16">
   <properties>
    <property name="act1" value="create_npc df_b_keeper,22,25" />
    <property name="cond1" value="not char_exists df_b_keeper" />
   </properties>
  </object>
  <object id="247" name="Talk df_b_keeper" type="event" x="352" y="400" width="16" height="16">
   <properties>
    <property name="act1" value="char_talk df_b_keeper,pre_battle" />
    <property name="behav1" value="talk df_b_keeper" />
   </properties>
  </object>
  <object id="248" name="Create df_b_forager" type="event" x="144" y="416" width="16" height="16">
   <properties>
    <property name="act1" value="create_npc df_b_forager,9,26" />
    <property name="cond1" value="not char_exists df_b_forager" />
   </properties>
  </object>
  <object id="249" name="Talk df_b_forager" type="event" x="144" y="416" width="16" height="16">
   <properties>
    <property name="act1" value="char_talk df_b_forager,pre_battle" />
    <property name="behav1" value="talk df_b_forager" />
    <property name="act2" value="add_monster shybulb,8,df_b_forager,5,10" />
    <property name="act3" value="start_battle player,df_b_forager" />
    <property name="act4" value="char_talk df_b_forager,post_battle_lose" />
    <property name="cond1" value="not battle_outcome player,won,df_b_forager" />
   </properties>
  </object>
  <object id="250" name="Create df_b_scout" type="event" x="352" y="176" width="16" height="16">
   <properties>
    <property name="act1" value="create_npc df_b_scout,22,11" />
    <property name="cond1" value="not char_exists df_b_scout" />
   </properties>
  </object>
  <object id="251" name="Talk df_b_scout" type="event" x="352" y="176" width="16" height="16">
   <properties>
    <property name="act1" value="char_talk df_b_scout,pre_battle" />
    <property name="behav1" value="talk df_b_scout" />
    <property name="act2" value="add_monster squabbit,8,df_b_scout,5,10" />
    <property name="act3" value="start_battle player,df_b_scout" />
    <property name="act4" value="char_talk df_b_scout,post_battle_lose" />
    <property name="cond1" value="not battle_outcome player,won,df_b_scout" />
   </properties>
  </object>
  <object id="252" name="df_b_inspect_shrine" type="event" x="336" y="368" width="16" height="16">
   <properties>
    <property name="act1" value="translated_dialog The stone is cool and faintly luminous beneath the moss." />
    <property name="cond10" value="is char_facing_tile player" />
    <property name="cond20" value="is button_pressed INTERACT" />
   </properties>
  </object>
  <object id="253" name="df_b_moon_cache" type="event" x="80" y="272" width="16" height="16">
   <properties>
    <property name="act1" value="translated_dialog You find a pale shrub marks the westernmost bend of the forgotten trail." />
    <property name="act2" value="add_item potion" />
    <property name="act3" value="set_variable df_b_moon_cache:found" />
    <property name="cond10" value="is char_facing_tile player" />
    <property name="cond20" value="is button_pressed INTERACT" />
    <property name="cond1" value="not variable_set df_b_moon_cache:found" />
   </properties>
  </object>
  <object id="254" name="Environment" type="event" x="0" y="0" width="16" height="16">
   <properties>
    <property name="act1" value="set_environment grass" />
    <property name="cond1" value="not environment_is grass" />
   </properties>
  </object>
  <object id="255" name="Give experiment starter" type="event" x="0" y="0" width="16" height="16">
   <properties>
    <property name="act1" value="add_monster cardiling,7" />
    <property name="act2" value="set_variable deep_forest_b_starter_given:yes" />
    <property name="cond1" value="not variable_set deep_forest_b_starter_given:yes" />
   </properties>
  </object>
 </objectgroup>
</map>
