<?xml version="1.0" encoding="UTF-8"?>
<map version="1.10" tiledversion="1.10.2" orientation="orthogonal" renderorder="right-down" width="40" height="48" tilewidth="16" tileheight="16" infinite="0" nextlayerid="7" nextobjectid="1000">
 <tileset firstgid="1" source="../../tuxemon/gfx/tilesets/prototyping_outdoor.tsx" />
 <layer id="1" name="Ground" width="40" height="48">
  <data encoding="csv">
34,34,34,34,34,34,34,34,34,34,34,34,34,34,34,34,34,34,34,34,34,34,34,34,34,34,34,34,34,34,34,34,34,34,34,34,34,34,34,34,
34,34,34,34,34,34,34,34,34,34,34,34,34,34,34,34,34,34,34,34,34,34,34,34,34,34,34,34,34,34,34,34,34,34,34,34,34,34,34,34,
34,34,34,34,34,34,34,34,34,34,34,34,34,34,34,34,35,34,34,34,34,34,34,35,34,34,34,34,34,34,34,34,34,34,34,34,34,34,34,34,
34,34,34,34,34,34,34,34,34,34,34,34,34,34,34,34,34,34,34,34,34,34,34,34,34,34,34,34,34,34,34,34,37,34,34,34,34,34,35,37,
34,34,34,34,34,34,34,34,34,34,34,34,34,34,34,34,34,34,34,34,34,34,34,34,34,34,34,34,34,34,34,34,34,34,34,34,34,34,34,34,
34,34,34,34,34,34,34,37,34,34,34,34,34,34,34,34,34,34,34,34,34,34,34,34,34,37,34,35,34,34,34,34,34,34,34,34,34,34,34,34,
34,35,34,34,34,34,34,34,34,34,34,34,34,34,34,34,34,34,34,34,34,34,34,34,34,34,34,37,35,37,35,34,34,37,34,34,34,34,34,34,
34,34,34,34,34,34,34,34,37,34,34,34,34,34,34,34,34,34,34,34,34,34,34,34,34,34,35,34,34,35,34,37,34,34,34,34,34,34,34,34,
34,34,34,34,37,34,34,37,34,34,34,37,34,34,34,34,37,34,34,34,34,34,34,34,34,34,34,34,34,37,34,34,34,34,34,34,34,34,34,34,
34,34,34,34,34,34,34,34,34,34,34,37,35,34,35,34,34,34,34,34,34,34,34,35,34,34,34,34,34,37,34,35,34,37,34,37,34,34,34,34,
34,34,34,34,34,34,34,34,34,34,34,34,34,34,34,34,34,37,34,34,34,34,37,34,34,34,34,34,37,34,34,34,37,34,34,34,34,34,35,37,
34,34,34,34,34,34,34,34,34,34,37,34,34,34,34,34,34,34,34,34,34,34,34,34,34,34,34,37,34,34,34,34,34,34,34,34,34,34,35,34,
34,34,34,34,34,34,34,34,34,34,34,34,34,34,34,34,34,34,34,34,34,34,37,34,34,34,34,34,37,34,34,34,34,34,34,34,34,34,34,37,
34,34,34,37,34,34,37,34,34,34,34,34,34,35,34,34,34,34,37,34,34,34,35,34,34,34,34,37,34,35,34,34,34,34,34,34,34,37,34,34,
34,34,34,34,34,34,34,34,34,34,34,34,34,35,34,34,35,34,34,34,34,34,34,34,34,34,34,34,34,34,34,34,34,34,34,34,37,34,34,34,
34,34,37,34,34,34,34,34,34,34,34,34,34,34,34,34,34,34,34,34,34,34,34,34,34,34,34,34,34,34,34,34,34,35,34,34,34,34,34,34,
34,34,34,34,34,37,34,34,34,34,34,34,34,37,37,34,34,34,34,34,34,34,34,34,34,34,34,34,34,34,34,34,37,37,34,34,34,34,34,34,
34,34,34,34,34,37,34,34,34,34,34,34,34,34,34,37,34,34,34,34,34,34,34,34,34,34,34,34,34,34,34,37,34,34,34,34,34,34,34,37,
34,34,34,34,34,34,37,34,34,34,34,34,34,35,34,34,34,34,34,34,34,34,34,34,34,34,34,34,34,34,34,34,34,34,34,34,34,34,34,34,
34,34,34,34,34,34,34,34,34,34,34,37,34,34,34,34,34,37,34,34,34,34,34,34,34,34,34,34,34,34,34,34,34,34,34,34,34,34,34,34,
34,34,34,35,34,34,34,34,34,34,34,34,34,34,34,34,34,34,34,34,34,34,34,34,34,34,34,34,34,34,34,34,34,34,34,34,34,34,34,34,
34,34,34,34,34,34,34,35,34,34,34,34,34,34,34,35,34,34,34,34,34,34,34,34,34,34,37,34,34,34,34,34,34,34,34,34,34,34,34,34,
34,34,34,34,34,34,34,34,34,34,34,34,34,34,34,34,34,34,34,34,34,34,34,34,34,34,34,34,34,34,35,34,34,34,34,34,34,34,34,34,
34,34,34,34,34,34,34,34,34,34,34,34,34,34,34,34,34,34,37,34,34,35,34,34,34,34,34,34,34,34,34,34,34,34,34,34,34,34,34,34,
34,34,34,34,34,34,34,34,34,34,34,34,34,34,34,34,34,34,34,34,34,34,34,34,34,34,34,37,34,37,34,34,34,34,34,34,34,34,34,34,
34,34,34,34,37,34,37,34,34,37,34,37,34,37,34,34,34,34,34,34,34,34,34,34,34,34,34,34,34,34,34,34,34,34,34,34,34,34,34,34,
34,34,34,34,37,34,34,34,34,34,34,34,34,34,34,34,34,34,34,34,37,34,34,34,34,34,34,34,34,34,34,34,34,34,34,34,34,34,34,34,
34,34,34,34,34,34,37,34,37,34,34,37,37,37,34,34,34,34,34,34,34,34,34,34,34,34,34,34,34,34,34,34,34,34,34,34,34,34,35,34,
34,34,37,34,34,37,34,37,34,37,34,37,34,37,34,34,34,34,34,35,34,34,34,34,34,34,34,34,34,34,34,34,34,34,34,34,34,34,34,34,
34,34,34,34,37,37,37,34,34,37,34,37,37,37,34,35,34,34,34,34,34,35,34,34,37,34,37,34,35,34,34,34,34,34,34,34,34,34,34,34,
34,34,34,34,37,37,34,37,34,34,34,34,34,34,34,34,34,34,34,34,34,34,34,34,34,34,34,37,34,34,34,34,34,34,34,34,34,34,34,34,
34,34,34,34,37,34,37,37,37,34,37,37,37,34,34,34,34,34,34,34,34,34,34,34,34,37,34,34,34,34,34,34,34,34,34,34,34,34,34,34,
34,34,34,34,34,34,34,37,37,34,34,37,37,37,34,37,34,34,34,34,34,34,34,34,34,34,34,34,34,34,34,34,34,34,34,34,34,34,34,34,
34,34,34,34,34,37,37,34,34,37,34,34,34,34,34,34,34,34,34,34,34,34,34,34,37,34,34,34,34,34,34,34,34,34,34,34,34,34,34,34,
34,34,34,34,34,34,34,34,34,34,35,34,34,34,34,34,34,37,34,34,34,34,34,35,34,34,34,34,37,34,35,34,34,34,34,34,34,34,34,34,
34,34,34,34,35,34,34,34,34,34,34,34,34,34,34,34,34,34,34,34,34,34,34,34,35,34,35,34,34,34,34,34,34,34,34,34,34,34,34,34,
34,37,34,34,34,34,34,34,34,34,34,34,34,34,34,34,34,34,34,34,34,34,34,34,34,34,34,34,34,34,34,34,34,34,34,34,34,34,34,34,
34,34,34,34,34,34,34,34,34,34,35,34,34,34,34,34,34,34,34,34,34,34,34,34,34,34,34,34,37,34,34,34,34,34,34,34,34,34,34,34,
34,35,34,34,34,34,34,34,34,34,34,34,34,34,34,34,34,34,35,34,34,34,34,34,34,35,34,34,34,37,34,34,34,34,34,34,34,34,34,34,
34,34,34,34,34,34,34,34,34,34,34,34,34,34,34,34,34,34,34,34,34,34,34,34,35,34,34,34,34,34,34,34,34,34,34,37,34,34,34,34,
34,34,34,34,34,34,34,34,34,34,35,34,34,34,34,34,35,34,34,34,34,34,34,34,34,34,34,34,34,34,34,34,34,34,34,34,34,34,34,34,
34,34,34,34,34,34,34,34,34,34,34,35,34,34,34,34,34,34,34,34,34,34,34,34,34,35,34,34,34,34,34,34,34,34,34,34,34,34,34,35,
34,34,34,34,34,37,34,34,34,34,34,34,34,34,34,34,34,34,34,34,34,34,34,35,34,34,34,34,34,34,34,34,37,37,34,34,34,34,34,34,
34,34,34,34,34,34,34,34,34,34,34,34,34,34,34,34,34,34,34,34,34,35,34,34,34,34,34,34,34,34,37,34,34,34,34,34,34,34,34,34,
34,34,34,34,34,34,34,34,37,34,34,34,34,34,34,34,34,34,34,34,34,34,34,34,34,34,34,34,35,34,34,34,34,34,34,34,34,34,34,34,
34,34,34,34,34,34,34,34,34,34,34,34,34,34,34,34,37,34,34,34,34,34,34,34,34,34,34,34,34,34,37,34,34,34,34,34,34,34,34,34,
34,34,34,34,34,34,34,34,34,35,34,34,34,34,34,34,34,34,37,34,34,34,34,34,34,34,34,34,34,37,34,34,34,35,34,34,34,34,34,34,
34,34,34,37,34,34,34,34,34,34,34,34,34,34,34,34,34,34,34,34,34,34,34,34,34,34,34,34,34,34,34,34,34,34,34,34,34,34,34,35
</data>
 </layer>
 <layer id="2" name="Terrain" width="40" height="48">
  <data encoding="csv">
0,0,0,0,0,0,0,0,0,0,0,0,0,0,0,0,0,0,0,0,0,194,194,194,0,0,0,0,0,0,0,0,0,0,0,0,0,0,0,0,
0,0,0,0,0,0,0,0,0,0,0,0,0,0,0,0,0,0,0,0,0,194,194,194,0,0,0,0,0,0,0,0,0,0,0,0,0,0,0,0,
0,0,0,0,0,0,0,0,0,0,0,0,0,0,0,0,0,0,0,0,0,0,194,194,194,0,0,0,0,0,0,0,0,0,0,0,0,0,0,0,
0,0,0,0,0,0,0,0,0,0,0,0,0,0,0,0,0,0,0,0,0,0,194,194,194,0,0,0,0,0,0,0,0,0,0,0,0,0,0,0,
0,0,0,0,0,0,0,0,0,0,0,0,0,0,0,0,0,0,0,0,0,0,194,194,194,0,0,0,0,0,0,0,0,0,0,0,0,0,0,0,
0,0,0,0,0,0,0,0,0,0,0,0,0,0,0,0,0,0,0,0,0,0,0,194,194,194,0,0,0,0,0,0,0,0,0,0,0,0,0,0,
0,0,0,0,0,0,0,0,0,0,0,0,0,0,0,0,0,0,0,0,0,0,0,194,194,194,0,0,0,0,0,0,0,0,0,0,0,0,0,0,
0,0,0,0,0,0,0,0,0,0,0,0,0,0,0,0,0,0,0,0,0,0,0,194,194,194,0,0,0,0,0,0,0,0,0,0,0,0,0,0,
0,0,0,0,0,0,0,0,0,0,0,0,0,0,0,0,0,0,0,0,0,0,0,0,194,194,194,0,0,0,0,0,0,0,0,0,0,0,0,0,
0,0,0,0,0,0,0,0,0,0,0,0,0,0,0,0,0,0,0,0,0,0,0,0,194,194,194,0,0,0,0,0,0,0,0,0,0,0,0,0,
0,0,0,0,0,0,0,0,0,0,0,0,0,0,0,0,0,0,0,0,0,0,0,0,194,194,194,0,0,0,0,0,0,0,0,0,0,0,0,0,
0,0,0,0,0,0,0,0,0,0,0,0,0,0,0,0,0,0,0,0,0,0,0,194,194,194,0,0,0,0,0,0,0,0,0,0,0,0,0,0,
0,0,0,0,0,0,0,0,0,0,0,0,0,0,0,0,0,0,0,0,0,0,0,194,194,194,0,0,0,0,0,0,0,0,0,0,0,0,0,0,
0,0,0,0,0,0,0,0,0,0,0,0,0,0,0,0,0,0,0,0,0,0,0,194,194,194,0,0,0,194,194,194,0,0,0,0,0,0,0,0,
0,0,0,0,0,0,0,0,0,0,0,0,0,0,0,0,0,0,0,0,0,0,194,194,194,194,194,194,194,0,0,0,194,0,0,0,0,0,0,0,
0,0,0,0,0,0,0,0,0,0,0,0,0,0,0,0,0,0,0,0,0,0,194,194,194,0,0,0,0,0,0,0,0,194,0,0,0,0,0,0,
0,0,0,0,0,0,0,0,0,0,0,0,0,0,0,0,0,0,0,0,0,194,194,194,0,0,0,0,0,0,0,0,0,194,0,0,0,0,0,0,
0,0,0,0,0,0,0,0,0,0,0,0,0,0,0,0,0,0,0,0,194,194,194,0,0,0,0,0,0,0,0,0,0,0,194,0,0,0,0,0,
0,0,0,0,0,0,0,0,0,0,0,0,0,0,0,0,0,0,0,0,194,194,194,0,0,0,0,0,0,0,0,0,0,0,0,0,0,0,0,0,
0,0,0,0,0,0,0,0,0,0,0,0,0,0,0,0,0,0,0,194,194,194,0,0,0,0,0,0,0,0,0,0,0,0,0,0,0,0,0,0,
46,46,46,46,46,46,46,46,46,46,46,46,46,46,46,46,46,46,563,563,563,46,46,46,46,46,46,46,46,46,46,46,46,46,46,46,46,46,46,46,
46,46,46,46,46,46,46,46,46,46,46,46,46,46,46,46,46,46,595,595,595,46,46,46,46,46,46,46,46,46,46,46,46,46,46,46,46,46,46,46,
46,46,46,46,46,46,46,46,46,46,46,46,46,46,46,46,46,46,595,595,595,46,46,46,46,46,46,46,46,46,46,46,46,46,46,46,46,46,46,46,
46,46,46,46,46,46,46,46,46,46,46,46,46,46,46,46,46,46,595,595,595,46,46,46,46,46,46,46,46,46,46,46,46,46,46,46,46,46,46,46,
46,46,46,46,46,46,46,46,46,46,46,46,46,46,46,46,46,46,627,627,627,46,46,46,46,46,46,46,46,46,46,46,46,46,46,46,46,46,46,46,
0,0,0,0,0,0,0,0,0,0,0,0,0,0,194,194,194,194,194,194,194,0,0,0,0,0,0,0,0,0,0,0,0,0,0,0,0,0,0,0,
0,0,0,0,0,0,0,194,194,194,194,194,194,194,0,0,0,0,194,194,194,0,0,0,0,0,0,0,0,0,0,0,0,0,0,0,0,0,0,0,
0,0,0,0,0,0,0,194,0,0,0,0,0,0,0,0,0,194,194,194,0,0,0,0,0,0,0,0,0,0,0,0,0,0,0,0,0,0,0,0,
0,0,0,0,0,0,0,0,194,0,0,0,0,0,0,0,0,194,194,194,0,0,0,0,0,0,0,0,0,0,0,0,0,0,0,0,0,0,0,0,
0,0,0,0,0,0,0,0,194,0,0,0,0,0,0,0,194,194,194,0,0,0,0,0,0,0,0,0,0,0,0,0,0,0,0,0,0,0,0,0,
0,0,0,0,0,0,0,0,194,0,0,0,0,0,0,0,194,194,194,0,0,0,0,0,0,0,0,0,0,0,0,0,0,0,0,0,0,0,0,0,
0,0,0,0,0,0,0,0,0,194,0,0,0,0,0,194,194,194,0,0,0,0,0,0,0,0,0,0,0,0,0,0,0,0,0,0,0,0,0,0,
0,0,0,0,0,0,0,0,0,194,194,0,0,0,0,194,194,194,0,0,0,0,0,0,0,0,0,0,0,0,0,0,0,0,0,0,0,0,0,0,
0,0,0,0,0,0,0,0,0,0,0,194,194,194,194,194,194,0,0,0,0,0,0,0,0,0,0,0,0,0,0,0,0,0,0,0,0,0,0,0,
0,0,0,0,0,0,0,0,0,0,0,0,0,0,194,194,194,0,0,0,0,0,0,0,0,0,0,0,0,0,0,0,0,0,0,0,0,0,0,0,
0,0,0,0,0,0,0,0,0,0,0,0,0,194,194,194,0,0,0,0,0,0,0,0,0,0,0,0,0,0,0,0,0,0,0,0,0,0,0,0,
0,0,0,0,0,0,0,0,0,0,0,0,0,0,194,194,194,0,0,0,0,0,0,0,0,0,0,0,0,0,0,0,0,0,0,0,0,0,0,0,
0,0,0,0,0,0,0,0,0,0,0,0,0,0,0,194,194,194,0,0,0,0,0,0,0,0,0,0,0,0,0,0,0,0,0,0,0,0,0,0,
0,0,0,0,0,0,0,0,0,0,0,0,0,0,0,194,194,194,0,0,0,0,0,0,0,0,0,0,0,0,0,0,0,0,0,0,0,0,0,0,
0,0,0,0,0,0,0,0,0,0,0,0,0,0,0,0,194,194,194,0,0,0,0,0,0,0,0,0,0,0,0,0,0,0,0,0,0,0,0,0,
0,0,0,0,0,0,0,0,0,0,0,0,0,0,0,0,0,194,194,194,0,0,0,0,0,0,0,0,0,0,0,0,0,0,0,0,0,0,0,0,
0,0,0,0,0,0,0,0,0,0,0,0,0,0,0,0,0,194,194,194,0,0,0,0,0,0,0,0,0,0,0,0,0,0,0,0,0,0,0,0,
0,0,0,0,0,0,0,0,0,0,0,0,0,0,0,0,0,194,194,194,0,0,0,0,0,0,0,0,0,0,0,0,0,0,0,0,0,0,0,0,
0,0,0,0,0,0,0,0,0,0,0,0,0,0,0,0,0,194,194,194,0,0,0,0,0,0,0,0,0,0,0,0,0,0,0,0,0,0,0,0,
0,0,0,0,0,0,0,0,0,0,0,0,0,0,0,0,0,0,194,194,194,0,0,0,0,0,0,0,0,0,0,0,0,0,0,0,0,0,0,0,
0,0,0,0,0,0,0,0,0,0,0,0,0,0,0,0,0,0,194,194,194,0,0,0,0,0,0,0,0,0,0,0,0,0,0,0,0,0,0,0,
0,0,0,0,0,0,0,0,0,0,0,0,0,0,0,0,0,0,194,194,194,0,0,0,0,0,0,0,0,0,0,0,0,0,0,0,0,0,0,0,
0,0,0,0,0,0,0,0,0,0,0,0,0,0,0,0,0,0,194,194,194,0,0,0,0,0,0,0,0,0,0,0,0,0,0,0,0,0,0,0
</data>
 </layer>
 <layer id="3" name="Objects" width="40" height="48">
  <data encoding="csv">
0,0,0,0,0,0,0,0,0,0,0,0,0,0,0,0,0,0,0,0,0,0,0,0,0,0,0,0,0,0,0,0,0,0,0,0,0,0,0,0,
48,48,0,0,48,48,0,0,48,48,0,0,48,0,48,48,48,48,48,48,0,0,0,0,48,48,48,0,0,0,48,0,48,48,48,0,0,48,0,48,
48,48,0,48,0,48,48,48,48,48,0,48,0,0,48,0,48,0,0,48,48,0,0,0,0,48,0,48,0,0,48,48,0,0,0,0,0,0,0,48,
48,48,0,0,0,0,0,0,0,0,0,0,48,48,0,0,0,0,48,0,0,0,0,0,0,0,48,48,0,0,48,48,48,0,48,48,0,48,0,48,
48,0,0,0,0,0,0,0,0,0,0,0,0,0,0,0,0,0,0,0,0,0,0,0,0,0,0,0,0,0,0,0,0,0,0,0,0,48,48,48,
48,48,0,0,0,0,0,0,0,0,0,0,0,0,0,0,0,0,0,0,0,0,0,0,0,0,0,0,0,0,0,0,0,0,0,0,0,48,48,48,
48,48,48,0,0,0,0,0,0,0,0,0,0,0,0,0,0,0,0,0,0,0,0,0,0,0,0,0,0,477,0,0,0,0,0,0,0,0,48,48,
48,0,48,0,0,0,0,0,0,0,0,0,0,0,0,0,0,0,0,0,0,0,0,0,0,0,0,0,0,0,0,0,0,0,0,0,0,0,48,48,
48,0,48,0,0,0,0,0,0,0,0,0,0,0,0,0,0,0,0,0,0,0,0,0,0,0,0,0,0,0,0,0,0,0,0,0,0,0,0,48,
48,0,0,48,0,0,0,0,0,0,0,0,0,0,0,0,0,0,0,0,0,0,0,0,0,0,0,0,243,211,211,211,211,211,211,243,48,48,48,48,
48,0,0,0,0,0,0,0,0,0,0,0,0,0,0,0,0,0,0,0,0,0,0,0,0,0,0,0,243,0,0,0,0,0,0,243,48,48,48,48,
48,0,0,48,0,0,0,0,0,0,0,0,0,0,0,0,0,0,0,0,0,0,0,0,0,0,0,0,243,0,48,0,0,48,0,243,48,0,0,48,
48,48,0,48,0,0,0,0,0,0,0,0,0,0,0,0,0,0,0,0,0,0,0,0,0,0,0,0,243,0,0,0,0,0,0,243,48,0,48,48,
48,0,0,0,0,0,0,0,0,0,0,0,0,0,0,0,0,0,0,0,0,0,0,0,0,0,0,0,243,0,0,0,0,0,0,243,0,48,0,48,
48,48,48,48,0,0,0,0,0,0,0,0,0,0,0,0,0,0,0,0,0,0,0,0,0,0,0,0,0,0,0,0,0,48,0,243,0,0,48,48,
48,48,0,0,0,0,0,0,0,0,0,0,0,0,0,0,0,0,0,0,0,0,0,0,0,0,0,0,371,0,0,0,0,0,0,243,0,48,0,48,
48,48,48,0,0,0,0,0,0,0,0,0,0,0,0,0,0,0,0,0,0,0,0,0,0,0,0,0,0,0,211,211,211,0,211,243,0,48,48,48,
48,48,48,48,0,0,0,0,0,0,0,0,0,0,0,0,0,0,0,0,0,0,0,0,0,0,0,0,0,0,0,0,0,0,0,0,0,0,0,48,
48,48,48,0,0,0,0,0,0,0,0,0,0,0,0,0,0,0,0,0,0,0,0,0,0,0,0,0,0,0,0,0,0,0,0,0,0,0,48,48,
48,0,0,0,0,0,0,0,0,0,0,0,0,0,0,0,0,0,55,0,0,0,0,0,0,0,0,0,0,0,0,0,0,0,0,0,48,0,0,48,
48,48,0,48,0,0,0,0,0,0,0,0,0,0,0,0,0,0,0,0,0,0,0,0,0,0,0,0,0,0,0,0,0,0,0,0,0,0,48,48,
48,0,0,0,0,0,0,0,0,0,0,0,0,0,0,0,0,0,0,0,0,0,0,0,0,0,0,0,0,0,0,0,0,0,0,0,0,0,48,48,
48,0,48,48,0,0,0,0,0,0,0,0,0,0,0,0,0,0,0,0,0,0,0,0,0,0,0,0,0,0,0,0,0,0,0,0,0,48,0,48,
48,48,48,48,0,0,0,0,0,0,0,0,0,0,0,0,0,0,0,0,0,0,0,0,0,0,0,0,0,0,0,0,0,0,0,0,0,0,0,48,
48,0,48,48,0,0,0,0,0,0,0,0,0,0,0,0,0,0,0,0,0,0,0,0,0,0,0,0,0,0,0,0,0,0,0,0,0,0,0,48,
48,0,48,0,477,0,0,0,0,0,0,0,0,55,0,0,0,0,0,0,0,0,0,0,0,0,0,0,0,0,0,0,0,0,0,0,48,48,0,48,
48,0,0,48,0,0,0,0,0,0,0,0,0,0,0,0,0,0,0,0,0,0,0,0,0,0,0,0,0,0,0,0,0,0,0,0,0,48,48,48,
48,0,0,0,0,0,0,0,0,0,0,0,0,477,0,0,0,0,0,0,0,0,0,0,0,0,0,0,0,0,0,0,0,0,0,0,0,0,48,48,
48,0,48,0,0,0,0,0,0,0,0,0,0,0,0,0,0,0,0,0,0,0,0,0,0,0,0,0,0,0,0,0,0,0,0,0,48,0,48,48,
48,48,0,0,0,0,0,0,0,0,0,0,0,0,0,0,0,0,0,0,0,0,0,0,0,0,0,0,0,0,0,0,0,0,0,0,0,0,0,48,
48,48,0,0,0,0,0,0,0,0,0,0,0,0,0,0,0,0,0,0,0,0,0,0,0,0,0,0,0,0,0,0,0,0,0,0,48,48,48,48,
48,0,0,48,477,0,0,0,0,0,0,0,0,0,0,0,0,0,0,0,0,0,0,0,0,0,0,0,0,0,0,0,0,0,0,0,0,48,48,48,
48,48,0,0,0,0,0,0,0,0,0,0,0,0,0,0,0,0,0,0,0,0,0,0,0,0,0,0,0,0,0,0,0,0,0,0,0,0,0,48,
48,0,48,0,0,0,0,0,0,0,0,0,0,0,0,0,0,0,0,0,0,0,0,0,0,0,0,0,0,0,0,0,0,0,0,0,0,0,0,48,
48,48,0,0,0,0,0,0,0,0,0,0,0,0,0,0,0,0,0,0,0,0,0,0,0,0,0,0,0,0,0,0,0,0,0,0,48,48,48,48,
48,48,0,0,0,0,0,0,0,0,0,0,0,0,0,0,0,0,0,0,0,0,0,0,476,0,476,0,0,0,0,0,0,0,0,0,0,0,0,48,
48,48,0,0,0,0,0,0,0,0,0,0,0,0,0,0,0,0,0,0,0,0,0,0,0,0,0,0,0,0,0,0,0,0,0,0,0,48,0,48,
48,48,48,0,0,0,0,0,0,0,476,0,0,0,0,0,0,0,0,0,0,0,0,0,0,0,0,0,0,0,0,0,0,0,0,0,0,0,0,48,
48,48,48,0,0,0,0,0,0,0,0,0,0,0,0,0,0,0,0,0,0,0,0,0,0,0,0,0,0,0,0,0,0,0,0,0,48,0,48,48,
48,0,48,48,0,0,0,0,0,0,0,0,0,0,0,0,0,0,0,0,0,0,0,0,476,0,0,0,0,0,0,0,0,0,0,0,0,0,0,48,
48,0,0,0,0,0,0,0,0,0,0,0,0,0,0,0,0,0,0,0,0,0,0,0,0,0,0,0,0,0,0,0,0,0,0,0,0,48,48,48,
48,0,0,48,0,0,0,0,0,0,0,0,0,0,0,0,0,0,0,0,0,0,0,0,0,0,0,0,0,0,0,0,0,0,0,0,0,0,0,48,
48,48,0,0,0,0,0,0,0,0,0,0,0,0,0,0,0,0,0,0,0,0,0,476,0,0,0,0,0,0,0,0,0,0,0,0,48,48,48,48,
48,48,0,0,0,0,0,0,0,0,0,0,0,0,0,0,0,0,0,0,0,0,0,0,0,0,0,0,0,0,0,0,0,0,0,0,48,0,48,48,
48,0,48,0,0,0,48,48,0,0,0,0,0,0,0,0,0,0,0,0,0,0,0,0,0,0,0,0,0,0,48,0,48,48,0,0,0,0,0,48,
48,48,0,48,48,0,48,0,48,0,48,48,48,48,48,48,0,48,0,0,0,48,0,0,48,0,48,0,48,48,48,48,0,48,0,0,0,0,48,48,
48,48,48,48,48,48,48,0,48,48,48,48,0,48,0,48,0,48,0,0,0,0,0,48,48,48,48,48,0,48,0,48,0,48,48,48,0,48,48,48,
48,48,48,48,48,48,48,48,48,48,48,48,48,48,48,48,48,48,0,0,0,48,48,48,48,48,48,48,48,48,48,48,48,48,48,48,48,48,48,48
</data>
 </layer>
 <layer id="4" name="Above Player" width="40" height="48">
  <data encoding="csv">
16,16,0,0,16,16,0,0,16,16,0,0,16,0,16,16,16,16,16,16,0,0,0,0,16,16,16,0,0,0,16,0,16,16,16,0,0,16,0,16,
16,16,0,16,0,16,16,16,16,16,0,16,0,0,16,0,16,0,0,16,16,0,0,0,0,16,0,16,0,0,16,16,0,0,0,0,0,0,0,16,
16,16,0,0,0,0,0,0,0,0,0,0,16,16,0,0,0,0,16,0,0,0,0,0,0,0,16,16,0,0,16,16,16,0,16,16,0,16,0,16,
16,0,0,0,0,0,0,0,0,0,0,0,0,0,0,0,0,0,0,0,0,0,0,0,0,0,0,0,0,0,0,0,0,0,0,0,0,16,16,16,
16,16,0,0,0,0,0,0,0,0,0,0,0,0,0,0,0,0,0,0,0,0,0,0,0,0,0,0,0,0,0,0,0,0,0,0,0,16,16,16,
16,16,16,0,0,0,0,0,0,0,0,0,0,0,0,0,0,0,0,0,0,0,0,0,0,0,0,0,0,0,0,0,0,0,0,0,0,0,16,16,
16,0,16,0,0,0,0,0,0,0,0,0,0,0,0,0,0,0,0,0,0,0,0,0,0,0,0,0,0,0,0,0,0,0,0,0,0,0,16,16,
16,0,16,0,0,0,0,0,0,0,0,0,0,0,0,0,0,0,0,0,0,0,0,0,0,0,0,0,0,0,0,0,0,0,0,0,0,0,0,16,
16,0,0,16,0,0,0,0,0,0,0,0,0,0,0,0,0,0,0,0,0,0,0,0,0,0,0,0,0,0,0,0,0,0,0,0,16,16,16,16,
16,0,0,0,0,0,0,0,0,0,0,0,0,0,0,0,0,0,0,0,0,0,0,0,0,0,0,0,0,0,0,0,0,0,0,0,16,16,16,16,
16,0,0,16,0,0,0,0,0,0,0,0,0,0,0,0,0,0,0,0,0,0,0,0,0,0,0,0,0,0,16,0,0,16,0,0,16,0,0,16,
16,16,0,16,0,0,0,0,0,0,0,0,0,0,0,0,0,0,0,0,0,0,0,0,0,0,0,0,0,0,0,0,0,0,0,0,16,0,16,16,
16,0,0,0,0,0,0,0,0,0,0,0,0,0,0,0,0,0,0,0,0,0,0,0,0,0,0,0,0,0,0,0,0,0,0,0,0,16,0,16,
16,16,16,16,0,0,0,0,0,0,0,0,0,0,0,0,0,0,0,0,0,0,0,0,0,0,0,0,307,0,0,0,0,16,0,0,0,0,16,16,
16,16,0,0,0,0,0,0,0,0,0,0,0,0,0,0,0,0,0,0,0,0,0,0,0,0,0,0,339,0,0,0,0,0,0,0,0,16,0,16,
16,16,16,0,0,0,0,0,0,0,0,0,0,0,0,0,0,0,0,0,0,0,0,0,0,0,0,0,0,0,0,0,0,0,0,0,0,16,16,16,
16,16,16,16,0,0,0,0,0,0,0,0,0,0,0,0,0,0,0,0,0,0,0,0,0,0,0,0,0,0,0,0,0,0,0,0,0,0,0,16,
16,16,16,0,0,0,0,0,0,0,0,0,0,0,0,0,0,0,0,0,0,0,0,0,0,0,0,0,0,0,0,0,0,0,0,0,0,0,16,16,
16,0,0,0,0,0,0,0,0,0,0,0,0,0,0,0,0,0,0,0,0,0,0,0,0,0,0,0,0,0,0,0,0,0,0,0,16,0,0,16,
16,16,0,16,0,0,0,0,0,0,0,0,0,0,0,0,0,0,0,0,0,0,0,0,0,0,0,0,0,0,0,0,0,0,0,0,0,0,16,16,
16,0,0,0,0,0,0,0,0,0,0,0,0,0,0,0,0,0,0,0,0,0,0,0,0,0,0,0,0,0,0,0,0,0,0,0,0,0,16,16,
16,0,16,16,0,0,0,0,0,0,0,0,0,0,0,0,0,0,0,0,0,0,0,0,0,0,0,0,0,0,0,0,0,0,0,0,0,16,0,16,
16,16,16,16,0,0,0,0,0,0,0,0,0,0,0,0,0,0,0,0,0,0,0,0,0,0,0,0,0,0,0,0,0,0,0,0,0,0,0,16,
16,0,16,16,0,0,0,0,0,0,0,0,0,0,0,0,0,0,0,0,0,0,0,0,0,0,0,0,0,0,0,0,0,0,0,0,0,0,0,16,
16,0,16,0,0,0,0,0,0,0,0,0,0,0,0,0,0,0,0,0,0,0,0,0,0,0,0,0,0,0,0,0,0,0,0,0,16,16,0,16,
16,0,0,16,0,0,0,0,0,0,0,0,0,0,0,0,0,0,0,0,0,0,0,0,0,0,0,0,0,0,0,0,0,0,0,0,0,16,16,16,
16,0,0,0,0,0,0,0,0,0,0,0,0,0,0,0,0,0,0,0,0,0,0,0,0,0,0,0,0,0,0,0,0,0,0,0,0,0,16,16,
16,0,16,0,0,0,0,0,0,0,0,0,0,0,0,0,0,0,0,0,0,0,0,0,0,0,0,0,0,0,0,0,0,0,0,0,16,0,16,16,
16,16,0,0,0,0,0,0,0,0,0,0,0,0,0,0,0,0,0,0,0,0,0,0,0,0,0,0,0,0,0,0,0,0,0,0,0,0,0,16,
16,16,0,0,0,0,0,0,0,0,0,0,0,0,0,0,0,0,0,0,0,0,0,0,0,0,0,0,0,0,0,0,0,0,0,0,16,16,16,16,
16,0,0,16,0,0,0,0,0,0,0,0,0,0,0,0,0,0,0,0,0,0,0,0,0,0,0,0,0,0,0,0,0,0,0,0,0,16,16,16,
16,16,0,0,0,0,0,0,0,0,0,0,0,0,0,0,0,0,0,0,0,0,0,0,0,0,0,0,0,0,0,0,0,0,0,0,0,0,0,16,
16,0,16,0,0,0,0,0,0,0,0,0,0,0,0,0,0,0,0,0,0,0,0,0,0,0,0,0,0,0,0,0,0,0,0,0,0,0,0,16,
16,16,0,0,0,0,0,0,0,0,0,0,0,0,0,0,0,0,0,0,0,0,0,0,0,0,0,0,0,0,0,0,0,0,0,0,16,16,16,16,
16,16,0,0,0,0,0,0,0,0,0,0,0,0,0,0,0,0,0,0,0,0,0,0,0,0,0,0,0,0,0,0,0,0,0,0,0,0,0,16,
16,16,0,0,0,0,0,0,0,0,0,0,0,0,0,0,0,0,0,0,0,0,0,0,0,0,0,0,0,0,0,0,0,0,0,0,0,16,0,16,
16,16,16,0,0,0,0,0,0,0,0,0,0,0,0,0,0,0,0,0,0,0,0,0,0,0,0,0,0,0,0,0,0,0,0,0,0,0,0,16,
16,16,16,0,0,0,0,0,0,0,0,0,0,0,0,0,0,0,0,0,0,0,0,0,0,0,0,0,0,0,0,0,0,0,0,0,16,0,16,16,
16,0,16,16,0,0,0,0,0,0,0,0,0,0,0,0,0,0,0,0,0,0,0,0,0,0,0,0,0,0,0,0,0,0,0,0,0,0,0,16,
16,0,0,0,0,0,0,0,0,0,0,0,0,0,0,0,0,0,0,0,0,0,0,0,0,0,0,0,0,0,0,0,0,0,0,0,0,16,16,16,
16,0,0,16,0,0,0,0,0,0,0,0,0,0,0,0,0,0,0,0,0,0,0,0,0,0,0,0,0,0,0,0,0,0,0,0,0,0,0,16,
16,16,0,0,0,0,0,0,0,0,0,0,0,0,0,0,0,0,0,0,0,0,0,0,0,0,0,0,0,0,0,0,0,0,0,0,16,16,16,16,
16,16,0,0,0,0,0,0,0,0,0,0,0,0,0,0,0,0,0,0,0,0,0,0,0,0,0,0,0,0,0,0,0,0,0,0,16,0,16,16,
16,0,16,0,0,0,16,16,0,0,0,0,0,0,0,0,0,0,0,0,0,0,0,0,0,0,0,0,0,0,16,0,16,16,0,0,0,0,0,16,
16,16,0,16,16,0,16,0,16,0,16,16,16,16,16,16,0,16,0,0,0,16,0,0,16,0,16,0,16,16,16,16,0,16,0,0,0,0,16,16,
16,16,16,16,16,16,16,0,16,16,16,16,0,16,0,16,0,16,0,0,0,0,0,16,16,16,16,16,0,16,0,16,0,16,16,16,0,16,16,16,
16,16,16,16,16,16,16,16,16,16,16,16,16,16,16,16,16,16,0,0,0,16,16,16,16,16,16,16,16,16,16,16,16,16,16,16,16,16,16,16,
0,0,0,0,0,0,0,0,0,0,0,0,0,0,0,0,0,0,0,0,0,0,0,0,0,0,0,0,0,0,0,0,0,0,0,0,0,0,0,0
</data>
 </layer>
 <objectgroup id="5" name="Collisions" color="#ff0000">
  <object id="1" type="collision" x="0" y="16" width="32" height="48" />
  <object id="2" type="collision" x="64" y="16" width="32" height="16" />
  <object id="3" type="collision" x="128" y="16" width="32" height="32" />
  <object id="4" type="collision" x="192" y="16" width="16" height="16" />
  <object id="5" type="collision" x="224" y="16" width="96" height="16" />
  <object id="6" type="collision" x="384" y="16" width="48" height="16" />
  <object id="7" type="collision" x="480" y="16" width="16" height="48" />
  <object id="8" type="collision" x="512" y="16" width="48" height="16" />
  <object id="9" type="collision" x="592" y="16" width="16" height="16" />
  <object id="10" type="collision" x="624" y="16" width="16" height="752" />
  <object id="11" type="collision" x="48" y="32" width="16" height="16" />
  <object id="12" type="collision" x="80" y="32" width="48" height="16" />
  <object id="13" type="collision" x="176" y="32" width="16" height="16" />
  <object id="14" type="collision" x="224" y="32" width="16" height="16" />
  <object id="15" type="collision" x="256" y="32" width="16" height="16" />
  <object id="16" type="collision" x="304" y="32" width="32" height="16" />
  <object id="17" type="collision" x="400" y="32" width="16" height="16" />
  <object id="18" type="collision" x="432" y="32" width="16" height="32" />
  <object id="19" type="collision" x="496" y="32" width="16" height="32" />
  <object id="20" type="collision" x="192" y="48" width="32" height="16" />
  <object id="21" type="collision" x="288" y="48" width="16" height="16" />
  <object id="22" type="collision" x="416" y="48" width="16" height="16" />
  <object id="23" type="collision" x="512" y="48" width="16" height="16" />
  <object id="24" type="collision" x="544" y="48" width="32" height="16" />
  <object id="25" type="collision" x="592" y="48" width="16" height="48" />
  <object id="26" type="collision" x="0" y="64" width="16" height="704" />
  <object id="27" type="collision" x="608" y="64" width="16" height="64" />
  <object id="28" type="collision" x="16" y="80" width="16" height="32" />
  <object id="29" type="collision" x="32" y="96" width="16" height="48" />
  <object id="30" type="collision" x="48" y="144" width="16" height="16" />
  <object id="31" type="collision" x="448" y="144" width="176" height="16" />
  <object id="32" type="collision" x="448" y="160" width="16" height="64" />
  <object id="33" type="collision" x="560" y="160" width="64" height="16" />
  <object id="34" type="collision" x="48" y="176" width="16" height="32" />
  <object id="35" type="collision" x="480" y="176" width="16" height="16" />
  <object id="36" type="collision" x="528" y="176" width="16" height="16" />
  <object id="37" type="collision" x="560" y="176" width="32" height="32" />
  <object id="38" type="collision" x="16" y="192" width="16" height="16" />
  <object id="39" type="collision" x="608" y="192" width="16" height="16" />
  <object id="40" type="collision" x="560" y="208" width="16" height="64" />
  <object id="41" type="collision" x="592" y="208" width="16" height="16" />
  <object id="42" type="collision" x="16" y="224" width="48" height="16" />
  <object id="43" type="collision" x="528" y="224" width="16" height="16" />
  <object id="44" type="collision" x="608" y="224" width="16" height="16" />
  <object id="45" type="collision" x="16" y="240" width="16" height="64" />
  <object id="46" type="collision" x="448" y="240" width="16" height="16" />
  <object id="47" type="collision" x="592" y="240" width="16" height="32" />
  <object id="48" type="collision" x="32" y="256" width="16" height="48" />
  <object id="49" type="collision" x="480" y="256" width="48" height="16" />
  <object id="50" type="collision" x="544" y="256" width="16" height="16" />
  <object id="51" type="collision" x="608" y="256" width="16" height="16" />
  <object id="52" type="collision" x="48" y="272" width="16" height="16" />
  <object id="53" type="collision" x="608" y="288" width="16" height="16" />
  <object id="54" type="collision" x="288" y="304" width="16" height="16" />
  <object id="55" type="collision" x="576" y="304" width="16" height="112" />
  <object id="56" type="collision" x="16" y="320" width="272" height="80" />
  <object id="57" type="collision" x="336" y="320" width="240" height="80" />
  <object id="58" type="collision" x="592" y="320" width="32" height="80" />
  <object id="59" type="collision" x="32" y="400" width="16" height="16" />
  <object id="60" type="collision" x="208" y="400" width="16" height="16" />
  <object id="61" type="collision" x="592" y="400" width="16" height="32" />
  <object id="62" type="collision" x="48" y="416" width="16" height="16" />
  <object id="63" type="collision" x="608" y="416" width="16" height="48" />
  <object id="64" type="collision" x="32" y="448" width="16" height="16" />
  <object id="65" type="collision" x="576" y="448" width="16" height="16" />
  <object id="66" type="collision" x="16" y="464" width="16" height="32" />
  <object id="67" type="collision" x="576" y="480" width="48" height="16" />
  <object id="68" type="collision" x="48" y="496" width="16" height="16" />
  <object id="69" type="collision" x="592" y="496" width="32" height="16" />
  <object id="70" type="collision" x="16" y="512" width="16" height="16" />
  <object id="71" type="collision" x="32" y="528" width="16" height="16" />
  <object id="72" type="collision" x="16" y="544" width="16" height="80" />
  <object id="73" type="collision" x="576" y="544" width="48" height="16" />
  <object id="74" type="collision" x="592" y="576" width="16" height="16" />
  <object id="75" type="collision" x="32" y="592" width="16" height="48" />
  <object id="76" type="collision" x="576" y="608" width="16" height="16" />
  <object id="77" type="collision" x="608" y="608" width="16" height="16" />
  <object id="78" type="collision" x="48" y="624" width="16" height="16" />
  <object id="79" type="collision" x="592" y="640" width="32" height="16" />
  <object id="80" type="collision" x="48" y="656" width="16" height="16" />
  <object id="81" type="collision" x="16" y="672" width="16" height="32" />
  <object id="82" type="collision" x="576" y="672" width="48" height="16" />
  <object id="83" type="collision" x="576" y="688" width="16" height="16" />
  <object id="84" type="collision" x="608" y="688" width="16" height="16" />
  <object id="85" type="collision" x="32" y="704" width="16" height="16" />
  <object id="86" type="collision" x="96" y="704" width="32" height="16" />
  <object id="87" type="collision" x="480" y="704" width="16" height="32" />
  <object id="88" type="collision" x="512" y="704" width="32" height="16" />
  <object id="89" type="collision" x="16" y="720" width="16" height="48" />
  <object id="90" type="collision" x="48" y="720" width="32" height="48" />
  <object id="91" type="collision" x="96" y="720" width="16" height="48" />
  <object id="92" type="collision" x="128" y="720" width="16" height="48" />
  <object id="93" type="collision" x="160" y="720" width="96" height="16" />
  <object id="94" type="collision" x="272" y="720" width="16" height="48" />
  <object id="95" type="collision" x="336" y="720" width="16" height="16" />
  <object id="96" type="collision" x="384" y="720" width="16" height="48" />
  <object id="97" type="collision" x="416" y="720" width="16" height="48" />
  <object id="98" type="collision" x="448" y="720" width="32" height="16" />
  <object id="99" type="collision" x="496" y="720" width="16" height="48" />
  <object id="100" type="collision" x="528" y="720" width="16" height="48" />
  <object id="101" type="collision" x="608" y="720" width="16" height="48" />
  <object id="102" type="collision" x="32" y="736" width="16" height="32" />
  <object id="103" type="collision" x="80" y="736" width="16" height="32" />
  <object id="104" type="collision" x="144" y="736" width="48" height="32" />
  <object id="105" type="collision" x="208" y="736" width="16" height="32" />
  <object id="106" type="collision" x="240" y="736" width="16" height="32" />
  <object id="107" type="collision" x="368" y="736" width="16" height="32" />
  <object id="108" type="collision" x="400" y="736" width="16" height="32" />
  <object id="109" type="collision" x="432" y="736" width="16" height="32" />
  <object id="110" type="collision" x="464" y="736" width="16" height="32" />
  <object id="111" type="collision" x="544" y="736" width="32" height="32" />
  <object id="112" type="collision" x="592" y="736" width="16" height="32" />
  <object id="113" type="collision" x="112" y="752" width="16" height="16" />
  <object id="114" type="collision" x="192" y="752" width="16" height="16" />
  <object id="115" type="collision" x="224" y="752" width="16" height="16" />
  <object id="116" type="collision" x="256" y="752" width="16" height="16" />
  <object id="117" type="collision" x="336" y="752" width="32" height="16" />
  <object id="118" type="collision" x="448" y="752" width="16" height="16" />
  <object id="119" type="collision" x="480" y="752" width="16" height="16" />
  <object id="120" type="collision" x="512" y="752" width="16" height="16" />
  <object id="121" type="collision" x="576" y="752" width="16" height="16" />
 </objectgroup>
 <objectgroup id="6" name="Events" color="#ffff00">
  <object id="122" name="south_to_fernwake" type="event" x="304" y="752" width="16" height="16">
   <properties>
    <property name="act10" value="transition_teleport player,fernwake_threshold.tmx,6,1,0.3" />
    <property name="act20" value="char_face player,down" />
    <property name="cond10" value="is char_at player" />
    <property name="cond20" value="is char_facing player,down" />
   </properties>
  </object>
  <object id="123" name="north_to_brasshaven" type="event" x="352" y="0" width="16" height="16">
   <properties>
    <property name="act10" value="transition_teleport player,brasshaven_threshold.tmx,6,8,0.3" />
    <property name="act20" value="char_face player,up" />
    <property name="cond10" value="is char_at player" />
    <property name="cond20" value="is char_facing player,up" />
   </properties>
  </object>
  <object id="124" name="alder_encounters" type="event" x="64" y="384" width="160" height="160">
   <properties>
    <property name="act1" value="random_encounter glasswind_meadow,9" />
   </properties>
  </object>
  <object id="125" name="north_meadow_encounters" type="event" x="352" y="96" width="192" height="144">
   <properties>
    <property name="act1" value="random_encounter glasswind_meadow,9" />
   </properties>
  </object>
  <object id="126" name="Create glasswind_warden" type="event" x="480" y="240" width="16" height="16">
   <properties>
    <property name="act1" value="create_npc glasswind_warden,30,15" />
    <property name="cond1" value="not char_exists glasswind_warden" />
   </properties>
  </object>
  <object id="127" name="Talk glasswind_warden" type="event" x="480" y="240" width="16" height="16">
   <properties>
    <property name="act1" value="char_talk glasswind_warden,pre_battle" />
    <property name="behav1" value="talk glasswind_warden" />
   </properties>
  </object>
  <object id="128" name="Create glasswind_fisher" type="event" x="192" y="400" width="16" height="16">
   <properties>
    <property name="act1" value="create_npc glasswind_fisher,12,25" />
    <property name="cond1" value="not char_exists glasswind_fisher" />
   </properties>
  </object>
  <object id="129" name="Talk glasswind_fisher" type="event" x="192" y="400" width="16" height="16">
   <properties>
    <property name="act1" value="char_talk glasswind_fisher,pre_battle" />
    <property name="behav1" value="talk glasswind_fisher" />
   </properties>
  </object>
  <object id="130" name="Create glasswind_scout" type="event" x="384" y="192" width="16" height="16">
   <properties>
    <property name="act1" value="create_npc glasswind_scout,24,12" />
    <property name="cond1" value="not char_exists glasswind_scout" />
   </properties>
  </object>
  <object id="131" name="Talk glasswind_scout" type="event" x="384" y="192" width="16" height="16">
   <properties>
    <property name="act1" value="char_talk glasswind_scout,pre_battle" />
    <property name="behav1" value="talk glasswind_scout" />
    <property name="act2" value="add_monster squabbit,8,glasswind_scout,5,10" />
    <property name="act3" value="start_battle player,glasswind_scout" />
    <property name="act4" value="char_talk glasswind_scout,post_battle_lose" />
    <property name="cond1" value="not battle_outcome player,won,glasswind_scout" />
   </properties>
  </object>
  <object id="132" name="Create glasswind_gardener" type="event" x="192" y="608" width="16" height="16">
   <properties>
    <property name="act1" value="create_npc glasswind_gardener,12,38" />
    <property name="cond1" value="not char_exists glasswind_gardener" />
   </properties>
  </object>
  <object id="133" name="Talk glasswind_gardener" type="event" x="192" y="608" width="16" height="16">
   <properties>
    <property name="act1" value="char_talk glasswind_gardener,pre_battle" />
    <property name="behav1" value="talk glasswind_gardener" />
    <property name="act2" value="add_monster shybulb,8,glasswind_gardener,5,10" />
    <property name="act3" value="add_monster elofly,8,glasswind_gardener,5,10" />
    <property name="act4" value="start_battle player,glasswind_gardener" />
    <property name="act5" value="char_talk glasswind_gardener,post_battle_lose" />
    <property name="cond1" value="not battle_outcome player,won,glasswind_gardener" />
   </properties>
  </object>
  <object id="134" name="inspect_singing_span" type="event" x="336" y="352" width="16" height="16">
   <properties>
    <property name="act1" value="translated_dialog The old timbers hum beneath your palm. The note rises toward Brasshaven." />
    <property name="act2" value="set_variable glasswind_bridge_heard:yes" />
    <property name="cond10" value="is char_facing_tile player" />
    <property name="cond20" value="is button_pressed INTERACT" />
   </properties>
  </object>
  <object id="135" name="river_glass_cache" type="event" x="112" y="304" width="16" height="16">
   <properties>
    <property name="act1" value="translated_dialog You find a gap in the alder trees aligns with a pale stone at the waterline." />
    <property name="act2" value="add_item potion" />
    <property name="act3" value="set_variable river_glass_cache:found" />
    <property name="cond10" value="is char_facing_tile player" />
    <property name="cond20" value="is button_pressed INTERACT" />
    <property name="cond1" value="not variable_set river_glass_cache:found" />
   </properties>
  </object>
  <object id="136" name="Environment" type="event" x="0" y="0" width="16" height="16">
   <properties>
    <property name="act1" value="set_environment grass" />
    <property name="cond1" value="not environment_is grass" />
   </properties>
  </object>
  <object id="137" name="Give experiment starter" type="event" x="0" y="0" width="16" height="16">
   <properties>
    <property name="act1" value="add_monster cardiling,7" />
    <property name="act2" value="set_variable glasswind_route_milestone_starter_given:yes" />
    <property name="cond1" value="not variable_set glasswind_route_milestone_starter_given:yes" />
   </properties>
  </object>
 </objectgroup>
</map>
