<?xml version="1.0" encoding="UTF-8"?>
<map version="1.10" tiledversion="1.10.2" orientation="orthogonal" renderorder="right-down" width="34" height="30" tilewidth="16" tileheight="16" infinite="0" nextlayerid="7" nextobjectid="1000">
 <tileset firstgid="1" source="../../tuxemon/gfx/tilesets/prototyping_outdoor.tsx" />
 <layer id="1" name="Ground" width="34" height="30">
  <data encoding="csv">
34,34,34,34,34,34,34,34,34,34,34,34,34,35,34,34,34,34,35,34,34,34,34,34,34,34,34,34,34,34,34,34,34,34,
34,34,34,34,34,34,37,34,34,34,34,34,34,34,34,34,34,34,34,34,34,34,34,34,34,34,34,35,34,34,34,34,34,34,
34,34,34,34,34,34,34,34,34,34,34,37,34,34,34,34,34,34,34,34,34,35,34,34,34,34,34,34,34,34,34,34,34,34,
34,34,34,34,35,34,34,34,34,34,34,37,34,34,34,34,34,34,34,34,34,34,34,34,34,34,34,34,34,35,34,34,34,34,
37,34,34,34,34,34,34,35,34,35,34,34,34,34,34,34,34,34,34,34,34,34,34,34,34,35,34,34,34,34,34,34,34,34,
34,34,34,34,37,34,34,34,34,34,34,34,34,34,34,34,34,34,34,34,34,34,34,34,34,34,34,34,34,34,34,34,37,34,
34,34,34,34,34,37,34,34,34,34,34,34,34,34,34,34,34,34,37,35,34,34,34,34,35,34,34,37,34,34,34,34,37,34,
34,34,34,34,34,34,34,34,34,34,34,34,34,34,34,34,34,34,34,34,34,34,34,34,34,34,34,37,34,34,34,34,34,34,
34,34,34,34,34,34,34,34,34,34,34,34,34,34,34,34,34,34,34,34,34,34,34,34,34,34,34,34,37,34,34,34,34,34,
34,34,34,34,34,34,34,34,34,34,34,34,34,34,34,34,34,35,34,34,34,34,37,34,34,34,34,34,34,34,34,34,34,34,
34,34,35,34,34,34,34,34,34,34,34,34,34,34,34,34,34,34,34,34,34,34,34,34,34,34,34,34,34,34,34,34,34,34,
34,34,35,34,34,34,34,34,34,34,34,34,34,34,34,34,34,34,34,34,37,34,34,34,34,34,34,34,34,34,34,34,34,34,
34,34,34,34,34,34,34,34,34,34,34,34,34,34,34,34,34,34,34,34,34,34,34,34,34,34,34,34,34,34,34,34,34,34,
34,34,34,34,34,34,37,34,37,34,34,34,34,34,34,37,34,34,34,34,34,34,34,37,34,34,34,34,34,34,34,34,34,34,
34,34,34,34,34,34,34,34,34,34,34,34,34,34,37,34,34,34,34,34,34,34,34,34,35,34,34,34,34,34,34,34,34,34,
34,34,34,34,34,34,34,34,34,34,34,34,34,34,34,34,34,34,37,34,34,37,34,34,34,34,34,34,34,37,34,34,34,34,
34,34,34,34,34,34,34,34,34,34,34,34,34,34,34,34,34,34,34,34,34,34,34,34,34,34,34,34,34,34,34,34,34,34,
34,34,34,34,34,34,34,34,34,34,34,34,37,34,34,34,34,35,34,34,34,34,34,34,35,34,34,34,35,34,34,34,34,34,
34,34,34,34,34,34,34,34,34,34,34,34,34,34,34,34,34,34,34,34,34,34,34,34,34,34,34,34,34,34,34,35,34,34,
34,34,34,34,34,34,34,34,34,34,34,37,34,34,34,34,34,34,34,34,35,34,34,34,34,34,34,34,34,34,34,35,34,34,
37,34,34,34,37,34,37,34,34,34,34,34,34,34,34,34,37,34,34,34,34,34,34,34,34,35,34,34,34,35,35,34,34,34,
34,34,34,34,34,34,34,34,34,37,34,34,34,35,34,34,35,34,34,34,34,34,34,34,34,34,34,34,34,34,34,34,34,34,
34,34,34,34,34,34,34,34,34,34,34,34,34,34,34,34,34,34,37,34,34,34,34,34,34,34,34,34,34,34,34,35,34,34,
34,34,34,34,34,34,34,34,34,34,34,34,34,34,34,34,34,34,34,34,34,34,34,34,34,34,34,34,34,34,34,34,34,34,
34,34,34,34,34,34,34,34,34,34,34,34,34,34,34,34,34,34,34,34,34,34,34,34,34,35,34,34,34,34,34,34,34,34,
34,34,34,34,34,34,34,34,34,37,34,34,34,34,34,34,34,34,34,34,34,34,34,34,34,34,34,34,34,34,34,34,34,34,
37,34,34,34,34,34,34,34,34,34,34,34,34,34,34,34,34,34,34,34,34,37,34,35,34,34,34,34,34,34,35,34,34,34,
37,34,34,34,34,34,34,34,34,34,34,34,34,34,34,34,34,34,34,34,34,34,34,34,34,34,34,34,34,34,34,34,34,34,
35,34,34,34,37,34,34,34,34,34,34,34,34,34,34,34,37,34,34,34,34,34,34,34,34,34,34,35,34,34,37,34,34,34,
34,34,34,34,34,34,34,34,34,34,34,34,34,34,34,34,34,34,34,34,34,35,34,34,34,34,34,34,34,34,34,34,34,34
</data>
 </layer>
 <layer id="2" name="Terrain" width="34" height="30">
  <data encoding="csv">
0,0,0,0,0,0,0,0,0,0,0,0,0,0,0,0,0,0,0,0,0,194,194,194,0,0,0,0,0,0,0,0,0,0,
0,0,0,0,0,0,0,0,0,0,0,0,0,0,0,0,0,0,0,0,0,194,194,194,0,0,0,0,0,0,0,0,0,0,
0,0,0,0,0,0,0,0,0,0,0,0,0,0,0,0,0,0,0,0,0,0,194,194,194,0,0,0,0,0,0,0,0,0,
0,0,0,0,0,0,0,0,0,0,0,0,0,0,0,0,0,0,0,0,0,0,194,194,194,0,0,0,0,0,0,0,0,0,
0,0,0,0,0,0,0,0,0,0,0,0,0,0,0,0,0,0,0,0,0,0,194,194,194,0,0,0,0,0,0,0,0,0,
0,0,0,0,0,0,0,0,0,0,0,0,0,0,0,0,0,0,0,0,0,0,194,194,194,0,0,0,0,0,0,0,0,0,
0,0,0,0,0,0,0,0,0,0,0,0,0,0,0,0,0,0,0,0,0,0,0,194,194,194,0,0,0,0,0,0,0,0,
0,0,0,0,0,0,0,0,0,0,0,0,0,0,0,0,0,0,0,0,0,0,0,194,194,194,0,0,0,0,0,0,0,0,
0,0,0,0,0,0,0,0,0,0,0,0,0,0,0,0,0,0,0,0,0,0,194,194,194,0,0,0,0,0,0,0,0,0,
0,0,0,0,0,0,0,0,0,0,0,0,0,0,0,0,0,0,0,0,0,194,194,194,0,0,0,0,0,0,0,0,0,0,
0,0,0,0,0,0,0,0,0,0,0,0,0,0,0,0,0,0,0,0,0,194,194,194,0,0,0,194,194,194,194,194,194,0,
0,0,0,0,0,0,0,0,0,0,0,0,0,0,0,0,0,0,0,0,194,194,194,194,194,194,194,0,0,0,0,0,0,0,
0,0,0,0,0,0,0,0,0,0,0,0,0,0,0,0,0,0,0,194,194,194,194,0,0,0,0,0,0,0,0,0,0,0,
0,0,0,0,0,0,0,0,0,0,0,0,0,0,0,0,0,0,0,194,194,194,0,0,0,0,0,0,0,0,0,0,0,0,
0,0,0,0,0,0,0,0,0,0,0,0,0,0,0,0,0,0,194,194,194,0,0,0,0,0,0,0,0,0,0,0,0,0,
0,0,0,0,0,0,0,0,0,0,0,0,0,0,0,0,0,0,194,194,194,0,0,0,0,0,0,0,0,0,0,0,0,0,
0,0,0,0,0,0,0,0,0,0,0,0,0,0,0,0,194,194,194,194,0,0,0,0,0,0,0,0,0,0,0,0,0,0,
0,0,0,0,0,0,0,0,194,194,194,194,194,194,194,194,0,194,194,194,0,0,0,0,0,0,0,0,0,0,0,0,0,0,
0,0,0,0,0,0,0,0,194,0,0,0,0,0,0,0,0,0,194,194,194,0,0,0,0,0,0,0,0,0,0,0,0,0,
0,0,0,0,0,0,0,0,194,0,0,0,0,0,0,0,0,0,194,194,194,0,0,0,0,0,0,0,0,0,0,0,0,0,
0,0,0,0,0,0,0,0,194,0,0,0,0,0,0,0,0,0,0,194,194,194,0,0,0,0,0,0,0,0,0,0,0,0,
0,0,0,0,0,0,0,0,194,0,0,0,0,0,0,194,194,194,194,194,194,194,0,0,0,0,0,0,0,0,0,0,0,0,
0,0,0,0,0,0,0,0,194,0,0,0,0,194,194,0,0,0,194,194,194,0,0,0,0,0,0,0,0,0,0,0,0,0,
0,0,0,0,0,0,0,0,194,0,194,194,194,0,0,0,0,0,194,194,194,0,0,0,0,0,0,0,0,0,0,0,0,0,
0,0,0,0,0,0,0,0,194,194,0,0,0,0,0,0,0,194,194,194,0,0,0,0,0,0,0,0,0,0,0,0,0,0,
0,0,0,0,0,0,0,0,0,0,0,0,0,0,0,0,194,194,194,0,0,0,0,0,0,0,0,0,0,0,0,0,0,0,
0,0,0,0,0,0,0,0,0,0,0,0,0,0,0,0,194,194,194,0,0,0,0,0,0,0,0,0,0,0,0,0,0,0,
0,0,0,0,0,0,0,0,0,0,0,0,0,0,0,0,194,194,194,0,0,0,0,0,0,0,0,0,0,0,0,0,0,0,
0,0,0,0,0,0,0,0,0,0,0,0,0,0,0,0,194,194,194,0,0,0,0,0,0,0,0,0,0,0,0,0,0,0,
0,0,0,0,0,0,0,0,0,0,0,0,0,0,0,0,194,194,194,0,0,0,0,0,0,0,0,0,0,0,0,0,0,0
</data>
 </layer>
 <layer id="3" name="Objects" width="34" height="30">
  <data encoding="csv">
0,0,0,0,0,0,0,0,0,0,0,0,0,0,0,0,0,0,0,0,0,0,0,0,0,0,0,0,0,0,0,0,0,0,
48,0,48,48,48,0,0,0,0,0,0,48,0,0,0,0,0,48,48,0,0,0,0,0,0,0,48,48,0,0,0,48,48,48,
48,0,0,0,0,0,0,0,0,0,0,0,0,0,0,0,0,0,0,0,0,0,0,0,0,0,0,0,0,0,0,0,48,48,
48,0,0,0,0,0,0,0,0,0,0,0,0,0,0,0,0,0,0,0,0,0,0,0,0,0,0,0,0,0,0,0,0,48,
48,0,0,0,0,0,0,0,0,0,0,0,0,0,0,0,0,0,0,0,0,0,0,0,0,0,0,0,0,0,0,0,0,48,
48,0,0,0,0,0,0,0,0,0,0,0,0,0,0,0,0,0,0,0,0,0,0,0,0,0,0,0,0,0,0,0,0,48,
48,0,0,0,0,0,0,0,0,0,0,0,0,0,0,0,0,0,0,0,0,0,0,0,0,0,0,0,0,0,0,0,48,48,
48,0,0,0,0,0,0,0,0,0,0,0,0,0,0,0,0,0,0,0,0,0,0,0,0,0,0,0,0,0,0,0,0,48,
48,0,0,0,0,0,0,0,0,0,0,0,0,0,0,0,0,0,0,0,0,0,0,0,0,0,0,0,0,0,0,371,0,48,
48,48,0,0,0,0,0,0,0,0,0,0,0,0,0,0,0,0,0,0,0,0,0,0,0,0,0,0,0,0,0,0,0,48,
48,0,0,0,0,0,0,0,0,0,0,0,0,0,0,0,0,0,0,0,0,0,0,0,0,0,0,0,0,0,0,0,0,48,
48,0,0,0,0,0,0,0,0,0,0,0,0,0,0,0,0,0,0,0,0,0,0,0,0,0,0,0,0,0,0,0,0,48,
48,48,0,0,0,0,0,0,0,0,0,0,0,0,0,0,0,0,0,0,0,0,0,0,0,0,0,0,0,0,0,0,0,48,
48,0,0,0,979,980,981,982,0,979,980,981,982,0,0,0,0,0,0,0,0,0,0,0,0,0,0,0,0,0,0,0,0,48,
48,0,0,0,0,0,0,0,0,0,0,0,0,0,51,51,0,0,0,0,0,0,0,0,0,0,0,0,0,0,0,0,48,48,
48,0,0,0,0,0,0,0,0,0,0,0,0,0,0,0,0,0,0,0,0,0,0,0,0,0,0,0,0,0,0,0,48,48,
48,0,0,0,0,0,0,0,0,0,0,0,0,0,0,0,0,0,0,0,0,371,0,0,0,0,0,0,0,0,0,0,0,48,
48,0,0,0,0,0,0,0,0,0,0,0,0,0,0,0,0,0,0,0,0,0,0,0,0,0,0,0,0,0,0,0,0,48,
48,0,0,0,0,0,0,0,0,0,0,0,0,0,0,0,0,0,0,0,0,0,0,0,0,0,979,980,981,982,0,476,0,48,
48,0,0,0,0,0,0,0,0,0,0,0,0,0,0,0,0,0,0,0,0,0,0,0,0,0,0,0,0,0,0,0,0,48,
48,0,0,243,211,211,211,211,0,211,211,211,243,0,0,0,0,0,0,0,0,0,0,0,0,0,0,0,0,0,0,0,0,48,
48,0,0,243,0,0,0,0,0,0,0,0,243,0,0,0,0,0,0,0,0,0,0,0,0,0,0,0,0,0,0,0,0,48,
48,0,0,243,0,0,0,0,0,0,0,0,243,0,0,0,0,0,0,0,0,0,0,0,0,0,0,0,0,0,0,0,48,48,
48,0,0,243,0,0,0,0,0,0,0,0,0,0,0,0,0,0,0,0,0,0,0,0,0,0,0,0,0,0,0,0,48,48,
48,0,0,243,0,0,0,0,0,0,0,0,243,0,0,0,0,0,0,0,0,0,0,0,0,0,0,0,0,0,0,0,0,48,
48,0,0,243,0,0,0,0,0,0,0,0,243,0,0,0,0,0,0,0,0,0,0,0,0,0,0,0,0,0,0,0,48,48,
48,0,0,243,0,0,0,0,0,0,0,0,243,0,0,0,0,0,0,0,0,0,0,0,0,0,0,0,0,0,0,0,0,48,
48,0,0,243,211,211,211,211,0,211,211,211,243,0,0,0,0,0,0,0,0,0,0,0,0,0,979,980,981,982,0,0,0,48,
48,0,48,0,0,0,0,48,48,0,0,0,0,0,0,0,0,0,0,0,0,0,0,0,0,0,0,0,0,0,0,0,0,48,
48,48,48,48,48,48,48,48,48,48,48,48,48,48,48,48,0,0,0,48,48,48,48,48,48,48,48,48,48,48,48,48,48,48
</data>
 </layer>
 <layer id="4" name="Above Player" width="34" height="30">
  <data encoding="csv">
16,0,16,16,16,0,0,0,0,0,0,16,0,0,0,0,0,16,16,0,0,0,0,0,0,0,16,16,0,0,0,16,16,16,
16,0,0,0,0,0,0,0,0,0,0,0,0,0,0,0,0,0,0,0,0,0,0,0,0,0,0,0,0,0,0,0,16,16,
16,0,0,0,0,0,0,0,0,0,0,0,0,0,0,0,0,0,0,0,0,0,0,0,0,0,0,0,0,0,0,0,0,16,
16,0,0,0,0,0,0,0,0,0,0,0,0,0,0,0,0,0,0,0,0,0,0,0,0,0,0,0,0,0,0,0,0,16,
16,0,0,0,0,0,0,0,0,0,0,0,0,0,0,0,0,0,0,0,0,0,0,0,0,0,0,0,0,0,0,0,0,16,
16,0,0,0,0,0,0,0,0,0,0,0,0,0,0,0,0,0,0,0,0,0,0,0,0,0,0,0,0,0,0,0,16,16,
16,0,0,0,0,0,0,0,0,0,0,0,0,0,0,0,0,0,0,0,0,0,0,0,0,0,0,0,0,0,0,307,0,16,
16,0,0,0,0,0,0,0,0,0,0,0,0,0,0,0,0,0,0,0,0,0,0,0,0,0,0,0,0,0,0,339,0,16,
16,16,0,0,0,0,0,0,0,0,0,0,0,0,0,0,0,0,0,0,0,0,0,0,0,0,0,0,0,0,0,0,0,16,
16,0,0,0,851,852,853,854,0,851,852,853,854,0,0,0,0,0,0,0,0,0,0,0,0,0,0,0,0,0,0,0,0,16,
16,0,0,0,883,884,885,886,0,883,884,885,886,0,0,0,0,0,0,0,0,0,0,0,0,0,0,0,0,0,0,0,0,16,
16,16,0,0,915,916,917,918,0,915,916,917,918,0,0,0,0,0,0,0,0,0,0,0,0,0,0,0,0,0,0,0,0,16,
16,0,0,0,947,948,949,950,0,947,948,949,950,0,0,0,0,0,0,0,0,0,0,0,0,0,0,0,0,0,0,0,0,16,
16,0,0,0,0,0,0,0,0,0,0,0,0,0,0,0,0,0,0,0,0,0,0,0,0,0,0,0,0,0,0,0,16,16,
16,0,0,0,0,0,0,0,0,0,0,0,0,0,0,0,0,0,0,0,0,307,0,0,0,0,851,852,853,854,0,0,16,16,
16,0,0,0,0,0,0,0,0,0,0,0,0,0,0,0,0,0,0,0,0,339,0,0,0,0,883,884,885,886,0,0,0,16,
16,0,0,0,0,0,0,0,0,0,0,0,0,0,0,0,0,0,0,0,0,0,0,0,0,0,915,916,917,918,0,0,0,16,
16,0,0,0,0,0,0,0,0,0,0,0,0,0,0,0,0,0,0,0,0,0,0,0,0,0,947,948,949,950,0,0,0,16,
16,0,0,0,0,0,0,0,0,0,0,0,0,0,0,0,0,0,0,0,0,0,0,0,0,0,0,0,0,0,0,0,0,16,
16,0,0,0,0,0,0,0,0,0,0,0,0,0,0,0,0,0,0,0,0,0,0,0,0,0,0,0,0,0,0,0,0,16,
16,0,0,0,0,0,0,0,0,0,0,0,0,0,0,0,0,0,0,0,0,0,0,0,0,0,0,0,0,0,0,0,0,16,
16,0,0,0,0,0,0,0,0,0,0,0,0,0,0,0,0,0,0,0,0,0,0,0,0,0,0,0,0,0,0,0,16,16,
16,0,0,0,0,0,0,0,0,0,0,0,0,0,0,0,0,0,0,0,0,0,0,0,0,0,0,0,0,0,0,0,16,16,
16,0,0,0,0,0,0,0,0,0,0,0,0,0,0,0,0,0,0,0,0,0,0,0,0,0,851,852,853,854,0,0,0,16,
16,0,0,0,0,0,0,0,0,0,0,0,0,0,0,0,0,0,0,0,0,0,0,0,0,0,883,884,885,886,0,0,16,16,
16,0,0,0,0,0,0,0,0,0,0,0,0,0,0,0,0,0,0,0,0,0,0,0,0,0,915,916,917,918,0,0,0,16,
16,0,0,0,0,0,0,0,0,0,0,0,0,0,0,0,0,0,0,0,0,0,0,0,0,0,947,948,949,950,0,0,0,16,
16,0,16,0,0,0,0,16,16,0,0,0,0,0,0,0,0,0,0,0,0,0,0,0,0,0,0,0,0,0,0,0,0,16,
16,16,16,16,16,16,16,16,16,16,16,16,16,16,16,16,0,0,0,16,16,16,16,16,16,16,16,16,16,16,16,16,16,16,
0,0,0,0,0,0,0,0,0,0,0,0,0,0,0,0,0,0,0,0,0,0,0,0,0,0,0,0,0,0,0,0,0,0
</data>
 </layer>
 <objectgroup id="5" name="Collisions" color="#ff0000">
  <object id="1" type="collision" x="0" y="16" width="16" height="464" />
  <object id="2" type="collision" x="32" y="16" width="48" height="16" />
  <object id="3" type="collision" x="176" y="16" width="16" height="16" />
  <object id="4" type="collision" x="272" y="16" width="32" height="16" />
  <object id="5" type="collision" x="416" y="16" width="32" height="16" />
  <object id="6" type="collision" x="496" y="16" width="48" height="16" />
  <object id="7" type="collision" x="512" y="32" width="32" height="16" />
  <object id="8" type="collision" x="528" y="48" width="16" height="432" />
  <object id="9" type="collision" x="512" y="96" width="16" height="16" />
  <object id="10" type="collision" x="496" y="128" width="16" height="16" />
  <object id="11" type="collision" x="16" y="144" width="16" height="16" />
  <object id="12" type="collision" x="64" y="144" width="64" height="80" />
  <object id="13" type="collision" x="144" y="144" width="64" height="80" />
  <object id="14" type="collision" x="16" y="192" width="16" height="16" />
  <object id="15" type="collision" x="224" y="224" width="32" height="16" />
  <object id="16" type="collision" x="416" y="224" width="64" height="80" />
  <object id="17" type="collision" x="512" y="224" width="16" height="32" />
  <object id="18" type="collision" x="336" y="256" width="16" height="16" />
  <object id="19" type="collision" x="48" y="320" width="80" height="16" />
  <object id="20" type="collision" x="144" y="320" width="64" height="16" />
  <object id="21" type="collision" x="48" y="336" width="16" height="112" />
  <object id="22" type="collision" x="192" y="336" width="16" height="32" />
  <object id="23" type="collision" x="512" y="352" width="16" height="32" />
  <object id="24" type="collision" x="416" y="368" width="64" height="80" />
  <object id="25" type="collision" x="192" y="384" width="16" height="64" />
  <object id="26" type="collision" x="512" y="400" width="16" height="16" />
  <object id="27" type="collision" x="64" y="432" width="64" height="16" />
  <object id="28" type="collision" x="144" y="432" width="48" height="16" />
  <object id="29" type="collision" x="32" y="448" width="16" height="32" />
  <object id="30" type="collision" x="112" y="448" width="32" height="32" />
  <object id="31" type="collision" x="16" y="464" width="16" height="16" />
  <object id="32" type="collision" x="48" y="464" width="64" height="16" />
  <object id="33" type="collision" x="144" y="464" width="112" height="16" />
  <object id="34" type="collision" x="304" y="464" width="224" height="16" />
 </objectgroup>
 <objectgroup id="6" name="Events" color="#ffff00">
  <object id="35" name="r2_village_to_south" type="event" x="272" y="464" width="16" height="16">
   <properties>
    <property name="act10" value="transition_teleport player,r2_south_route.tmx,18,1,0.3" />
    <property name="act20" value="char_face player,down" />
    <property name="cond10" value="is char_at player" />
    <property name="cond20" value="is char_facing player,down" />
   </properties>
  </object>
  <object id="36" name="r2_village_to_pass" type="event" x="352" y="0" width="16" height="16">
   <properties>
    <property name="act10" value="transition_teleport player,r2_highland_pass.tmx,14,34,0.3" />
    <property name="act20" value="char_face player,up" />
    <property name="cond10" value="is char_at player" />
    <property name="cond20" value="is char_facing player,up" />
   </properties>
  </object>
  <object id="37" name="r2_village_encounters" type="event" x="48" y="320" width="160" height="128">
   <properties>
    <property name="act1" value="random_encounter r2_village_ecology,6" />
   </properties>
  </object>
  <object id="38" name="Create r2_bell_keeper" type="event" x="304" y="272" width="16" height="16">
   <properties>
    <property name="act1" value="create_npc r2_bell_keeper,19,17" />
    <property name="cond1" value="not char_exists r2_bell_keeper" />
   </properties>
  </object>
  <object id="39" name="Talk r2_bell_keeper" type="event" x="304" y="272" width="16" height="16">
   <properties>
    <property name="act1" value="char_talk r2_bell_keeper,pre_battle" />
    <property name="behav1" value="talk r2_bell_keeper" />
   </properties>
  </object>
  <object id="40" name="Create r2_gardener" type="event" x="144" y="352" width="16" height="16">
   <properties>
    <property name="act1" value="create_npc r2_gardener,9,22" />
    <property name="cond1" value="not char_exists r2_gardener" />
   </properties>
  </object>
  <object id="41" name="Talk r2_gardener" type="event" x="144" y="352" width="16" height="16">
   <properties>
    <property name="act1" value="char_talk r2_gardener,pre_battle" />
    <property name="behav1" value="talk r2_gardener" />
   </properties>
  </object>
  <object id="42" name="r2_read_bell_plinth" type="event" x="336" y="256" width="16" height="16">
   <properties>
    <property name="act1" value="translated_dialog The inscription lists three slide warnings and the year the quarry closed." />
    <property name="act2" value="set_variable r2_bell_history:read" />
    <property name="cond21" value="not variable_set r2_bell_history:read" />
    <property name="cond10" value="is char_facing_tile player" />
    <property name="cond20" value="is button_pressed INTERACT" />
   </properties>
  </object>
  <object id="43" name="r2_village_shortcut_locked" type="event" x="496" y="128" width="16" height="16">
   <properties>
    <property name="act1" value="translated_dialog The old counterweight gate is down. Its cable climbs toward the quarry." />
    <property name="cond21" value="not variable_set r2_shortcut:open" />
    <property name="cond10" value="is char_facing_tile player" />
    <property name="cond20" value="is button_pressed INTERACT" />
   </properties>
  </object>
  <object id="44" name="r2_village_shortcut_open" type="event" x="496" y="128" width="16" height="16">
   <properties>
    <property name="act1" value="translated_dialog The raised counterweight opens the ridge stair." />
    <property name="act2" value="transition_teleport player,r2_highland_pass.tmx,5,30,0.3" />
    <property name="act3" value="char_face player,right" />
    <property name="cond21" value="is variable_set r2_shortcut:open" />
    <property name="cond10" value="is char_facing_tile player" />
    <property name="cond20" value="is button_pressed INTERACT" />
   </properties>
  </object>
  <object id="45" name="Environment" type="event" x="0" y="0" width="16" height="16">
   <properties>
    <property name="act1" value="set_environment grass" />
    <property name="cond1" value="not environment_is grass" />
   </properties>
  </object>
 </objectgroup>
</map>
