<?xml version="1.0" encoding="UTF-8"?>
<map version="1.10" tiledversion="1.10.2" orientation="orthogonal" renderorder="right-down" width="36" height="34" tilewidth="16" tileheight="16" infinite="0" nextlayerid="7" nextobjectid="1000">
 <tileset firstgid="1" source="../../tuxemon/gfx/tilesets/prototyping_outdoor.tsx" />
 <layer id="1" name="Ground" width="36" height="34">
  <data encoding="csv">
37,37,37,37,37,37,37,37,37,37,37,37,37,34,37,37,37,37,37,37,37,37,37,37,37,37,37,37,37,37,37,37,37,37,37,37,
37,37,37,37,37,37,37,37,37,37,37,37,37,37,37,37,37,34,37,37,37,37,37,37,37,37,37,37,37,37,37,37,37,37,37,37,
37,37,37,37,37,37,37,37,37,35,37,35,37,37,37,37,34,37,37,37,35,37,37,37,37,37,37,37,37,37,35,37,37,37,37,37,
37,37,37,37,37,37,37,37,37,37,37,37,37,37,37,37,37,37,37,37,35,37,37,37,37,37,37,37,37,37,37,37,34,37,37,37,
37,37,37,37,37,37,37,37,37,37,37,37,34,37,37,37,37,37,37,37,37,37,37,37,37,37,37,37,37,34,37,37,37,37,37,35,
37,37,37,37,37,37,34,37,37,37,37,37,37,37,37,37,37,37,37,37,37,37,37,37,37,37,37,37,37,37,37,37,37,37,37,37,
37,37,37,37,37,37,37,37,37,37,37,37,37,37,37,37,37,37,37,37,37,37,34,37,35,37,37,37,37,37,37,37,37,37,37,37,
37,37,37,37,37,37,37,37,37,37,37,37,37,37,37,37,37,37,37,37,37,37,37,35,37,37,37,37,37,37,37,37,35,37,37,37,
37,37,37,37,37,37,37,37,37,37,37,37,34,37,37,37,37,37,37,37,37,37,35,37,37,37,37,37,37,34,37,37,37,37,37,37,
37,37,37,37,37,37,37,35,37,37,37,37,37,37,37,37,37,37,37,37,37,37,37,37,37,37,37,37,37,37,37,37,37,37,37,37,
37,37,37,37,37,37,37,35,37,37,37,34,37,37,37,37,37,37,34,37,37,37,37,37,37,37,37,37,37,37,37,37,37,37,35,37,
37,37,37,34,37,37,37,37,37,37,37,34,37,37,37,37,37,37,37,37,37,37,37,37,37,37,37,37,37,37,37,37,35,37,37,37,
34,35,37,37,37,37,37,37,37,37,37,37,37,37,37,37,37,37,37,37,34,37,37,37,37,37,37,37,37,37,37,37,34,37,34,37,
37,37,37,37,37,37,37,37,37,37,37,37,37,37,37,37,37,37,37,37,37,37,37,37,37,37,37,37,37,35,37,37,37,37,37,37,
37,37,37,37,37,37,37,37,37,37,37,37,37,37,37,37,34,35,37,37,37,37,37,37,37,37,37,37,37,37,37,37,37,37,34,37,
37,37,34,37,37,37,37,35,37,37,37,37,37,37,37,37,37,37,34,37,37,37,37,37,37,35,37,37,37,34,37,37,37,37,37,37,
37,37,35,37,37,37,37,37,37,37,37,37,37,37,37,37,37,37,37,37,37,37,37,37,37,37,37,37,37,37,37,37,37,37,37,37,
37,37,37,37,37,37,37,37,37,37,37,37,37,37,37,37,37,37,37,37,37,37,37,37,37,37,37,37,37,34,37,37,37,37,37,34,
37,37,37,37,37,37,37,37,37,37,37,37,37,34,37,37,37,37,37,34,37,37,37,37,37,37,37,37,37,37,37,37,37,37,37,37,
37,37,35,37,37,37,37,37,37,37,37,37,37,37,37,37,37,37,37,37,37,37,37,37,37,37,37,37,35,37,37,37,37,37,37,37,
37,34,37,37,37,37,37,37,37,37,35,37,37,37,37,35,37,37,37,37,37,37,34,37,37,37,37,37,37,37,37,37,37,37,37,37,
37,37,37,35,37,37,37,37,37,37,37,37,37,37,37,37,37,37,34,37,35,37,37,37,37,37,37,37,37,37,37,37,37,37,37,37,
37,37,37,37,37,37,37,37,37,37,37,37,37,37,37,37,37,35,37,37,37,37,37,37,37,37,37,37,37,37,37,37,37,37,35,37,
37,37,37,37,37,37,37,37,37,37,37,37,37,37,37,37,37,37,37,35,37,34,37,37,37,37,37,37,35,37,37,37,37,37,37,37,
34,37,37,37,35,37,37,37,37,37,37,37,37,37,37,37,37,37,37,37,37,34,34,37,37,37,37,37,37,37,37,37,37,37,37,37,
35,37,37,35,37,37,37,37,37,37,37,37,37,37,37,37,37,37,37,37,37,37,37,37,37,37,37,37,37,37,37,37,37,37,37,37,
37,37,37,37,37,37,37,34,37,37,37,37,37,37,37,37,37,34,37,37,37,37,37,37,37,37,37,37,37,37,37,37,37,37,37,37,
37,37,37,37,37,37,35,37,37,37,37,37,37,37,37,37,37,37,37,37,37,37,37,37,37,37,37,37,37,37,37,37,37,37,37,37,
37,37,37,37,37,35,37,37,37,37,37,37,37,37,37,37,37,37,37,37,37,37,37,37,37,37,37,37,37,37,37,37,37,37,37,37,
37,37,37,37,37,37,37,37,37,37,37,34,37,37,37,37,34,37,37,37,37,37,37,37,37,37,37,37,34,37,35,37,37,37,37,34,
37,37,35,37,37,37,37,34,37,37,37,37,37,37,37,37,37,37,37,37,37,37,37,37,37,37,35,37,37,37,35,37,35,37,37,37,
37,37,37,37,37,37,37,34,37,37,37,37,37,37,37,37,34,37,37,37,37,37,37,37,37,37,37,37,37,37,37,37,37,37,37,37,
37,37,37,34,37,37,37,37,37,37,37,37,37,35,37,37,37,37,37,37,37,37,37,37,37,37,37,37,37,37,37,37,37,37,37,37,
37,37,37,37,37,37,37,37,37,35,37,37,37,37,37,37,37,37,37,37,37,37,37,37,37,37,37,37,34,37,37,37,37,37,37,37
</data>
 </layer>
 <layer id="2" name="Terrain" width="36" height="34">
  <data encoding="csv">
0,0,0,0,0,0,0,0,0,0,0,0,0,0,0,0,0,194,194,194,0,0,0,0,0,0,0,0,0,0,0,0,0,0,0,0,
0,0,0,0,0,0,0,0,0,0,0,0,0,0,0,0,0,194,194,194,0,0,0,0,0,0,0,0,0,0,0,0,0,0,0,0,
0,0,0,0,0,0,0,0,0,0,0,0,0,0,0,0,0,194,194,194,0,0,0,0,0,0,0,0,0,0,0,0,0,0,0,0,
0,0,0,0,0,0,0,0,0,0,0,0,0,0,0,0,0,194,194,194,0,0,0,0,0,0,0,0,0,0,0,0,0,0,0,0,
0,0,0,0,0,0,0,0,0,0,0,0,0,0,0,0,0,194,194,194,0,0,0,0,0,0,0,0,0,0,0,0,0,0,0,0,
0,0,0,0,0,0,0,0,0,0,0,0,0,0,0,0,0,194,194,194,0,0,0,0,0,0,0,0,0,0,0,0,0,0,0,0,
0,0,0,0,0,0,0,0,0,0,0,0,0,0,0,0,0,194,194,194,0,0,0,0,0,0,0,0,0,0,0,0,0,0,0,0,
0,0,0,0,0,0,0,0,0,0,0,0,0,0,0,0,0,194,194,194,0,0,0,0,0,0,0,0,0,0,0,0,0,0,0,0,
0,0,0,0,0,0,0,0,0,0,0,0,0,0,0,0,194,194,194,0,0,0,0,0,0,0,0,0,0,0,0,0,0,0,0,0,
0,0,0,0,0,0,0,0,0,0,0,0,0,0,0,0,194,194,194,0,0,0,0,0,0,0,0,0,0,0,0,0,0,0,0,0,
0,0,0,0,0,0,0,0,0,0,0,0,0,0,0,194,194,194,0,0,0,0,0,0,0,0,0,0,0,0,0,0,0,0,0,0,
0,0,0,0,0,0,0,0,0,0,0,0,0,0,0,194,194,194,0,0,0,0,0,0,0,0,0,0,0,0,0,0,0,0,0,0,
0,0,0,0,0,0,0,0,0,0,0,0,0,0,194,194,194,0,0,0,0,0,0,0,0,0,0,0,0,0,0,0,0,0,0,0,
0,0,0,0,0,0,0,0,0,0,0,0,0,0,0,194,194,194,0,0,0,0,0,0,0,0,0,0,0,0,0,0,0,0,0,0,
0,0,0,0,0,0,0,0,0,0,0,0,0,0,0,194,194,194,0,0,0,0,0,0,0,0,0,0,0,0,0,0,0,0,0,0,
46,46,46,46,46,46,46,46,46,46,46,46,46,46,46,46,563,563,563,563,563,563,46,46,46,46,46,46,46,46,46,46,46,46,46,46,
46,46,46,46,46,46,46,46,46,46,46,46,46,46,46,46,595,595,595,595,595,595,46,46,46,46,46,46,46,46,46,46,46,46,46,46,
46,46,46,46,46,46,46,46,46,46,46,46,46,46,46,46,627,627,627,627,627,627,46,46,46,46,46,46,46,46,46,46,46,46,46,46,
0,0,0,0,0,0,0,0,0,0,0,0,0,0,0,0,0,0,0,194,194,194,194,0,0,0,0,0,0,0,0,0,0,0,0,0,
0,0,0,0,0,0,0,0,0,0,0,0,0,0,0,0,0,0,0,0,194,194,194,194,0,0,0,0,0,0,0,0,0,0,0,0,
0,0,0,0,0,0,0,0,0,0,0,0,0,0,0,0,0,0,0,0,0,0,194,194,194,0,0,0,194,194,194,0,0,0,0,0,
0,0,0,0,0,0,0,0,0,0,0,0,0,0,0,0,0,0,0,0,0,0,0,194,194,194,194,194,0,0,194,0,0,0,0,0,
0,0,0,0,0,0,0,0,0,0,0,0,0,0,0,0,0,0,0,0,0,0,0,194,194,194,0,0,0,0,194,0,0,0,0,0,
0,0,0,0,0,0,0,0,0,0,0,0,0,0,0,0,0,0,0,0,0,0,0,194,194,194,0,0,0,0,194,0,0,0,0,0,
0,0,0,0,0,0,0,0,0,0,0,0,0,0,0,0,0,0,0,0,0,0,194,194,194,0,0,0,0,0,194,0,0,0,0,0,
0,0,0,0,0,0,0,0,0,0,0,0,0,0,0,0,0,0,0,0,0,0,194,194,194,0,0,194,194,194,194,0,0,0,0,0,
0,0,0,0,0,0,0,0,0,0,0,0,0,0,0,0,0,0,0,0,0,194,194,194,194,194,194,0,0,0,0,0,0,0,0,0,
0,0,0,0,0,0,0,0,0,0,0,0,0,0,0,0,0,0,0,0,194,194,194,194,0,0,0,0,0,0,0,0,0,0,0,0,
0,0,0,0,0,0,0,0,0,0,0,0,0,0,0,0,0,0,0,194,194,194,194,0,0,0,0,0,0,0,0,0,0,0,0,0,
0,0,0,0,0,0,0,0,0,0,0,0,0,0,0,0,0,0,194,194,194,0,0,0,0,0,0,0,0,0,0,0,0,0,0,0,
0,0,0,0,0,0,0,0,0,0,0,0,0,0,0,0,0,0,194,194,194,0,0,0,0,0,0,0,0,0,0,0,0,0,0,0,
0,0,0,0,0,0,0,0,0,0,0,0,0,0,0,0,0,0,194,194,194,0,0,0,0,0,0,0,0,0,0,0,0,0,0,0,
0,0,0,0,0,0,0,0,0,0,0,0,0,0,0,0,0,194,194,194,0,0,0,0,0,0,0,0,0,0,0,0,0,0,0,0,
0,0,0,0,0,0,0,0,0,0,0,0,0,0,0,0,0,194,194,194,0,0,0,0,0,0,0,0,0,0,0,0,0,0,0,0
</data>
 </layer>
 <layer id="3" name="Objects" width="36" height="34">
  <data encoding="csv">
0,0,0,0,0,0,0,0,0,0,0,0,0,0,0,0,0,0,0,0,0,0,0,0,0,0,0,0,0,0,0,0,0,0,0,0,
48,0,0,48,48,0,0,48,48,48,48,48,0,48,48,48,48,0,0,0,48,48,48,48,48,48,48,48,0,0,48,0,48,48,48,48,
48,48,48,0,48,48,0,0,0,48,0,0,0,0,48,0,48,0,0,0,0,48,0,48,0,0,48,0,48,0,48,0,0,0,0,48,
48,48,0,48,48,48,48,0,48,0,48,0,0,0,0,0,0,0,0,0,0,0,0,0,0,0,0,0,48,48,48,48,48,48,48,48,
48,0,48,0,0,0,0,48,0,48,0,0,0,0,0,0,0,0,0,0,0,0,0,0,0,0,0,0,48,48,0,0,0,48,48,48,
48,48,48,48,0,0,48,48,48,0,48,0,0,0,0,0,0,0,0,0,0,0,0,0,0,0,0,48,48,48,48,48,48,48,48,48,
48,48,0,48,48,0,48,48,0,0,48,0,0,0,0,0,0,0,0,0,0,0,0,0,0,0,0,0,48,48,0,48,48,48,48,48,
48,48,48,0,48,0,0,0,48,48,0,0,0,0,51,0,0,0,0,0,0,0,51,0,0,0,0,48,48,0,48,0,48,48,48,48,
48,0,48,48,0,0,48,0,48,0,48,0,0,0,0,0,0,0,0,0,0,0,0,0,0,0,0,0,48,0,0,48,0,48,0,48,
48,48,0,48,48,48,48,48,48,48,0,0,0,0,0,0,0,0,0,0,0,0,0,0,0,0,0,0,48,0,48,48,48,48,48,48,
48,48,48,0,0,48,48,48,48,48,48,0,0,0,0,0,0,0,0,0,0,0,0,0,0,0,0,48,48,48,48,48,48,48,48,48,
48,48,48,48,48,48,48,48,48,48,48,0,0,0,0,0,0,0,0,0,0,0,0,0,0,0,0,0,48,48,0,48,0,48,48,48,
48,48,48,0,48,0,48,48,48,0,48,0,0,0,0,0,0,0,0,0,0,0,0,0,0,0,0,48,48,48,48,0,48,48,48,48,
48,48,48,48,48,48,48,0,0,48,48,0,0,0,0,0,0,0,0,0,0,0,0,0,0,0,0,48,0,48,48,48,48,48,48,48,
48,48,48,48,48,48,48,48,48,48,48,0,0,55,55,0,0,0,0,55,0,0,0,0,55,0,55,0,55,0,0,48,48,0,48,48,
48,48,0,48,0,0,0,0,0,0,0,0,0,0,0,0,0,0,0,0,0,0,0,0,0,0,0,0,0,0,0,0,48,0,0,48,
48,48,48,0,0,0,0,0,0,0,0,0,0,0,0,0,0,0,0,0,0,0,0,0,0,0,0,0,0,0,0,0,0,0,48,48,
48,0,0,0,0,0,0,0,0,0,0,0,0,0,0,0,0,0,0,0,0,0,0,0,0,0,0,0,0,0,0,0,0,48,48,48,
48,48,48,48,48,0,48,0,48,48,0,0,0,0,0,0,0,0,0,0,0,0,0,55,0,0,0,48,48,48,48,0,0,48,48,48,
48,48,48,48,48,48,48,0,48,0,0,0,0,0,0,0,0,0,0,0,0,0,0,0,0,0,0,0,0,0,0,0,48,48,0,48,
48,48,0,48,48,0,48,48,48,0,48,0,0,0,0,0,0,0,0,0,0,0,0,0,0,0,0,0,0,0,0,0,0,48,48,48,
48,48,0,0,48,0,48,48,0,0,48,0,0,0,0,0,0,0,0,0,0,0,0,0,0,0,0,0,0,0,0,0,0,48,48,48,
48,48,48,48,48,48,48,0,48,48,48,0,0,0,0,0,0,0,0,0,0,0,0,0,0,0,0,0,0,0,0,0,0,0,48,48,
48,48,48,48,48,0,48,48,48,48,48,0,0,0,0,0,0,0,0,0,0,0,0,0,0,0,0,0,0,0,0,0,0,0,48,48,
48,48,48,0,0,48,48,0,0,0,48,0,0,0,0,0,0,0,0,0,0,0,0,0,0,0,0,0,0,0,0,0,48,477,48,48,
48,0,48,0,48,48,48,0,48,48,48,0,0,0,0,0,0,0,0,0,0,0,0,0,0,0,0,0,0,0,0,0,0,48,48,48,
48,48,48,0,48,48,48,48,48,48,0,0,0,0,0,0,0,0,0,0,0,0,0,0,0,0,0,0,0,0,0,477,48,48,48,48,
48,48,0,0,0,48,48,0,0,0,48,0,0,0,0,0,0,0,0,0,0,0,0,0,0,0,0,0,0,0,0,0,0,0,48,48,
48,48,48,0,0,48,0,0,48,0,0,0,0,0,0,0,0,0,0,0,0,0,0,0,0,0,0,0,0,0,0,0,0,48,0,48,
48,48,48,48,48,48,48,0,48,0,48,0,0,0,0,0,0,0,0,0,0,0,0,0,0,0,371,0,0,0,0,0,48,48,48,48,
48,48,48,48,0,48,48,48,48,48,48,48,0,48,48,0,48,48,0,0,0,0,0,48,0,48,0,48,0,0,0,48,0,0,48,48,
48,0,0,48,0,48,48,48,0,0,48,48,48,0,0,48,0,0,0,0,0,0,48,48,48,0,0,0,0,0,48,48,48,0,48,48,
48,48,48,0,48,0,0,0,48,0,0,48,0,48,48,48,48,0,0,0,48,0,48,48,48,48,48,0,0,0,0,0,48,48,48,48,
48,48,48,48,48,48,48,48,48,48,48,48,48,48,48,48,48,0,0,0,48,48,48,48,48,48,48,48,48,48,48,48,48,48,48,48
</data>
 </layer>
 <layer id="4" name="Above Player" width="36" height="34">
  <data encoding="csv">
16,0,0,16,16,0,0,16,16,16,16,16,0,16,16,16,16,0,0,0,16,16,16,16,16,16,16,16,0,0,16,0,16,16,16,16,
16,16,16,0,16,16,0,0,0,16,0,0,0,0,16,0,16,0,0,0,0,16,0,16,0,0,16,0,16,0,16,0,0,0,0,16,
16,16,0,16,16,16,16,0,16,0,16,0,0,0,0,0,0,0,0,0,0,0,0,0,0,0,0,0,16,16,16,16,16,16,16,16,
16,0,16,0,0,0,0,16,0,16,0,0,0,0,0,0,0,0,0,0,0,0,0,0,0,0,0,0,16,16,0,0,0,16,16,16,
16,16,16,16,0,0,16,16,16,0,16,0,0,0,0,0,0,0,0,0,0,0,0,0,0,0,0,16,16,16,16,16,16,16,16,16,
16,16,0,16,16,0,16,16,0,0,16,0,0,0,0,0,0,0,0,0,0,0,0,0,0,0,0,0,16,16,0,16,16,16,16,16,
16,16,16,0,16,0,0,0,16,16,0,0,0,0,0,0,0,0,0,0,0,0,0,0,0,0,0,16,16,0,16,0,16,16,16,16,
16,0,16,16,0,0,16,0,16,0,16,0,0,0,0,0,0,0,0,0,0,0,0,0,0,0,0,0,16,0,0,16,0,16,0,16,
16,16,0,16,16,16,16,16,16,16,0,0,0,0,0,0,0,0,0,0,0,0,0,0,0,0,0,0,16,0,16,16,16,16,16,16,
16,16,16,0,0,16,16,16,16,16,16,0,0,0,0,0,0,0,0,0,0,0,0,0,0,0,0,16,16,16,16,16,16,16,16,16,
16,16,16,16,16,16,16,16,16,16,16,0,0,0,0,0,0,0,0,0,0,0,0,0,0,0,0,0,16,16,0,16,0,16,16,16,
16,16,16,0,16,0,16,16,16,0,16,0,0,0,0,0,0,0,0,0,0,0,0,0,0,0,0,16,16,16,16,0,16,16,16,16,
16,16,16,16,16,16,16,0,0,16,16,0,0,0,0,0,0,0,0,0,0,0,0,0,0,0,0,16,0,16,16,16,16,16,16,16,
16,16,16,16,16,16,16,16,16,16,16,0,0,0,0,0,0,0,0,0,0,0,0,0,0,0,0,0,0,0,0,16,16,0,16,16,
16,16,0,16,0,0,0,0,0,0,0,0,0,0,0,0,0,0,0,0,0,0,0,0,0,0,0,0,0,0,0,0,16,0,0,16,
16,16,16,0,0,0,0,0,0,0,0,0,0,0,0,0,0,0,0,0,0,0,0,0,0,0,0,0,0,0,0,0,0,0,16,16,
16,0,0,0,0,0,0,0,0,0,0,0,0,0,0,0,0,0,0,0,0,0,0,0,0,0,0,0,0,0,0,0,0,16,16,16,
16,16,16,16,16,0,16,0,16,16,0,0,0,0,0,0,0,0,0,0,0,0,0,0,0,0,0,16,16,16,16,0,0,16,16,16,
16,16,16,16,16,16,16,0,16,0,0,0,0,0,0,0,0,0,0,0,0,0,0,0,0,0,0,0,0,0,0,0,16,16,0,16,
16,16,0,16,16,0,16,16,16,0,16,0,0,0,0,0,0,0,0,0,0,0,0,0,0,0,0,0,0,0,0,0,0,16,16,16,
16,16,0,0,16,0,16,16,0,0,16,0,0,0,0,0,0,0,0,0,0,0,0,0,0,0,0,0,0,0,0,0,0,16,16,16,
16,16,16,16,16,16,16,0,16,16,16,0,0,0,0,0,0,0,0,0,0,0,0,0,0,0,0,0,0,0,0,0,0,0,16,16,
16,16,16,16,16,0,16,16,16,16,16,0,0,0,0,0,0,0,0,0,0,0,0,0,0,0,0,0,0,0,0,0,0,0,16,16,
16,16,16,0,0,16,16,0,0,0,16,0,0,0,0,0,0,0,0,0,0,0,0,0,0,0,0,0,0,0,0,0,16,0,16,16,
16,0,16,0,16,16,16,0,16,16,16,0,0,0,0,0,0,0,0,0,0,0,0,0,0,0,0,0,0,0,0,0,0,16,16,16,
16,16,16,0,16,16,16,16,16,16,0,0,0,0,0,0,0,0,0,0,0,0,0,0,0,0,0,0,0,0,0,0,16,16,16,16,
16,16,0,0,0,16,16,0,0,0,16,0,0,0,0,0,0,0,0,0,0,0,0,0,0,0,0,0,0,0,0,0,0,0,16,16,
16,16,16,0,0,16,0,0,16,0,0,0,0,0,0,0,0,0,0,0,0,0,0,0,0,0,307,0,0,0,0,0,0,16,0,16,
16,16,16,16,16,16,16,0,16,0,16,0,0,0,0,0,0,0,0,0,0,0,0,0,0,0,339,0,0,0,0,0,16,16,16,16,
16,16,16,16,0,16,16,16,16,16,16,16,0,16,16,0,16,16,0,0,0,0,0,16,0,16,0,16,0,0,0,16,0,0,16,16,
16,0,0,16,0,16,16,16,0,0,16,16,16,0,0,16,0,0,0,0,0,0,16,16,16,0,0,0,0,0,16,16,16,0,16,16,
16,16,16,0,16,0,0,0,16,0,0,16,0,16,16,16,16,0,0,0,16,0,16,16,16,16,16,0,0,0,0,0,16,16,16,16,
16,16,16,16,16,16,16,16,16,16,16,16,16,16,16,16,16,0,0,0,16,16,16,16,16,16,16,16,16,16,16,16,16,16,16,16,
0,0,0,0,0,0,0,0,0,0,0,0,0,0,0,0,0,0,0,0,0,0,0,0,0,0,0,0,0,0,0,0,0,0,0,0
</data>
 </layer>
 <objectgroup id="5" name="Collisions" color="#ff0000">
  <object id="1" type="collision" x="0" y="16" width="16" height="528" />
  <object id="2" type="collision" x="48" y="16" width="32" height="16" />
  <object id="3" type="collision" x="112" y="16" width="80" height="16" />
  <object id="4" type="collision" x="208" y="16" width="64" height="16" />
  <object id="5" type="collision" x="320" y="16" width="128" height="16" />
  <object id="6" type="collision" x="480" y="16" width="16" height="48" />
  <object id="7" type="collision" x="512" y="16" width="64" height="16" />
  <object id="8" type="collision" x="16" y="32" width="32" height="16" />
  <object id="9" type="collision" x="64" y="32" width="32" height="32" />
  <object id="10" type="collision" x="144" y="32" width="16" height="16" />
  <object id="11" type="collision" x="224" y="32" width="16" height="16" />
  <object id="12" type="collision" x="256" y="32" width="16" height="16" />
  <object id="13" type="collision" x="336" y="32" width="16" height="16" />
  <object id="14" type="collision" x="368" y="32" width="16" height="16" />
  <object id="15" type="collision" x="416" y="32" width="16" height="16" />
  <object id="16" type="collision" x="448" y="32" width="16" height="176" />
  <object id="17" type="collision" x="560" y="32" width="16" height="512" />
  <object id="18" type="collision" x="16" y="48" width="16" height="16" />
  <object id="19" type="collision" x="48" y="48" width="16" height="16" />
  <object id="20" type="collision" x="96" y="48" width="16" height="16" />
  <object id="21" type="collision" x="128" y="48" width="16" height="16" />
  <object id="22" type="collision" x="160" y="48" width="16" height="16" />
  <object id="23" type="collision" x="464" y="48" width="16" height="64" />
  <object id="24" type="collision" x="496" y="48" width="64" height="16" />
  <object id="25" type="collision" x="32" y="64" width="16" height="32" />
  <object id="26" type="collision" x="112" y="64" width="16" height="48" />
  <object id="27" type="collision" x="144" y="64" width="16" height="16" />
  <object id="28" type="collision" x="528" y="64" width="32" height="64" />
  <object id="29" type="collision" x="16" y="80" width="16" height="48" />
  <object id="30" type="collision" x="48" y="80" width="16" height="32" />
  <object id="31" type="collision" x="96" y="80" width="16" height="32" />
  <object id="32" type="collision" x="128" y="80" width="16" height="16" />
  <object id="33" type="collision" x="160" y="80" width="16" height="32" />
  <object id="34" type="collision" x="432" y="80" width="16" height="16" />
  <object id="35" type="collision" x="480" y="80" width="48" height="16" />
  <object id="36" type="collision" x="64" y="96" width="16" height="32" />
  <object id="37" type="collision" x="496" y="96" width="32" height="16" />
  <object id="38" type="collision" x="32" y="112" width="16" height="32" />
  <object id="39" type="collision" x="128" y="112" width="32" height="16" />
  <object id="40" type="collision" x="224" y="112" width="16" height="16" />
  <object id="41" type="collision" x="352" y="112" width="16" height="16" />
  <object id="42" type="collision" x="432" y="112" width="16" height="16" />
  <object id="43" type="collision" x="480" y="112" width="16" height="16" />
  <object id="44" type="collision" x="512" y="112" width="16" height="16" />
  <object id="45" type="collision" x="48" y="128" width="16" height="32" />
  <object id="46" type="collision" x="96" y="128" width="16" height="320" />
  <object id="47" type="collision" x="128" y="128" width="16" height="80" />
  <object id="48" type="collision" x="160" y="128" width="16" height="16" />
  <object id="49" type="collision" x="496" y="128" width="16" height="64" />
  <object id="50" type="collision" x="528" y="128" width="16" height="96" />
  <object id="51" type="collision" x="16" y="144" width="16" height="256" />
  <object id="52" type="collision" x="64" y="144" width="32" height="16" />
  <object id="53" type="collision" x="112" y="144" width="16" height="64" />
  <object id="54" type="collision" x="144" y="144" width="16" height="48" />
  <object id="55" type="collision" x="480" y="144" width="16" height="32" />
  <object id="56" type="collision" x="512" y="144" width="16" height="32" />
  <object id="57" type="collision" x="544" y="144" width="16" height="160" />
  <object id="58" type="collision" x="32" y="160" width="16" height="160" />
  <object id="59" type="collision" x="80" y="160" width="16" height="32" />
  <object id="60" type="collision" x="160" y="160" width="16" height="128" />
  <object id="61" type="collision" x="432" y="160" width="16" height="16" />
  <object id="62" type="collision" x="464" y="160" width="16" height="64" />
  <object id="63" type="collision" x="48" y="176" width="32" height="16" />
  <object id="64" type="collision" x="64" y="192" width="16" height="192" />
  <object id="65" type="collision" x="432" y="192" width="16" height="32" />
  <object id="66" type="collision" x="480" y="192" width="16" height="32" />
  <object id="67" type="collision" x="512" y="192" width="16" height="96" />
  <object id="68" type="collision" x="48" y="208" width="16" height="128" />
  <object id="69" type="collision" x="80" y="208" width="16" height="80" />
  <object id="70" type="collision" x="144" y="208" width="16" height="96" />
  <object id="71" type="collision" x="496" y="208" width="16" height="80" />
  <object id="72" type="collision" x="112" y="224" width="32" height="64" />
  <object id="73" type="collision" x="208" y="224" width="32" height="64" />
  <object id="74" type="collision" x="304" y="224" width="16" height="16" />
  <object id="75" type="collision" x="384" y="224" width="16" height="64" />
  <object id="76" type="collision" x="416" y="224" width="16" height="64" />
  <object id="77" type="collision" x="448" y="224" width="16" height="80" />
  <object id="78" type="collision" x="176" y="240" width="32" height="48" />
  <object id="79" type="collision" x="240" y="240" width="16" height="48" />
  <object id="80" type="collision" x="352" y="240" width="32" height="48" />
  <object id="81" type="collision" x="400" y="240" width="16" height="48" />
  <object id="82" type="collision" x="432" y="240" width="16" height="64" />
  <object id="83" type="collision" x="464" y="240" width="32" height="64" />
  <object id="84" type="collision" x="528" y="240" width="16" height="112" />
  <object id="85" type="collision" x="128" y="288" width="16" height="48" />
  <object id="86" type="collision" x="368" y="288" width="16" height="16" />
  <object id="87" type="collision" x="80" y="304" width="16" height="16" />
  <object id="88" type="collision" x="512" y="304" width="16" height="16" />
  <object id="89" type="collision" x="112" y="320" width="16" height="32" />
  <object id="90" type="collision" x="160" y="320" width="16" height="96" />
  <object id="91" type="collision" x="544" y="320" width="16" height="128" />
  <object id="92" type="collision" x="32" y="352" width="32" height="32" />
  <object id="93" type="collision" x="80" y="352" width="16" height="16" />
  <object id="94" type="collision" x="128" y="352" width="32" height="32" />
  <object id="95" type="collision" x="112" y="368" width="16" height="16" />
  <object id="96" type="collision" x="32" y="384" width="16" height="48" />
  <object id="97" type="collision" x="80" y="384" width="16" height="128" />
  <object id="98" type="collision" x="512" y="384" width="16" height="16" />
  <object id="99" type="collision" x="64" y="400" width="16" height="32" />
  <object id="100" type="collision" x="128" y="400" width="32" height="32" />
  <object id="101" type="collision" x="528" y="400" width="16" height="32" />
  <object id="102" type="collision" x="16" y="416" width="16" height="80" />
  <object id="103" type="collision" x="112" y="416" width="16" height="16" />
  <object id="104" type="collision" x="512" y="416" width="16" height="16" />
  <object id="105" type="collision" x="160" y="432" width="16" height="16" />
  <object id="106" type="collision" x="32" y="448" width="16" height="48" />
  <object id="107" type="collision" x="128" y="448" width="16" height="48" />
  <object id="108" type="collision" x="528" y="448" width="16" height="32" />
  <object id="109" type="collision" x="48" y="464" width="32" height="16" />
  <object id="110" type="collision" x="96" y="464" width="16" height="48" />
  <object id="111" type="collision" x="160" y="464" width="16" height="48" />
  <object id="112" type="collision" x="416" y="464" width="16" height="16" />
  <object id="113" type="collision" x="512" y="464" width="16" height="16" />
  <object id="114" type="collision" x="544" y="464" width="16" height="80" />
  <object id="115" type="collision" x="48" y="480" width="16" height="32" />
  <object id="116" type="collision" x="112" y="480" width="16" height="32" />
  <object id="117" type="collision" x="144" y="480" width="16" height="16" />
  <object id="118" type="collision" x="176" y="480" width="16" height="64" />
  <object id="119" type="collision" x="208" y="480" width="32" height="16" />
  <object id="120" type="collision" x="256" y="480" width="32" height="16" />
  <object id="121" type="collision" x="368" y="480" width="16" height="64" />
  <object id="122" type="collision" x="400" y="480" width="16" height="16" />
  <object id="123" type="collision" x="432" y="480" width="16" height="16" />
  <object id="124" type="collision" x="496" y="480" width="16" height="32" />
  <object id="125" type="collision" x="192" y="496" width="16" height="16" />
  <object id="126" type="collision" x="240" y="496" width="16" height="48" />
  <object id="127" type="collision" x="352" y="496" width="16" height="48" />
  <object id="128" type="collision" x="384" y="496" width="16" height="48" />
  <object id="129" type="collision" x="480" y="496" width="16" height="16" />
  <object id="130" type="collision" x="512" y="496" width="16" height="48" />
  <object id="131" type="collision" x="16" y="512" width="32" height="32" />
  <object id="132" type="collision" x="64" y="512" width="16" height="32" />
  <object id="133" type="collision" x="128" y="512" width="16" height="32" />
  <object id="134" type="collision" x="208" y="512" width="32" height="32" />
  <object id="135" type="collision" x="256" y="512" width="16" height="32" />
  <object id="136" type="collision" x="320" y="512" width="16" height="32" />
  <object id="137" type="collision" x="400" y="512" width="32" height="32" />
  <object id="138" type="collision" x="528" y="512" width="16" height="32" />
  <object id="139" type="collision" x="48" y="528" width="16" height="16" />
  <object id="140" type="collision" x="80" y="528" width="48" height="16" />
  <object id="141" type="collision" x="144" y="528" width="32" height="16" />
  <object id="142" type="collision" x="192" y="528" width="16" height="16" />
  <object id="143" type="collision" x="336" y="528" width="16" height="16" />
  <object id="144" type="collision" x="432" y="528" width="80" height="16" />
 </objectgroup>
 <objectgroup id="6" name="Events" color="#ffff00">
  <object id="145" name="r2_south_to_village" type="event" x="288" y="0" width="16" height="16">
   <properties>
    <property name="act10" value="transition_teleport player,r2_ashenbell.tmx,17,28,0.3" />
    <property name="act20" value="char_face player,up" />
    <property name="cond10" value="is char_at player" />
    <property name="cond20" value="is char_facing player,up" />
   </properties>
  </object>
  <object id="146" name="r2_south_encounters" type="event" x="432" y="304" width="128" height="144">
   <properties>
    <property name="act1" value="random_encounter r2_south_ecology,9" />
   </properties>
  </object>
  <object id="147" name="Create r2_south_shepherd" type="event" x="336" y="448" width="16" height="16">
   <properties>
    <property name="act1" value="create_npc r2_south_shepherd,21,28" />
    <property name="cond1" value="not char_exists r2_south_shepherd" />
   </properties>
  </object>
  <object id="148" name="Talk r2_south_shepherd" type="event" x="336" y="448" width="16" height="16">
   <properties>
    <property name="act1" value="char_talk r2_south_shepherd,pre_battle" />
    <property name="behav1" value="talk r2_south_shepherd" />
   </properties>
  </object>
  <object id="149" name="r2_read_south_marker" type="event" x="416" y="464" width="16" height="16">
   <properties>
    <property name="act1" value="translated_dialog The marker shows a split ridge above a bell, then ASHENBELL." />
    <property name="act2" value="set_variable r2_south_marker:read" />
    <property name="cond21" value="not variable_set r2_south_marker:read" />
    <property name="cond10" value="is char_facing_tile player" />
    <property name="cond20" value="is button_pressed INTERACT" />
   </properties>
  </object>
  <object id="150" name="Environment" type="event" x="0" y="0" width="16" height="16">
   <properties>
    <property name="act1" value="set_environment grass" />
    <property name="cond1" value="not environment_is grass" />
   </properties>
  </object>
  <object id="151" name="Give experiment starter" type="event" x="0" y="0" width="16" height="16">
   <properties>
    <property name="act1" value="add_monster cardiling,7" />
    <property name="act2" value="set_variable ashenbell_r2_starter_given:yes" />
    <property name="cond1" value="not variable_set ashenbell_r2_starter_given:yes" />
   </properties>
  </object>
 </objectgroup>
</map>
