<?xml version="1.0" encoding="UTF-8"?>
<map version="1.10" tiledversion="1.10.2" orientation="orthogonal" renderorder="right-down" width="36" height="34" tilewidth="16" tileheight="16" infinite="0" nextlayerid="7" nextobjectid="5000">
 <tileset firstgid="1" source="../../../../../../mods/tuxemon/gfx/tilesets/prototyping_outdoor.tsx" />
 <layer id="1" name="Ground" width="36" height="34">
  <data encoding="csv">
37,37,37,37,37,37,37,37,37,37,37,37,37,37,37,37,37,37,37,37,37,37,37,37,37,37,37,37,37,37,37,37,37,37,37,37,
37,37,37,37,37,37,37,37,37,37,37,37,37,37,37,37,37,37,37,37,37,37,37,37,37,37,37,37,37,37,37,37,37,37,37,37,
37,37,37,37,37,37,37,37,37,37,37,37,37,37,37,37,37,37,37,37,37,37,37,37,37,37,37,37,37,37,37,37,37,37,37,37,
37,37,37,37,37,37,37,37,37,37,37,37,37,37,37,37,37,37,37,37,37,37,37,37,37,37,37,37,37,37,37,37,37,37,37,37,
37,37,37,37,37,37,37,37,37,37,37,37,37,37,37,37,37,37,37,37,37,37,37,37,37,37,37,37,37,37,37,37,37,37,37,37,
37,37,37,37,37,37,37,37,37,37,37,37,37,37,37,37,37,37,37,37,37,37,37,37,37,37,37,37,37,37,37,37,37,37,37,37,
37,37,37,37,37,37,37,37,37,37,37,37,37,37,37,37,37,37,37,37,37,37,37,37,37,37,37,37,37,37,37,37,37,37,37,37,
37,37,37,37,37,37,37,37,37,37,37,37,37,37,37,37,37,37,37,37,37,37,37,37,37,37,37,37,37,37,37,37,37,37,37,37,
37,37,37,37,37,37,37,37,37,37,37,37,37,37,37,37,37,37,37,37,37,37,37,37,37,37,37,37,37,37,37,37,37,37,37,37,
37,37,37,37,37,37,37,37,37,37,37,37,37,37,37,37,37,37,37,37,37,37,37,37,37,37,37,37,37,37,37,37,37,37,37,37,
37,37,37,37,37,37,37,37,37,37,37,37,37,37,37,37,37,37,37,37,37,37,37,37,37,37,37,37,37,37,37,37,37,37,37,37,
37,37,37,37,37,37,37,37,37,37,37,37,37,37,37,37,37,37,37,37,37,37,37,37,37,37,37,37,37,37,37,37,37,37,37,37,
37,37,37,37,37,37,37,37,37,37,37,37,37,37,37,37,37,37,37,37,37,37,37,37,37,37,37,37,37,37,37,37,37,37,37,37,
37,37,37,37,37,37,37,37,37,37,37,37,37,37,37,37,37,37,37,37,37,37,37,37,37,37,37,37,37,37,37,37,37,37,37,37,
37,37,37,37,37,37,37,37,37,37,37,37,37,37,37,37,37,37,37,37,37,37,37,37,37,37,37,37,37,37,37,37,37,37,37,37,
37,37,37,37,37,37,37,37,37,37,37,37,37,37,37,37,37,37,37,37,37,37,37,37,37,37,37,37,37,37,37,37,37,37,37,37,
37,37,37,37,37,37,37,37,37,37,37,37,37,37,37,37,37,37,37,37,37,37,37,37,37,37,37,37,37,37,37,37,37,37,37,37,
37,37,37,37,37,37,37,37,37,37,37,37,37,37,37,37,37,37,37,37,37,37,37,37,37,37,37,37,37,37,37,37,37,37,37,37,
37,37,37,37,37,37,37,37,37,37,37,37,37,37,37,37,37,37,37,37,37,37,37,37,37,37,37,37,37,37,37,37,37,37,37,37,
37,37,37,37,37,37,37,37,37,37,37,37,37,37,37,37,37,37,37,37,37,37,37,37,37,37,37,37,37,37,37,37,37,37,37,37,
37,37,37,37,37,37,37,37,37,37,37,37,37,37,37,37,37,37,37,37,37,37,37,37,37,37,37,37,37,37,35,37,37,37,37,37,
37,37,37,37,37,37,37,37,37,37,37,37,37,37,37,37,37,37,37,37,37,37,37,37,37,37,37,37,37,35,37,37,37,37,37,37,
37,37,37,37,37,37,37,37,37,37,37,37,37,37,37,37,37,37,37,37,37,37,37,37,37,37,37,37,35,37,37,37,37,35,37,37,
37,37,37,37,37,37,37,37,37,37,37,37,37,37,37,37,37,37,37,37,37,37,37,37,37,37,37,35,37,37,37,37,35,37,37,37,
37,37,37,37,37,37,37,37,37,37,37,37,37,37,37,37,37,37,37,37,37,37,37,37,37,37,35,37,37,37,37,35,37,37,37,37,
37,37,37,37,37,37,37,37,37,37,37,37,37,37,37,37,37,37,37,37,37,37,37,37,37,37,37,37,37,37,35,37,37,37,37,37,
37,37,37,37,37,37,37,37,37,37,37,37,37,37,37,37,37,37,37,37,37,37,37,37,37,37,37,37,37,35,37,37,37,37,37,37,
37,37,37,37,37,37,37,37,37,37,37,37,37,37,37,37,37,37,37,37,37,37,37,37,37,37,37,37,35,37,37,37,37,37,37,37,
37,37,37,37,37,37,37,37,37,37,37,37,37,37,37,37,37,37,37,37,37,37,37,37,37,37,37,37,37,37,37,37,37,37,37,37,
37,37,37,37,37,37,37,37,37,37,37,37,37,37,37,37,37,37,37,37,37,37,37,37,37,37,37,37,37,37,37,37,37,37,37,37,
37,37,37,37,37,37,37,37,37,37,37,37,37,37,37,37,37,37,37,37,37,37,37,37,37,37,37,37,37,37,37,37,37,37,37,37,
37,37,37,37,37,37,37,37,37,37,37,37,37,37,37,37,37,37,37,37,37,37,37,37,37,37,37,37,37,37,37,37,37,37,37,37,
37,37,37,37,37,37,37,37,37,37,37,37,37,37,37,37,37,37,37,37,37,37,37,37,37,37,37,37,37,37,37,37,37,37,37,37,
37,37,37,37,37,37,37,37,37,37,37,37,37,37,37,37,37,37,37,37,37,37,37,37,37,37,37,37,37,37,37,37,37,37,37,37
</data>
 </layer>
 <layer id="2" name="Terrain" width="36" height="34">
  <data encoding="csv">
0,0,0,0,0,0,0,0,0,0,0,0,0,0,0,0,0,194,194,194,0,0,0,0,0,0,0,0,0,0,0,0,0,0,0,0,
0,0,0,0,0,0,0,0,0,0,0,0,0,0,0,0,0,194,194,194,0,0,0,0,0,0,0,0,0,0,0,0,0,0,0,0,
0,0,0,0,0,0,0,0,0,0,0,0,0,0,0,0,0,194,194,194,0,0,0,0,0,0,0,0,0,0,0,0,0,0,0,0,
0,0,0,0,0,0,0,0,0,0,0,0,0,0,0,0,194,194,194,194,0,0,0,0,0,0,0,0,0,0,0,0,0,0,0,0,
0,0,0,0,0,0,0,0,0,0,0,0,0,0,0,0,194,194,194,194,0,0,0,0,0,0,0,0,0,0,0,0,0,0,0,0,
0,0,0,0,0,0,0,0,0,0,0,0,0,0,0,0,194,194,194,0,0,0,0,0,0,0,0,0,0,0,0,0,0,0,0,0,
0,0,0,0,0,0,0,0,0,0,0,0,0,0,0,194,194,194,194,0,0,0,0,0,0,0,0,0,0,0,0,0,0,0,0,0,
0,0,0,0,0,0,0,0,0,0,0,0,0,0,194,194,194,194,194,0,0,0,0,0,0,0,0,0,0,0,0,0,0,0,0,0,
0,0,0,0,0,0,0,0,0,0,0,0,0,0,194,194,194,194,0,0,0,0,0,0,0,0,0,0,0,0,0,0,0,0,0,0,
0,0,0,0,0,0,0,0,0,0,0,0,0,194,194,194,194,0,0,0,0,0,0,0,0,0,0,0,0,0,0,0,0,0,0,0,
0,0,0,0,0,0,0,0,0,0,0,0,194,194,194,194,194,0,0,0,0,0,0,0,0,0,0,0,0,0,0,0,0,0,0,0,
0,0,0,0,0,0,0,0,0,0,0,0,194,194,194,194,0,0,0,0,0,0,0,0,0,0,0,0,0,0,0,0,0,0,0,0,
0,0,0,0,0,0,0,0,0,0,0,0,194,194,194,194,194,0,0,0,0,0,0,0,0,0,0,0,0,0,0,0,0,0,0,0,
0,0,0,0,0,0,0,0,0,0,0,0,0,194,194,194,194,194,0,0,0,0,0,0,0,0,0,0,0,0,0,0,0,0,0,0,
0,0,0,0,0,0,0,0,0,0,0,0,0,0,194,194,194,194,194,0,0,0,0,0,0,0,0,0,0,0,0,0,0,0,0,0,
46,46,46,46,46,46,46,46,46,46,46,46,46,46,46,46,563,563,563,563,563,46,46,46,46,46,46,46,46,46,46,46,46,46,46,46,
46,46,46,46,46,46,46,46,46,46,46,46,46,46,46,46,595,595,595,595,595,46,46,46,46,46,46,46,46,46,46,46,46,46,46,46,
46,46,46,46,46,46,46,46,46,46,46,46,46,46,46,46,627,627,627,627,627,46,46,46,46,46,46,46,46,46,46,46,46,46,46,46,
0,0,0,0,0,0,0,0,0,0,0,0,0,0,0,0,194,194,194,194,0,0,0,0,0,0,0,0,0,0,0,0,0,0,0,0,
0,0,0,0,0,0,0,0,0,0,0,0,0,0,0,0,194,194,194,194,0,0,0,0,194,194,0,0,0,0,0,0,0,0,0,0,
0,0,0,0,0,0,0,0,0,0,0,0,0,0,0,0,194,194,194,0,0,0,0,0,0,0,194,194,194,0,0,0,0,0,0,0,
0,0,0,0,0,0,0,0,0,0,0,0,0,0,0,0,194,194,194,194,0,0,0,0,0,0,0,0,0,194,194,0,0,0,0,0,
0,0,0,0,0,0,0,0,0,0,0,0,0,0,0,0,194,194,194,194,0,0,0,0,0,0,0,0,0,0,194,0,0,0,0,0,
0,0,0,0,0,0,0,0,0,0,0,0,0,0,0,0,0,194,194,194,194,0,0,0,0,0,0,0,0,194,0,0,0,0,0,0,
0,0,0,0,0,0,0,0,0,0,0,0,0,0,0,0,0,194,194,194,194,194,0,0,0,0,0,0,0,194,0,0,0,0,0,0,
0,0,0,0,0,0,0,0,0,0,0,0,0,0,0,0,0,0,194,194,194,194,194,194,0,0,0,0,194,0,0,0,0,0,0,0,
0,0,0,0,0,0,0,0,0,0,0,0,0,0,0,0,0,194,194,194,194,194,0,0,194,194,194,194,194,0,0,0,0,0,0,0,
0,0,0,0,0,0,0,0,0,0,0,0,0,0,0,0,194,194,194,194,194,0,0,0,0,0,0,0,0,0,0,0,0,0,0,0,
0,0,0,0,0,0,0,0,0,0,0,0,0,0,0,194,194,194,194,194,0,0,0,0,0,0,0,0,0,0,0,0,0,0,0,0,
0,0,0,0,0,0,0,0,0,0,0,0,0,0,0,194,194,194,194,0,0,0,0,0,0,0,0,0,0,0,0,0,0,0,0,0,
0,0,0,0,0,0,0,0,0,0,0,0,0,0,0,194,194,194,194,0,0,0,0,0,0,0,0,0,0,0,0,0,0,0,0,0,
0,0,0,0,0,0,0,0,0,0,0,0,0,0,0,194,194,194,194,0,0,0,0,0,0,0,0,0,0,0,0,0,0,0,0,0,
0,0,0,0,0,0,0,0,0,0,0,0,0,0,0,0,194,194,194,194,0,0,0,0,0,0,0,0,0,0,0,0,0,0,0,0,
0,0,0,0,0,0,0,0,0,0,0,0,0,0,0,0,194,194,194,194,0,0,0,0,0,0,0,0,0,0,0,0,0,0,0,0
</data>
 </layer>
 <layer id="3" name="Objects" width="36" height="34">
  <data encoding="csv">
0,0,0,0,0,0,0,0,0,0,0,0,0,0,0,0,0,0,0,0,0,0,0,0,0,0,0,0,0,0,0,0,0,0,0,0,
48,48,0,48,48,48,48,0,48,48,48,48,0,48,48,48,48,0,48,48,48,48,0,48,48,48,48,0,48,48,48,48,0,48,48,48,
48,48,48,48,0,48,48,48,48,0,48,48,48,48,0,48,48,48,48,0,48,48,48,48,0,48,48,48,48,0,48,48,48,48,0,48,
48,0,48,48,48,48,0,48,48,48,48,0,48,48,48,48,0,48,48,48,48,0,48,48,48,48,0,48,48,48,48,0,48,48,48,48,
48,48,48,0,0,0,0,0,0,0,0,0,0,0,0,0,0,0,0,0,0,0,0,0,0,0,0,0,0,0,0,0,48,0,48,48,
0,48,48,48,0,0,0,0,0,0,0,0,0,0,0,0,0,0,0,0,0,0,0,0,0,0,0,0,0,0,0,0,48,48,48,0,
48,48,0,48,0,0,0,0,0,0,0,0,0,0,0,0,0,0,0,0,0,0,0,0,0,0,0,0,0,0,0,0,0,48,48,48,
48,48,48,48,0,0,0,0,0,0,0,0,51,0,0,0,0,0,0,0,0,0,0,51,0,0,0,0,0,0,0,0,48,48,0,48,
48,0,48,48,0,0,0,0,0,0,0,0,0,0,0,0,0,0,0,0,0,0,0,0,0,0,0,0,0,0,0,0,48,48,48,48,
48,48,48,0,0,0,0,0,0,0,0,0,0,0,0,0,0,0,0,0,0,0,0,0,0,0,0,0,0,0,0,0,48,0,48,48,
0,48,48,48,0,0,0,0,0,0,0,0,0,0,0,0,0,0,0,0,0,0,0,0,0,0,0,0,0,0,0,0,48,48,48,0,
48,48,0,48,0,0,0,0,0,0,0,0,0,0,0,0,0,0,0,0,0,0,0,0,0,0,0,0,0,0,0,0,0,48,48,48,
48,48,48,48,0,0,0,0,0,0,0,0,0,0,0,0,0,0,0,0,0,0,0,0,0,0,0,0,0,0,0,0,48,48,0,48,
48,0,48,48,0,0,0,0,0,0,0,0,0,0,0,0,0,0,0,0,0,0,0,0,0,0,0,0,0,0,0,0,48,48,48,48,
48,48,48,0,0,0,0,0,0,0,0,0,0,0,0,0,0,0,0,0,0,0,0,0,0,0,0,0,0,0,0,0,48,0,48,48,
0,48,48,48,0,0,0,0,0,0,0,0,0,0,0,0,0,0,0,0,0,0,0,0,0,0,0,0,0,0,0,0,48,48,48,0,
48,48,0,48,0,0,0,0,0,0,0,0,0,0,0,0,0,0,0,0,0,0,0,0,0,0,0,0,0,0,0,0,0,48,48,48,
48,48,48,48,0,0,0,0,0,0,0,0,0,0,0,0,0,0,0,0,0,0,0,0,0,0,0,0,0,0,0,0,48,48,0,48,
48,0,48,48,0,0,0,0,0,0,0,0,0,0,0,0,0,0,0,0,0,0,0,0,0,0,0,0,0,0,0,0,48,48,48,48,
48,48,48,0,0,0,0,0,0,0,0,0,0,0,0,0,0,0,0,0,0,0,0,0,0,0,0,0,0,0,0,0,48,0,48,48,
0,48,48,48,0,0,0,0,0,0,0,0,0,0,0,0,0,0,0,0,0,0,0,0,0,0,0,0,0,0,0,0,48,48,48,0,
48,48,0,48,0,0,0,0,0,0,0,0,0,0,0,0,0,0,0,0,0,0,0,0,0,0,0,0,0,0,0,0,0,48,48,48,
48,48,48,48,0,0,0,0,0,0,0,0,0,0,0,0,0,0,0,0,0,0,0,0,0,0,0,0,0,0,0,0,48,48,0,48,
48,0,48,48,0,0,0,0,0,0,0,0,0,0,0,0,0,0,0,0,0,0,0,0,0,0,0,0,0,0,0,0,48,48,48,48,
48,48,48,0,0,0,0,0,0,0,0,0,0,0,0,0,0,0,0,0,0,0,0,0,0,0,0,0,0,0,0,0,48,0,48,48,
0,48,48,48,0,0,0,0,0,0,0,0,0,0,0,0,0,0,0,0,0,0,0,0,0,0,0,0,0,0,0,0,48,48,48,0,
48,48,0,48,0,0,0,0,0,0,0,0,0,0,0,0,0,0,0,0,0,0,0,0,0,0,0,0,0,0,0,0,0,48,48,48,
48,48,48,48,0,0,0,0,0,0,0,0,0,0,0,0,0,0,0,0,0,0,0,0,0,0,0,0,0,0,0,0,48,48,0,48,
48,0,48,48,0,0,0,0,0,0,0,0,0,0,0,0,0,0,0,0,0,0,0,0,0,0,0,0,0,0,0,0,48,48,48,48,
48,48,48,0,0,0,0,0,0,0,0,0,0,0,0,0,0,0,0,0,0,0,0,0,0,371,0,0,0,0,0,0,48,0,48,48,
0,48,48,48,48,0,48,48,48,48,0,48,48,48,48,0,48,48,48,48,0,48,48,48,48,0,48,48,48,48,0,48,48,48,48,0,
48,48,0,48,48,48,48,0,48,48,48,48,0,48,48,48,48,0,48,48,48,48,0,48,48,48,48,0,48,48,48,48,0,48,48,48,
48,48,48,48,0,48,48,48,48,0,48,48,48,48,0,48,48,48,48,0,48,48,48,48,0,48,48,48,48,0,48,48,48,48,0,48,
48,0,48,48,48,48,0,48,48,48,48,0,48,48,48,48,0,48,48,48,48,0,48,48,48,48,0,48,48,48,48,0,48,48,48,48
</data>
 </layer>
 <layer id="4" name="Above Player" width="36" height="34">
  <data encoding="csv">
16,16,0,16,16,16,16,0,16,16,16,16,0,16,16,16,16,0,16,16,16,16,0,16,16,16,16,0,16,16,16,16,0,16,16,16,
16,16,16,16,0,16,16,16,16,0,16,16,16,16,0,16,16,16,16,0,16,16,16,16,0,16,16,16,16,0,16,16,16,16,0,16,
16,0,16,16,16,16,0,16,16,16,16,0,16,16,16,16,0,16,16,16,16,0,16,16,16,16,0,16,16,16,16,0,16,16,16,16,
16,16,16,0,0,0,0,0,0,0,0,0,0,0,0,0,0,0,0,0,0,0,0,0,0,0,0,0,0,0,0,0,16,0,16,16,
0,16,16,16,0,0,0,0,0,0,0,0,0,0,0,0,0,0,0,0,0,0,0,0,0,0,0,0,0,0,0,0,16,16,16,0,
16,16,0,16,0,0,0,0,0,0,0,0,0,0,0,0,0,0,0,0,0,0,0,0,0,0,0,0,0,0,0,0,0,16,16,16,
16,16,16,16,0,0,0,0,0,0,0,0,0,0,0,0,0,0,0,0,0,0,0,0,0,0,0,0,0,0,0,0,16,16,0,16,
16,0,16,16,0,0,0,0,0,0,0,0,0,0,0,0,0,0,0,0,0,0,0,0,0,0,0,0,0,0,0,0,16,16,16,16,
16,16,16,0,0,0,0,0,0,0,0,0,0,0,0,0,0,0,0,0,0,0,0,0,0,0,0,0,0,0,0,0,16,0,16,16,
0,16,16,16,0,0,0,0,0,0,0,0,0,0,0,0,0,0,0,0,0,0,0,0,0,0,0,0,0,0,0,0,16,16,16,0,
16,16,0,16,0,0,0,0,0,0,0,0,0,0,0,0,0,0,0,0,0,0,0,0,0,0,0,0,0,0,0,0,0,16,16,16,
16,16,16,16,0,0,0,0,0,0,0,0,0,0,0,0,0,0,0,0,0,0,0,0,0,0,0,0,0,0,0,0,16,16,0,16,
16,0,16,16,0,0,0,0,0,0,0,0,0,0,0,0,0,0,0,0,0,0,0,0,0,0,0,0,0,0,0,0,16,16,16,16,
16,16,16,0,0,0,0,0,0,0,0,0,0,0,0,0,0,0,0,0,0,0,0,0,0,0,0,0,0,0,0,0,16,0,16,16,
0,16,16,16,0,0,0,0,0,0,0,0,0,0,0,0,0,0,0,0,0,0,0,0,0,0,0,0,0,0,0,0,16,16,16,0,
16,16,0,16,0,0,0,0,0,0,0,0,0,0,0,0,0,0,0,0,0,0,0,0,0,0,0,0,0,0,0,0,0,16,16,16,
16,16,16,16,0,0,0,0,0,0,0,0,0,0,0,0,0,0,0,0,0,0,0,0,0,0,0,0,0,0,0,0,16,16,0,16,
16,0,16,16,0,0,0,0,0,0,0,0,0,0,0,0,0,0,0,0,0,0,0,0,0,0,0,0,0,0,0,0,16,16,16,16,
16,16,16,0,0,0,0,0,0,0,0,0,0,0,0,0,0,0,0,0,0,0,0,0,0,0,0,0,0,0,0,0,16,0,16,16,
0,16,16,16,0,0,0,0,0,0,0,0,0,0,0,0,0,0,0,0,0,0,0,0,0,0,0,0,0,0,0,0,16,16,16,0,
16,16,0,16,0,0,0,0,0,0,0,0,0,0,0,0,0,0,0,0,0,0,0,0,0,0,0,0,0,0,0,0,0,16,16,16,
16,16,16,16,0,0,0,0,0,0,0,0,0,0,0,0,0,0,0,0,0,0,0,0,0,0,0,0,0,0,0,0,16,16,0,16,
16,0,16,16,0,0,0,0,0,0,0,0,0,0,0,0,0,0,0,0,0,0,0,0,0,0,0,0,0,0,0,0,16,16,16,16,
16,16,16,0,0,0,0,0,0,0,0,0,0,0,0,0,0,0,0,0,0,0,0,0,0,0,0,0,0,0,0,0,16,0,16,16,
0,16,16,16,0,0,0,0,0,0,0,0,0,0,0,0,0,0,0,0,0,0,0,0,0,0,0,0,0,0,0,0,16,16,16,0,
16,16,0,16,0,0,0,0,0,0,0,0,0,0,0,0,0,0,0,0,0,0,0,0,0,0,0,0,0,0,0,0,0,16,16,16,
16,16,16,16,0,0,0,0,0,0,0,0,0,0,0,0,0,0,0,0,0,0,0,0,0,0,0,0,0,0,0,0,16,16,0,16,
16,0,16,16,0,0,0,0,0,0,0,0,0,0,0,0,0,0,0,0,0,0,0,0,0,307,0,0,0,0,0,0,16,16,16,16,
16,16,16,0,0,0,0,0,0,0,0,0,0,0,0,0,0,0,0,0,0,0,0,0,0,339,0,0,0,0,0,0,16,0,16,16,
0,16,16,16,16,0,16,16,16,16,0,16,16,16,16,0,16,16,16,16,0,16,16,16,16,0,16,16,16,16,0,16,16,16,16,0,
16,16,0,16,16,16,16,0,16,16,16,16,0,16,16,16,16,0,16,16,16,16,0,16,16,16,16,0,16,16,16,16,0,16,16,16,
16,16,16,16,0,16,16,16,16,0,16,16,16,16,0,16,16,16,16,0,16,16,16,16,0,16,16,16,16,0,16,16,16,16,0,16,
16,0,16,16,16,16,0,16,16,16,16,0,16,16,16,16,0,16,16,16,16,0,16,16,16,16,0,16,16,16,16,0,16,16,16,16,
0,0,0,0,0,0,0,0,0,0,0,0,0,0,0,0,0,0,0,0,0,0,0,0,0,0,0,0,0,0,0,0,0,0,0,0
</data>
 </layer>
 <objectgroup id="5" name="Collisions" color="#ff0000">
  <object id="1" type="collision" x="0" y="16" width="16" height="16" />
  <object id="2" type="collision" x="16" y="16" width="16" height="16" />
  <object id="3" type="collision" x="48" y="16" width="16" height="16" />
  <object id="4" type="collision" x="64" y="16" width="16" height="16" />
  <object id="5" type="collision" x="80" y="16" width="16" height="16" />
  <object id="6" type="collision" x="96" y="16" width="16" height="16" />
  <object id="7" type="collision" x="128" y="16" width="16" height="16" />
  <object id="8" type="collision" x="144" y="16" width="16" height="16" />
  <object id="9" type="collision" x="160" y="16" width="16" height="16" />
  <object id="10" type="collision" x="176" y="16" width="16" height="16" />
  <object id="11" type="collision" x="208" y="16" width="16" height="16" />
  <object id="12" type="collision" x="224" y="16" width="16" height="16" />
  <object id="13" type="collision" x="240" y="16" width="16" height="16" />
  <object id="14" type="collision" x="256" y="16" width="16" height="16" />
  <object id="15" type="collision" x="320" y="16" width="16" height="16" />
  <object id="16" type="collision" x="336" y="16" width="16" height="16" />
  <object id="17" type="collision" x="368" y="16" width="16" height="16" />
  <object id="18" type="collision" x="384" y="16" width="16" height="16" />
  <object id="19" type="collision" x="400" y="16" width="16" height="16" />
  <object id="20" type="collision" x="416" y="16" width="16" height="16" />
  <object id="21" type="collision" x="448" y="16" width="16" height="16" />
  <object id="22" type="collision" x="464" y="16" width="16" height="16" />
  <object id="23" type="collision" x="480" y="16" width="16" height="16" />
  <object id="24" type="collision" x="496" y="16" width="16" height="16" />
  <object id="25" type="collision" x="528" y="16" width="16" height="16" />
  <object id="26" type="collision" x="544" y="16" width="16" height="16" />
  <object id="27" type="collision" x="560" y="16" width="16" height="16" />
  <object id="28" type="collision" x="0" y="32" width="16" height="16" />
  <object id="29" type="collision" x="16" y="32" width="16" height="16" />
  <object id="30" type="collision" x="32" y="32" width="16" height="16" />
  <object id="31" type="collision" x="48" y="32" width="16" height="16" />
  <object id="32" type="collision" x="80" y="32" width="16" height="16" />
  <object id="33" type="collision" x="96" y="32" width="16" height="16" />
  <object id="34" type="collision" x="112" y="32" width="16" height="16" />
  <object id="35" type="collision" x="128" y="32" width="16" height="16" />
  <object id="36" type="collision" x="160" y="32" width="16" height="16" />
  <object id="37" type="collision" x="176" y="32" width="16" height="16" />
  <object id="38" type="collision" x="192" y="32" width="16" height="16" />
  <object id="39" type="collision" x="208" y="32" width="16" height="16" />
  <object id="40" type="collision" x="240" y="32" width="16" height="16" />
  <object id="41" type="collision" x="256" y="32" width="16" height="16" />
  <object id="42" type="collision" x="320" y="32" width="16" height="16" />
  <object id="43" type="collision" x="336" y="32" width="16" height="16" />
  <object id="44" type="collision" x="352" y="32" width="16" height="16" />
  <object id="45" type="collision" x="368" y="32" width="16" height="16" />
  <object id="46" type="collision" x="400" y="32" width="16" height="16" />
  <object id="47" type="collision" x="416" y="32" width="16" height="16" />
  <object id="48" type="collision" x="432" y="32" width="16" height="16" />
  <object id="49" type="collision" x="448" y="32" width="16" height="16" />
  <object id="50" type="collision" x="480" y="32" width="16" height="16" />
  <object id="51" type="collision" x="496" y="32" width="16" height="16" />
  <object id="52" type="collision" x="512" y="32" width="16" height="16" />
  <object id="53" type="collision" x="528" y="32" width="16" height="16" />
  <object id="54" type="collision" x="560" y="32" width="16" height="16" />
  <object id="55" type="collision" x="0" y="48" width="16" height="16" />
  <object id="56" type="collision" x="32" y="48" width="16" height="16" />
  <object id="57" type="collision" x="48" y="48" width="16" height="16" />
  <object id="58" type="collision" x="64" y="48" width="16" height="16" />
  <object id="59" type="collision" x="80" y="48" width="16" height="16" />
  <object id="60" type="collision" x="112" y="48" width="16" height="16" />
  <object id="61" type="collision" x="128" y="48" width="16" height="16" />
  <object id="62" type="collision" x="144" y="48" width="16" height="16" />
  <object id="63" type="collision" x="160" y="48" width="16" height="16" />
  <object id="64" type="collision" x="192" y="48" width="16" height="16" />
  <object id="65" type="collision" x="208" y="48" width="16" height="16" />
  <object id="66" type="collision" x="224" y="48" width="16" height="16" />
  <object id="67" type="collision" x="240" y="48" width="16" height="16" />
  <object id="68" type="collision" x="320" y="48" width="16" height="16" />
  <object id="69" type="collision" x="352" y="48" width="16" height="16" />
  <object id="70" type="collision" x="368" y="48" width="16" height="16" />
  <object id="71" type="collision" x="384" y="48" width="16" height="16" />
  <object id="72" type="collision" x="400" y="48" width="16" height="16" />
  <object id="73" type="collision" x="432" y="48" width="16" height="16" />
  <object id="74" type="collision" x="448" y="48" width="16" height="16" />
  <object id="75" type="collision" x="464" y="48" width="16" height="16" />
  <object id="76" type="collision" x="480" y="48" width="16" height="16" />
  <object id="77" type="collision" x="512" y="48" width="16" height="16" />
  <object id="78" type="collision" x="528" y="48" width="16" height="16" />
  <object id="79" type="collision" x="544" y="48" width="16" height="16" />
  <object id="80" type="collision" x="560" y="48" width="16" height="16" />
  <object id="81" type="collision" x="0" y="64" width="16" height="16" />
  <object id="82" type="collision" x="16" y="64" width="16" height="16" />
  <object id="83" type="collision" x="32" y="64" width="16" height="16" />
  <object id="84" type="collision" x="512" y="64" width="16" height="16" />
  <object id="85" type="collision" x="544" y="64" width="16" height="16" />
  <object id="86" type="collision" x="560" y="64" width="16" height="16" />
  <object id="87" type="collision" x="16" y="80" width="16" height="16" />
  <object id="88" type="collision" x="32" y="80" width="16" height="16" />
  <object id="89" type="collision" x="48" y="80" width="16" height="16" />
  <object id="90" type="collision" x="512" y="80" width="16" height="16" />
  <object id="91" type="collision" x="528" y="80" width="16" height="16" />
  <object id="92" type="collision" x="544" y="80" width="16" height="16" />
  <object id="93" type="collision" x="0" y="96" width="16" height="16" />
  <object id="94" type="collision" x="16" y="96" width="16" height="16" />
  <object id="95" type="collision" x="48" y="96" width="16" height="16" />
  <object id="96" type="collision" x="528" y="96" width="16" height="16" />
  <object id="97" type="collision" x="544" y="96" width="16" height="16" />
  <object id="98" type="collision" x="560" y="96" width="16" height="16" />
  <object id="99" type="collision" x="0" y="112" width="16" height="16" />
  <object id="100" type="collision" x="16" y="112" width="16" height="16" />
  <object id="101" type="collision" x="32" y="112" width="16" height="16" />
  <object id="102" type="collision" x="48" y="112" width="16" height="16" />
  <object id="103" type="collision" x="192" y="112" width="16" height="16" />
  <object id="104" type="collision" x="368" y="112" width="16" height="16" />
  <object id="105" type="collision" x="512" y="112" width="16" height="16" />
  <object id="106" type="collision" x="528" y="112" width="16" height="16" />
  <object id="107" type="collision" x="560" y="112" width="16" height="16" />
  <object id="108" type="collision" x="0" y="128" width="16" height="16" />
  <object id="109" type="collision" x="32" y="128" width="16" height="16" />
  <object id="110" type="collision" x="48" y="128" width="16" height="16" />
  <object id="111" type="collision" x="512" y="128" width="16" height="16" />
  <object id="112" type="collision" x="528" y="128" width="16" height="16" />
  <object id="113" type="collision" x="544" y="128" width="16" height="16" />
  <object id="114" type="collision" x="560" y="128" width="16" height="16" />
  <object id="115" type="collision" x="0" y="144" width="16" height="16" />
  <object id="116" type="collision" x="16" y="144" width="16" height="16" />
  <object id="117" type="collision" x="32" y="144" width="16" height="16" />
  <object id="118" type="collision" x="512" y="144" width="16" height="16" />
  <object id="119" type="collision" x="544" y="144" width="16" height="16" />
  <object id="120" type="collision" x="560" y="144" width="16" height="16" />
  <object id="121" type="collision" x="16" y="160" width="16" height="16" />
  <object id="122" type="collision" x="32" y="160" width="16" height="16" />
  <object id="123" type="collision" x="48" y="160" width="16" height="16" />
  <object id="124" type="collision" x="512" y="160" width="16" height="16" />
  <object id="125" type="collision" x="528" y="160" width="16" height="16" />
  <object id="126" type="collision" x="544" y="160" width="16" height="16" />
  <object id="127" type="collision" x="0" y="176" width="16" height="16" />
  <object id="128" type="collision" x="16" y="176" width="16" height="16" />
  <object id="129" type="collision" x="48" y="176" width="16" height="16" />
  <object id="130" type="collision" x="528" y="176" width="16" height="16" />
  <object id="131" type="collision" x="544" y="176" width="16" height="16" />
  <object id="132" type="collision" x="560" y="176" width="16" height="16" />
  <object id="133" type="collision" x="0" y="192" width="16" height="16" />
  <object id="134" type="collision" x="16" y="192" width="16" height="16" />
  <object id="135" type="collision" x="32" y="192" width="16" height="16" />
  <object id="136" type="collision" x="48" y="192" width="16" height="16" />
  <object id="137" type="collision" x="512" y="192" width="16" height="16" />
  <object id="138" type="collision" x="528" y="192" width="16" height="16" />
  <object id="139" type="collision" x="560" y="192" width="16" height="16" />
  <object id="140" type="collision" x="0" y="208" width="16" height="16" />
  <object id="141" type="collision" x="32" y="208" width="16" height="16" />
  <object id="142" type="collision" x="48" y="208" width="16" height="16" />
  <object id="143" type="collision" x="512" y="208" width="16" height="16" />
  <object id="144" type="collision" x="528" y="208" width="16" height="16" />
  <object id="145" type="collision" x="544" y="208" width="16" height="16" />
  <object id="146" type="collision" x="560" y="208" width="16" height="16" />
  <object id="147" type="collision" x="0" y="224" width="16" height="16" />
  <object id="148" type="collision" x="16" y="224" width="16" height="16" />
  <object id="149" type="collision" x="32" y="224" width="16" height="16" />
  <object id="150" type="collision" x="512" y="224" width="16" height="16" />
  <object id="151" type="collision" x="544" y="224" width="16" height="16" />
  <object id="152" type="collision" x="560" y="224" width="16" height="16" />
  <object id="153" type="collision" x="0" y="240" width="16" height="16" />
  <object id="154" type="collision" x="16" y="240" width="16" height="16" />
  <object id="155" type="collision" x="32" y="240" width="16" height="16" />
  <object id="156" type="collision" x="48" y="240" width="16" height="16" />
  <object id="157" type="collision" x="64" y="240" width="16" height="16" />
  <object id="158" type="collision" x="80" y="240" width="16" height="16" />
  <object id="159" type="collision" x="96" y="240" width="16" height="16" />
  <object id="160" type="collision" x="112" y="240" width="16" height="16" />
  <object id="161" type="collision" x="128" y="240" width="16" height="16" />
  <object id="162" type="collision" x="144" y="240" width="16" height="16" />
  <object id="163" type="collision" x="160" y="240" width="16" height="16" />
  <object id="164" type="collision" x="176" y="240" width="16" height="16" />
  <object id="165" type="collision" x="192" y="240" width="16" height="16" />
  <object id="166" type="collision" x="208" y="240" width="16" height="16" />
  <object id="167" type="collision" x="224" y="240" width="16" height="16" />
  <object id="168" type="collision" x="240" y="240" width="16" height="16" />
  <object id="169" type="collision" x="336" y="240" width="16" height="16" />
  <object id="170" type="collision" x="352" y="240" width="16" height="16" />
  <object id="171" type="collision" x="368" y="240" width="16" height="16" />
  <object id="172" type="collision" x="384" y="240" width="16" height="16" />
  <object id="173" type="collision" x="400" y="240" width="16" height="16" />
  <object id="174" type="collision" x="416" y="240" width="16" height="16" />
  <object id="175" type="collision" x="432" y="240" width="16" height="16" />
  <object id="176" type="collision" x="448" y="240" width="16" height="16" />
  <object id="177" type="collision" x="464" y="240" width="16" height="16" />
  <object id="178" type="collision" x="480" y="240" width="16" height="16" />
  <object id="179" type="collision" x="496" y="240" width="16" height="16" />
  <object id="180" type="collision" x="512" y="240" width="16" height="16" />
  <object id="181" type="collision" x="528" y="240" width="16" height="16" />
  <object id="182" type="collision" x="544" y="240" width="16" height="16" />
  <object id="183" type="collision" x="560" y="240" width="16" height="16" />
  <object id="184" type="collision" x="0" y="256" width="16" height="16" />
  <object id="185" type="collision" x="16" y="256" width="16" height="16" />
  <object id="186" type="collision" x="32" y="256" width="16" height="16" />
  <object id="187" type="collision" x="48" y="256" width="16" height="16" />
  <object id="188" type="collision" x="64" y="256" width="16" height="16" />
  <object id="189" type="collision" x="80" y="256" width="16" height="16" />
  <object id="190" type="collision" x="96" y="256" width="16" height="16" />
  <object id="191" type="collision" x="112" y="256" width="16" height="16" />
  <object id="192" type="collision" x="128" y="256" width="16" height="16" />
  <object id="193" type="collision" x="144" y="256" width="16" height="16" />
  <object id="194" type="collision" x="160" y="256" width="16" height="16" />
  <object id="195" type="collision" x="176" y="256" width="16" height="16" />
  <object id="196" type="collision" x="192" y="256" width="16" height="16" />
  <object id="197" type="collision" x="208" y="256" width="16" height="16" />
  <object id="198" type="collision" x="224" y="256" width="16" height="16" />
  <object id="199" type="collision" x="240" y="256" width="16" height="16" />
  <object id="200" type="collision" x="336" y="256" width="16" height="16" />
  <object id="201" type="collision" x="352" y="256" width="16" height="16" />
  <object id="202" type="collision" x="368" y="256" width="16" height="16" />
  <object id="203" type="collision" x="384" y="256" width="16" height="16" />
  <object id="204" type="collision" x="400" y="256" width="16" height="16" />
  <object id="205" type="collision" x="416" y="256" width="16" height="16" />
  <object id="206" type="collision" x="432" y="256" width="16" height="16" />
  <object id="207" type="collision" x="448" y="256" width="16" height="16" />
  <object id="208" type="collision" x="464" y="256" width="16" height="16" />
  <object id="209" type="collision" x="480" y="256" width="16" height="16" />
  <object id="210" type="collision" x="496" y="256" width="16" height="16" />
  <object id="211" type="collision" x="512" y="256" width="16" height="16" />
  <object id="212" type="collision" x="528" y="256" width="16" height="16" />
  <object id="213" type="collision" x="544" y="256" width="16" height="16" />
  <object id="214" type="collision" x="560" y="256" width="16" height="16" />
  <object id="215" type="collision" x="0" y="272" width="16" height="16" />
  <object id="216" type="collision" x="16" y="272" width="16" height="16" />
  <object id="217" type="collision" x="32" y="272" width="16" height="16" />
  <object id="218" type="collision" x="48" y="272" width="16" height="16" />
  <object id="219" type="collision" x="64" y="272" width="16" height="16" />
  <object id="220" type="collision" x="80" y="272" width="16" height="16" />
  <object id="221" type="collision" x="96" y="272" width="16" height="16" />
  <object id="222" type="collision" x="112" y="272" width="16" height="16" />
  <object id="223" type="collision" x="128" y="272" width="16" height="16" />
  <object id="224" type="collision" x="144" y="272" width="16" height="16" />
  <object id="225" type="collision" x="160" y="272" width="16" height="16" />
  <object id="226" type="collision" x="176" y="272" width="16" height="16" />
  <object id="227" type="collision" x="192" y="272" width="16" height="16" />
  <object id="228" type="collision" x="208" y="272" width="16" height="16" />
  <object id="229" type="collision" x="224" y="272" width="16" height="16" />
  <object id="230" type="collision" x="240" y="272" width="16" height="16" />
  <object id="231" type="collision" x="336" y="272" width="16" height="16" />
  <object id="232" type="collision" x="352" y="272" width="16" height="16" />
  <object id="233" type="collision" x="368" y="272" width="16" height="16" />
  <object id="234" type="collision" x="384" y="272" width="16" height="16" />
  <object id="235" type="collision" x="400" y="272" width="16" height="16" />
  <object id="236" type="collision" x="416" y="272" width="16" height="16" />
  <object id="237" type="collision" x="432" y="272" width="16" height="16" />
  <object id="238" type="collision" x="448" y="272" width="16" height="16" />
  <object id="239" type="collision" x="464" y="272" width="16" height="16" />
  <object id="240" type="collision" x="480" y="272" width="16" height="16" />
  <object id="241" type="collision" x="496" y="272" width="16" height="16" />
  <object id="242" type="collision" x="512" y="272" width="16" height="16" />
  <object id="243" type="collision" x="528" y="272" width="16" height="16" />
  <object id="244" type="collision" x="544" y="272" width="16" height="16" />
  <object id="245" type="collision" x="560" y="272" width="16" height="16" />
  <object id="246" type="collision" x="0" y="288" width="16" height="16" />
  <object id="247" type="collision" x="32" y="288" width="16" height="16" />
  <object id="248" type="collision" x="48" y="288" width="16" height="16" />
  <object id="249" type="collision" x="512" y="288" width="16" height="16" />
  <object id="250" type="collision" x="528" y="288" width="16" height="16" />
  <object id="251" type="collision" x="544" y="288" width="16" height="16" />
  <object id="252" type="collision" x="560" y="288" width="16" height="16" />
  <object id="253" type="collision" x="0" y="304" width="16" height="16" />
  <object id="254" type="collision" x="16" y="304" width="16" height="16" />
  <object id="255" type="collision" x="32" y="304" width="16" height="16" />
  <object id="256" type="collision" x="512" y="304" width="16" height="16" />
  <object id="257" type="collision" x="544" y="304" width="16" height="16" />
  <object id="258" type="collision" x="560" y="304" width="16" height="16" />
  <object id="259" type="collision" x="16" y="320" width="16" height="16" />
  <object id="260" type="collision" x="32" y="320" width="16" height="16" />
  <object id="261" type="collision" x="48" y="320" width="16" height="16" />
  <object id="262" type="collision" x="512" y="320" width="16" height="16" />
  <object id="263" type="collision" x="528" y="320" width="16" height="16" />
  <object id="264" type="collision" x="544" y="320" width="16" height="16" />
  <object id="265" type="collision" x="0" y="336" width="16" height="16" />
  <object id="266" type="collision" x="16" y="336" width="16" height="16" />
  <object id="267" type="collision" x="48" y="336" width="16" height="16" />
  <object id="268" type="collision" x="528" y="336" width="16" height="16" />
  <object id="269" type="collision" x="544" y="336" width="16" height="16" />
  <object id="270" type="collision" x="560" y="336" width="16" height="16" />
  <object id="271" type="collision" x="0" y="352" width="16" height="16" />
  <object id="272" type="collision" x="16" y="352" width="16" height="16" />
  <object id="273" type="collision" x="32" y="352" width="16" height="16" />
  <object id="274" type="collision" x="48" y="352" width="16" height="16" />
  <object id="275" type="collision" x="512" y="352" width="16" height="16" />
  <object id="276" type="collision" x="528" y="352" width="16" height="16" />
  <object id="277" type="collision" x="560" y="352" width="16" height="16" />
  <object id="278" type="collision" x="0" y="368" width="16" height="16" />
  <object id="279" type="collision" x="32" y="368" width="16" height="16" />
  <object id="280" type="collision" x="48" y="368" width="16" height="16" />
  <object id="281" type="collision" x="512" y="368" width="16" height="16" />
  <object id="282" type="collision" x="528" y="368" width="16" height="16" />
  <object id="283" type="collision" x="544" y="368" width="16" height="16" />
  <object id="284" type="collision" x="560" y="368" width="16" height="16" />
  <object id="285" type="collision" x="0" y="384" width="16" height="16" />
  <object id="286" type="collision" x="16" y="384" width="16" height="16" />
  <object id="287" type="collision" x="32" y="384" width="16" height="16" />
  <object id="288" type="collision" x="512" y="384" width="16" height="16" />
  <object id="289" type="collision" x="544" y="384" width="16" height="16" />
  <object id="290" type="collision" x="560" y="384" width="16" height="16" />
  <object id="291" type="collision" x="16" y="400" width="16" height="16" />
  <object id="292" type="collision" x="32" y="400" width="16" height="16" />
  <object id="293" type="collision" x="48" y="400" width="16" height="16" />
  <object id="294" type="collision" x="512" y="400" width="16" height="16" />
  <object id="295" type="collision" x="528" y="400" width="16" height="16" />
  <object id="296" type="collision" x="544" y="400" width="16" height="16" />
  <object id="297" type="collision" x="0" y="416" width="16" height="16" />
  <object id="298" type="collision" x="16" y="416" width="16" height="16" />
  <object id="299" type="collision" x="48" y="416" width="16" height="16" />
  <object id="300" type="collision" x="528" y="416" width="16" height="16" />
  <object id="301" type="collision" x="544" y="416" width="16" height="16" />
  <object id="302" type="collision" x="560" y="416" width="16" height="16" />
  <object id="303" type="collision" x="0" y="432" width="16" height="16" />
  <object id="304" type="collision" x="16" y="432" width="16" height="16" />
  <object id="305" type="collision" x="32" y="432" width="16" height="16" />
  <object id="306" type="collision" x="48" y="432" width="16" height="16" />
  <object id="307" type="collision" x="512" y="432" width="16" height="16" />
  <object id="308" type="collision" x="528" y="432" width="16" height="16" />
  <object id="309" type="collision" x="560" y="432" width="16" height="16" />
  <object id="310" type="collision" x="0" y="448" width="16" height="16" />
  <object id="311" type="collision" x="32" y="448" width="16" height="16" />
  <object id="312" type="collision" x="48" y="448" width="16" height="16" />
  <object id="313" type="collision" x="512" y="448" width="16" height="16" />
  <object id="314" type="collision" x="528" y="448" width="16" height="16" />
  <object id="315" type="collision" x="544" y="448" width="16" height="16" />
  <object id="316" type="collision" x="560" y="448" width="16" height="16" />
  <object id="317" type="collision" x="0" y="464" width="16" height="16" />
  <object id="318" type="collision" x="16" y="464" width="16" height="16" />
  <object id="319" type="collision" x="32" y="464" width="16" height="16" />
  <object id="320" type="collision" x="400" y="464" width="16" height="16" />
  <object id="321" type="collision" x="512" y="464" width="16" height="16" />
  <object id="322" type="collision" x="544" y="464" width="16" height="16" />
  <object id="323" type="collision" x="560" y="464" width="16" height="16" />
  <object id="324" type="collision" x="16" y="480" width="16" height="16" />
  <object id="325" type="collision" x="32" y="480" width="16" height="16" />
  <object id="326" type="collision" x="48" y="480" width="16" height="16" />
  <object id="327" type="collision" x="64" y="480" width="16" height="16" />
  <object id="328" type="collision" x="96" y="480" width="16" height="16" />
  <object id="329" type="collision" x="112" y="480" width="16" height="16" />
  <object id="330" type="collision" x="128" y="480" width="16" height="16" />
  <object id="331" type="collision" x="144" y="480" width="16" height="16" />
  <object id="332" type="collision" x="176" y="480" width="16" height="16" />
  <object id="333" type="collision" x="192" y="480" width="16" height="16" />
  <object id="334" type="collision" x="208" y="480" width="16" height="16" />
  <object id="335" type="collision" x="224" y="480" width="16" height="16" />
  <object id="336" type="collision" x="304" y="480" width="16" height="16" />
  <object id="337" type="collision" x="336" y="480" width="16" height="16" />
  <object id="338" type="collision" x="352" y="480" width="16" height="16" />
  <object id="339" type="collision" x="368" y="480" width="16" height="16" />
  <object id="340" type="collision" x="384" y="480" width="16" height="16" />
  <object id="341" type="collision" x="416" y="480" width="16" height="16" />
  <object id="342" type="collision" x="432" y="480" width="16" height="16" />
  <object id="343" type="collision" x="448" y="480" width="16" height="16" />
  <object id="344" type="collision" x="464" y="480" width="16" height="16" />
  <object id="345" type="collision" x="496" y="480" width="16" height="16" />
  <object id="346" type="collision" x="512" y="480" width="16" height="16" />
  <object id="347" type="collision" x="528" y="480" width="16" height="16" />
  <object id="348" type="collision" x="544" y="480" width="16" height="16" />
  <object id="349" type="collision" x="0" y="496" width="16" height="16" />
  <object id="350" type="collision" x="16" y="496" width="16" height="16" />
  <object id="351" type="collision" x="48" y="496" width="16" height="16" />
  <object id="352" type="collision" x="64" y="496" width="16" height="16" />
  <object id="353" type="collision" x="80" y="496" width="16" height="16" />
  <object id="354" type="collision" x="96" y="496" width="16" height="16" />
  <object id="355" type="collision" x="128" y="496" width="16" height="16" />
  <object id="356" type="collision" x="144" y="496" width="16" height="16" />
  <object id="357" type="collision" x="160" y="496" width="16" height="16" />
  <object id="358" type="collision" x="176" y="496" width="16" height="16" />
  <object id="359" type="collision" x="208" y="496" width="16" height="16" />
  <object id="360" type="collision" x="224" y="496" width="16" height="16" />
  <object id="361" type="collision" x="304" y="496" width="16" height="16" />
  <object id="362" type="collision" x="320" y="496" width="16" height="16" />
  <object id="363" type="collision" x="336" y="496" width="16" height="16" />
  <object id="364" type="collision" x="368" y="496" width="16" height="16" />
  <object id="365" type="collision" x="384" y="496" width="16" height="16" />
  <object id="366" type="collision" x="400" y="496" width="16" height="16" />
  <object id="367" type="collision" x="416" y="496" width="16" height="16" />
  <object id="368" type="collision" x="448" y="496" width="16" height="16" />
  <object id="369" type="collision" x="464" y="496" width="16" height="16" />
  <object id="370" type="collision" x="480" y="496" width="16" height="16" />
  <object id="371" type="collision" x="496" y="496" width="16" height="16" />
  <object id="372" type="collision" x="528" y="496" width="16" height="16" />
  <object id="373" type="collision" x="544" y="496" width="16" height="16" />
  <object id="374" type="collision" x="560" y="496" width="16" height="16" />
  <object id="375" type="collision" x="0" y="512" width="16" height="16" />
  <object id="376" type="collision" x="16" y="512" width="16" height="16" />
  <object id="377" type="collision" x="32" y="512" width="16" height="16" />
  <object id="378" type="collision" x="48" y="512" width="16" height="16" />
  <object id="379" type="collision" x="80" y="512" width="16" height="16" />
  <object id="380" type="collision" x="96" y="512" width="16" height="16" />
  <object id="381" type="collision" x="112" y="512" width="16" height="16" />
  <object id="382" type="collision" x="128" y="512" width="16" height="16" />
  <object id="383" type="collision" x="160" y="512" width="16" height="16" />
  <object id="384" type="collision" x="176" y="512" width="16" height="16" />
  <object id="385" type="collision" x="192" y="512" width="16" height="16" />
  <object id="386" type="collision" x="208" y="512" width="16" height="16" />
  <object id="387" type="collision" x="240" y="512" width="16" height="16" />
  <object id="388" type="collision" x="320" y="512" width="16" height="16" />
  <object id="389" type="collision" x="336" y="512" width="16" height="16" />
  <object id="390" type="collision" x="352" y="512" width="16" height="16" />
  <object id="391" type="collision" x="368" y="512" width="16" height="16" />
  <object id="392" type="collision" x="400" y="512" width="16" height="16" />
  <object id="393" type="collision" x="416" y="512" width="16" height="16" />
  <object id="394" type="collision" x="432" y="512" width="16" height="16" />
  <object id="395" type="collision" x="448" y="512" width="16" height="16" />
  <object id="396" type="collision" x="480" y="512" width="16" height="16" />
  <object id="397" type="collision" x="496" y="512" width="16" height="16" />
  <object id="398" type="collision" x="512" y="512" width="16" height="16" />
  <object id="399" type="collision" x="528" y="512" width="16" height="16" />
  <object id="400" type="collision" x="560" y="512" width="16" height="16" />
  <object id="401" type="collision" x="0" y="528" width="16" height="16" />
  <object id="402" type="collision" x="32" y="528" width="16" height="16" />
  <object id="403" type="collision" x="48" y="528" width="16" height="16" />
  <object id="404" type="collision" x="64" y="528" width="16" height="16" />
  <object id="405" type="collision" x="80" y="528" width="16" height="16" />
  <object id="406" type="collision" x="112" y="528" width="16" height="16" />
  <object id="407" type="collision" x="128" y="528" width="16" height="16" />
  <object id="408" type="collision" x="144" y="528" width="16" height="16" />
  <object id="409" type="collision" x="160" y="528" width="16" height="16" />
  <object id="410" type="collision" x="192" y="528" width="16" height="16" />
  <object id="411" type="collision" x="208" y="528" width="16" height="16" />
  <object id="412" type="collision" x="224" y="528" width="16" height="16" />
  <object id="413" type="collision" x="240" y="528" width="16" height="16" />
  <object id="414" type="collision" x="320" y="528" width="16" height="16" />
  <object id="415" type="collision" x="352" y="528" width="16" height="16" />
  <object id="416" type="collision" x="368" y="528" width="16" height="16" />
  <object id="417" type="collision" x="384" y="528" width="16" height="16" />
  <object id="418" type="collision" x="400" y="528" width="16" height="16" />
  <object id="419" type="collision" x="432" y="528" width="16" height="16" />
  <object id="420" type="collision" x="448" y="528" width="16" height="16" />
  <object id="421" type="collision" x="464" y="528" width="16" height="16" />
  <object id="422" type="collision" x="480" y="528" width="16" height="16" />
  <object id="423" type="collision" x="512" y="528" width="16" height="16" />
  <object id="424" type="collision" x="528" y="528" width="16" height="16" />
  <object id="425" type="collision" x="544" y="528" width="16" height="16" />
  <object id="426" type="collision" x="560" y="528" width="16" height="16" />
 </objectgroup>
 <objectgroup id="6" name="Events" color="#ffff00">
  <object id="427" name="r0_south_to_village" type="event" x="288" y="0" width="16" height="16">
   <properties>
    <property name="act10" value="transition_teleport player,r0_ashenbell.tmx,17,28,0.3" />
    <property name="act20" value="char_face player,up" />
    <property name="cond10" value="is char_at player" />
    <property name="cond20" value="is char_facing player,up" />
   </properties>
  </object>
  <object id="428" name="Create r0_south_shepherd" type="event" x="288" y="432" width="16" height="16">
   <properties>
    <property name="act1" value="create_npc r0_south_shepherd,18,27" />
    <property name="cond1" value="not char_exists r0_south_shepherd" />
   </properties>
  </object>
  <object id="429" name="Talk r0_south_shepherd" type="event" x="288" y="432" width="16" height="16">
   <properties>
    <property name="act1" value="char_talk r0_south_shepherd,pre_battle" />
    <property name="behav1" value="talk r0_south_shepherd" />
   </properties>
  </object>
  <object id="430" name="r0_south_encounters" type="event" x="416" y="320" width="128" height="128">
   <properties>
    <property name="act1" value="random_encounter r0_south_ecology,9" />
   </properties>
  </object>
  <object id="431" name="r0_read_south_marker" type="event" x="400" y="464" width="16" height="16">
   <properties>
    <property name="act1" value="translated_dialog The marker shows Split Crown above a bell, then ASHENBELL." />
    <property name="act2" value="set_variable r0_south_marker:read" />
    <property name="cond21" value="not variable_set r0_south_marker:read" />
    <property name="cond10" value="is char_facing_tile player" />
    <property name="cond20" value="is button_pressed INTERACT" />
   </properties>
  </object>
  <object id="432" name="Give R0 starter" type="event" x="0" y="0" width="16" height="16">
   <properties>
    <property name="act1" value="add_monster cardiling,7" />
    <property name="act2" value="set_variable ashenbell_r0_starter:yes" />
    <property name="cond1" value="not variable_set ashenbell_r0_starter:yes" />
   </properties>
  </object>
  <object id="433" name="Environment" type="event" x="0" y="0" width="16" height="16">
   <properties>
    <property name="act1" value="set_environment grass" />
    <property name="cond1" value="not environment_is grass" />
   </properties>
  </object>
 </objectgroup>
</map>
